(Exported by FreeCAD)
(Post Processor: grbl_post)
(Output Time:2019-10-21 22:14:13.400513)
(begin preamble)
G17 G90
G21
(begin operation: T5: end mill 0.8mm002)
(Path: T5: end mill 0.8mm002)
(T5: end mill 0.8mm002)
(begin toolchange)
; M6 T5
M3 S10000.0000
(finish operation: T5: end mill 0.8mm002)
(begin operation: Profile_Edges038)
(Path: Profile_Edges038)
(Profile_Edges038)
(Compensated Tool Path. Diameter: 0.8)
G0
G0 X0.7060 Y0.7038
G1 X0.7060 Y0.7038 Z-0.5000 F200.00
G2 X0.3861 Y-0.9206 Z-0.5000 I-0.7049 J-0.7049 F200.00
G2 X-0.3838 Y0.9184 Z-0.5000 I-0.3849 J0.9195 F200.00
G2 X0.7060 Y0.7038 Z-0.5000 I0.3849 J-0.9195 F200.00
G1 X0.7060 Y0.7038 Z-1.0000 F200.00
G2 X0.3861 Y-0.9206 Z-1.0000 I-0.7049 J-0.7049 F200.00
G2 X-0.3838 Y0.9184 Z-1.0000 I-0.3849 J0.9195 F200.00
G2 X0.7060 Y0.7038 Z-1.0000 I0.3849 J-0.9195 F200.00
G1 X0.7060 Y0.7038 Z-1.5000 F200.00
G2 X0.3861 Y-0.9206 Z-1.5000 I-0.7049 J-0.7049 F200.00
G2 X-0.3838 Y0.9184 Z-1.5000 I-0.3849 J0.9195 F200.00
G2 X0.7060 Y0.7038 Z-1.5000 I0.3849 J-0.9195 F200.00
G1 X0.7060 Y0.7038 Z-2.0000 F200.00
G2 X0.3861 Y-0.9206 Z-2.0000 I-0.7049 J-0.7049 F200.00
G2 X-0.3838 Y0.9184 Z-2.0000 I-0.3849 J0.9195 F200.00
G2 X0.7060 Y0.7038 Z-2.0000 I0.3849 J-0.9195 F200.00
G1 X0.7060 Y0.7038 Z-2.5000 F200.00
G2 X0.3861 Y-0.9206 Z-2.5000 I-0.7049 J-0.7049 F200.00
G2 X-0.3838 Y0.9184 Z-2.5000 I-0.3849 J0.9195 F200.00
G2 X0.7060 Y0.7038 Z-2.5000 I0.3849 J-0.9195 F200.00
G1 X0.7060 Y0.7038 Z-3.0000 F200.00
G2 X0.3861 Y-0.9206 Z-3.0000 I-0.7049 J-0.7049 F200.00
G2 X-0.3838 Y0.9184 Z-3.0000 I-0.3849 J0.9195 F200.00
G2 X0.7060 Y0.7038 Z-3.0000 I0.3849 J-0.9195 F200.00
G1 X0.7060 Y0.7038 Z-3.5000 F200.00
G2 X0.3861 Y-0.9206 Z-3.5000 I-0.7049 J-0.7049 F200.00
G2 X-0.3838 Y0.9184 Z-3.5000 I-0.3849 J0.9195 F200.00
G2 X0.7060 Y0.7038 Z-3.5000 I0.3849 J-0.9195 F200.00
G1 X0.7060 Y0.7038 Z-4.0000 F200.00
G2 X0.3861 Y-0.9206 Z-4.0000 I-0.7049 J-0.7049 F200.00
G2 X-0.3838 Y0.9184 Z-4.0000 I-0.3849 J0.9195 F200.00
G2 X0.7060 Y0.7038 Z-4.0000 I0.3849 J-0.9195 F200.00
G1 X0.7060 Y0.7038 Z-4.5000 F200.00
G2 X0.3861 Y-0.9206 Z-4.5000 I-0.7049 J-0.7049 F200.00
G2 X-0.3838 Y0.9184 Z-4.5000 I-0.3849 J0.9195 F200.00
G2 X0.7060 Y0.7038 Z-4.5000 I0.3849 J-0.9195 F200.00
G1 X0.7060 Y0.7038 Z-5.0000 F200.00
G2 X0.3861 Y-0.9206 Z-5.0000 I-0.7049 J-0.7049 F200.00
G2 X-0.3838 Y0.9184 Z-5.0000 I-0.3849 J0.9195 F200.00
G2 X0.7060 Y0.7038 Z-5.0000 I0.3849 J-0.9195 F200.00
G1 X0.7060 Y0.7038 Z-5.5000 F200.00
G2 X0.3861 Y-0.9206 Z-5.5000 I-0.7049 J-0.7049 F200.00
G2 X-0.3838 Y0.9184 Z-5.5000 I-0.3849 J0.9195 F200.00
G2 X0.7060 Y0.7038 Z-5.5000 I0.3849 J-0.9195 F200.00
G1 X0.7060 Y0.7038 Z-6.0000 F200.00
G2 X0.3861 Y-0.9206 Z-6.0000 I-0.7049 J-0.7049 F200.00
G2 X-0.3838 Y0.9184 Z-6.0000 I-0.3849 J0.9195 F200.00
G2 X0.7060 Y0.7038 Z-6.0000 I0.3849 J-0.9195 F200.00
G1 X0.7060 Y0.7038 Z-6.5000 F200.00
G2 X0.3861 Y-0.9206 Z-6.5000 I-0.7049 J-0.7049 F200.00
G2 X-0.3838 Y0.9184 Z-6.5000 I-0.3849 J0.9195 F200.00
G2 X0.7060 Y0.7038 Z-6.5000 I0.3849 J-0.9195 F200.00
G1 X0.7060 Y0.7038 Z-7.0000 F200.00
G2 X0.3861 Y-0.9206 Z-7.0000 I-0.7049 J-0.7049 F200.00
G2 X-0.3838 Y0.9184 Z-7.0000 I-0.3849 J0.9195 F200.00
G2 X0.7060 Y0.7038 Z-7.0000 I0.3849 J-0.9195 F200.00
G1 X0.7060 Y0.7038 Z-7.5000 F200.00
G2 X0.3861 Y-0.9206 Z-7.5000 I-0.7049 J-0.7049 F200.00
G2 X-0.3838 Y0.9184 Z-7.5000 I-0.3849 J0.9195 F200.00
G2 X0.7060 Y0.7038 Z-7.5000 I0.3849 J-0.9195 F200.00
G1 X0.7060 Y0.7038 Z-8.0000 F200.00
G2 X0.3861 Y-0.9206 Z-8.0000 I-0.7049 J-0.7049 F200.00
G2 X-0.3838 Y0.9184 Z-8.0000 I-0.3849 J0.9195 F200.00
G2 X0.7060 Y0.7038 Z-8.0000 I0.3849 J-0.9195 F200.00
G0 Z0.0000
(finish operation: Profile_Edges038)
(begin postamble)
M5
G17 G90
; M2
