(Exported by FreeCAD)
(Post Processor: grbl_post)
(Output Time:2019-09-19 19:33:21.993779)
(begin preamble)
G17 G90
G21
(begin operation: T5: end mill 0.8mm001)
(Path: T5: end mill 0.8mm001)
(T5: end mill 0.8mm001)
(begin toolchange)
; M6 T5
M3 S10000.0000
(finish operation: T5: end mill 0.8mm001)
(begin operation: holes)
(Path: holes)
(Profile_Edges028)
(Compensated Tool Path. Diameter: 0.8)
G0 Z5.0000
G0 X4.9600 Y10.1300
G0 Z3.0000
G1 X4.9600 Y10.1300 Z-0.2500 F200.00
G2 X4.4416 Y7.5236 Z-0.2500 I-1.1300 J-1.1300 F500.00
G2 X3.2184 Y10.4764 Z-0.2500 I-0.6116 J1.4764 F500.00
G2 X4.9600 Y10.1300 Z-0.2500 I0.6116 J-1.4764 F500.00
G1 X4.9600 Y10.1300 Z-0.5000 F200.00
G2 X4.4416 Y7.5236 Z-0.5000 I-1.1300 J-1.1300 F500.00
G2 X3.2184 Y10.4764 Z-0.5000 I-0.6116 J1.4764 F500.00
G2 X4.9600 Y10.1300 Z-0.5000 I0.6116 J-1.4764 F500.00
G1 X4.9600 Y10.1300 Z-0.7500 F200.00
G2 X4.4416 Y7.5236 Z-0.7500 I-1.1300 J-1.1300 F500.00
G2 X3.2184 Y10.4764 Z-0.7500 I-0.6116 J1.4764 F500.00
G2 X4.9600 Y10.1300 Z-0.7500 I0.6116 J-1.4764 F500.00
G1 X4.9600 Y10.1300 Z-1.0000 F200.00
G2 X4.4416 Y7.5236 Z-1.0000 I-1.1300 J-1.1300 F500.00
G2 X3.2184 Y10.4764 Z-1.0000 I-0.6116 J1.4764 F500.00
G2 X4.9600 Y10.1300 Z-1.0000 I0.6116 J-1.4764 F500.00
G1 X4.9600 Y10.1300 Z-1.2500 F200.00
G2 X4.4416 Y7.5236 Z-1.2500 I-1.1300 J-1.1300 F500.00
G2 X3.2184 Y10.4764 Z-1.2500 I-0.6116 J1.4764 F500.00
G2 X4.9600 Y10.1300 Z-1.2500 I0.6116 J-1.4764 F500.00
G1 X4.9600 Y10.1300 Z-1.5000 F200.00
G2 X4.4416 Y7.5236 Z-1.5000 I-1.1300 J-1.1300 F500.00
G2 X3.2184 Y10.4764 Z-1.5000 I-0.6116 J1.4764 F500.00
G2 X4.9600 Y10.1300 Z-1.5000 I0.6116 J-1.4764 F500.00
G1 X4.9600 Y10.1300 Z-1.7500 F200.00
G2 X4.4416 Y7.5236 Z-1.7500 I-1.1300 J-1.1300 F500.00
G2 X3.2184 Y10.4764 Z-1.7500 I-0.6116 J1.4764 F500.00
G2 X4.9600 Y10.1300 Z-1.7500 I0.6116 J-1.4764 F500.00
G1 X4.9600 Y10.1300 Z-2.0000 F200.00
G2 X4.4416 Y7.5236 Z-2.0000 I-1.1300 J-1.1300 F500.00
G2 X3.2184 Y10.4764 Z-2.0000 I-0.6116 J1.4764 F500.00
G2 X4.9600 Y10.1300 Z-2.0000 I0.6116 J-1.4764 F500.00
G1 X4.9600 Y10.1300 Z-2.2500 F200.00
G2 X4.4416 Y7.5236 Z-2.2500 I-1.1300 J-1.1300 F500.00
G2 X3.2184 Y10.4764 Z-2.2500 I-0.6116 J1.4764 F500.00
G2 X4.9600 Y10.1300 Z-2.2500 I0.6116 J-1.4764 F500.00
G1 X4.9600 Y10.1300 Z-2.5000 F200.00
G2 X4.4416 Y7.5236 Z-2.5000 I-1.1300 J-1.1300 F500.00
G2 X3.2184 Y10.4764 Z-2.5000 I-0.6116 J1.4764 F500.00
G2 X4.9600 Y10.1300 Z-2.5000 I0.6116 J-1.4764 F500.00
G1 X4.9600 Y10.1300 Z-2.7500 F200.00
G2 X4.4416 Y7.5236 Z-2.7500 I-1.1300 J-1.1300 F500.00
G2 X3.2184 Y10.4764 Z-2.7500 I-0.6116 J1.4764 F500.00
G2 X4.9600 Y10.1300 Z-2.7500 I0.6116 J-1.4764 F500.00
G1 X4.9600 Y10.1300 Z-3.0000 F200.00
G2 X4.4416 Y7.5236 Z-3.0000 I-1.1300 J-1.1300 F500.00
G2 X3.2184 Y10.4764 Z-3.0000 I-0.6116 J1.4764 F500.00
G2 X4.9600 Y10.1300 Z-3.0000 I0.6116 J-1.4764 F500.00
G0 Z5.0000
G0 X14.6676 Y10.8376
G0 Z3.0000
G1 X14.6676 Y10.8376 Z-0.2500 F200.00
G2 X13.6331 Y6.5284 Z-0.2500 I-1.8376 J-1.8376 F500.00
G2 X12.0269 Y11.4716 Z-0.2500 I-0.8031 J2.4716 F500.00
G2 X14.6676 Y10.8376 Z-0.2500 I0.8031 J-2.4716 F500.00
G1 X14.6676 Y10.8376 Z-0.5000 F200.00
G2 X13.6331 Y6.5284 Z-0.5000 I-1.8376 J-1.8376 F500.00
G2 X12.0269 Y11.4716 Z-0.5000 I-0.8031 J2.4716 F500.00
G2 X14.6676 Y10.8376 Z-0.5000 I0.8031 J-2.4716 F500.00
G1 X14.6676 Y10.8376 Z-0.7500 F200.00
G2 X13.6331 Y6.5284 Z-0.7500 I-1.8376 J-1.8376 F500.00
G2 X12.0269 Y11.4716 Z-0.7500 I-0.8031 J2.4716 F500.00
G2 X14.6676 Y10.8376 Z-0.7500 I0.8031 J-2.4716 F500.00
G1 X14.6676 Y10.8376 Z-1.0000 F200.00
G2 X13.6331 Y6.5284 Z-1.0000 I-1.8376 J-1.8376 F500.00
G2 X12.0269 Y11.4716 Z-1.0000 I-0.8031 J2.4716 F500.00
G2 X14.6676 Y10.8376 Z-1.0000 I0.8031 J-2.4716 F500.00
G1 X14.6676 Y10.8376 Z-1.2500 F200.00
G2 X13.6331 Y6.5284 Z-1.2500 I-1.8376 J-1.8376 F500.00
G2 X12.0269 Y11.4716 Z-1.2500 I-0.8031 J2.4716 F500.00
G2 X14.6676 Y10.8376 Z-1.2500 I0.8031 J-2.4716 F500.00
G1 X14.6676 Y10.8376 Z-1.5000 F200.00
G2 X13.6331 Y6.5284 Z-1.5000 I-1.8376 J-1.8376 F500.00
G2 X12.0269 Y11.4716 Z-1.5000 I-0.8031 J2.4716 F500.00
G2 X14.6676 Y10.8376 Z-1.5000 I0.8031 J-2.4716 F500.00
G1 X14.6676 Y10.8376 Z-1.7500 F200.00
G2 X13.6331 Y6.5284 Z-1.7500 I-1.8376 J-1.8376 F500.00
G2 X12.0269 Y11.4716 Z-1.7500 I-0.8031 J2.4716 F500.00
G2 X14.6676 Y10.8376 Z-1.7500 I0.8031 J-2.4716 F500.00
G1 X14.6676 Y10.8376 Z-2.0000 F200.00
G2 X13.6331 Y6.5284 Z-2.0000 I-1.8376 J-1.8376 F500.00
G2 X12.0269 Y11.4716 Z-2.0000 I-0.8031 J2.4716 F500.00
G2 X14.6676 Y10.8376 Z-2.0000 I0.8031 J-2.4716 F500.00
G1 X14.6676 Y10.8376 Z-2.2500 F200.00
G2 X13.6331 Y6.5284 Z-2.2500 I-1.8376 J-1.8376 F500.00
G2 X12.0269 Y11.4716 Z-2.2500 I-0.8031 J2.4716 F500.00
G2 X14.6676 Y10.8376 Z-2.2500 I0.8031 J-2.4716 F500.00
G1 X14.6676 Y10.8376 Z-2.5000 F200.00
G2 X13.6331 Y6.5284 Z-2.5000 I-1.8376 J-1.8376 F500.00
G2 X12.0269 Y11.4716 Z-2.5000 I-0.8031 J2.4716 F500.00
G2 X14.6676 Y10.8376 Z-2.5000 I0.8031 J-2.4716 F500.00
G1 X14.6676 Y10.8376 Z-2.7500 F200.00
G2 X13.6331 Y6.5284 Z-2.7500 I-1.8376 J-1.8376 F500.00
G2 X12.0269 Y11.4716 Z-2.7500 I-0.8031 J2.4716 F500.00
G2 X14.6676 Y10.8376 Z-2.7500 I0.8031 J-2.4716 F500.00
G1 X14.6676 Y10.8376 Z-3.0000 F200.00
G2 X13.6331 Y6.5284 Z-3.0000 I-1.8376 J-1.8376 F500.00
G2 X12.0269 Y11.4716 Z-3.0000 I-0.8031 J2.4716 F500.00
G2 X14.6676 Y10.8376 Z-3.0000 I0.8031 J-2.4716 F500.00
G0 Z5.0000
G0 X22.9600 Y10.1300
G0 Z3.0000
G1 X22.9600 Y10.1300 Z-0.2500 F200.00
G2 X22.4416 Y7.5236 Z-0.2500 I-1.1300 J-1.1300 F500.00
G2 X21.2184 Y10.4764 Z-0.2500 I-0.6116 J1.4764 F500.00
G2 X22.9600 Y10.1300 Z-0.2500 I0.6116 J-1.4764 F500.00
G1 X22.9600 Y10.1300 Z-0.5000 F200.00
G2 X22.4416 Y7.5236 Z-0.5000 I-1.1300 J-1.1300 F500.00
G2 X21.2184 Y10.4764 Z-0.5000 I-0.6116 J1.4764 F500.00
G2 X22.9600 Y10.1300 Z-0.5000 I0.6116 J-1.4764 F500.00
G1 X22.9600 Y10.1300 Z-0.7500 F200.00
G2 X22.4416 Y7.5236 Z-0.7500 I-1.1300 J-1.1300 F500.00
G2 X21.2184 Y10.4764 Z-0.7500 I-0.6116 J1.4764 F500.00
G2 X22.9600 Y10.1300 Z-0.7500 I0.6116 J-1.4764 F500.00
G1 X22.9600 Y10.1300 Z-1.0000 F200.00
G2 X22.4416 Y7.5236 Z-1.0000 I-1.1300 J-1.1300 F500.00
G2 X21.2184 Y10.4764 Z-1.0000 I-0.6116 J1.4764 F500.00
G2 X22.9600 Y10.1300 Z-1.0000 I0.6116 J-1.4764 F500.00
G1 X22.9600 Y10.1300 Z-1.2500 F200.00
G2 X22.4416 Y7.5236 Z-1.2500 I-1.1300 J-1.1300 F500.00
G2 X21.2184 Y10.4764 Z-1.2500 I-0.6116 J1.4764 F500.00
G2 X22.9600 Y10.1300 Z-1.2500 I0.6116 J-1.4764 F500.00
G1 X22.9600 Y10.1300 Z-1.5000 F200.00
G2 X22.4416 Y7.5236 Z-1.5000 I-1.1300 J-1.1300 F500.00
G2 X21.2184 Y10.4764 Z-1.5000 I-0.6116 J1.4764 F500.00
G2 X22.9600 Y10.1300 Z-1.5000 I0.6116 J-1.4764 F500.00
G1 X22.9600 Y10.1300 Z-1.7500 F200.00
G2 X22.4416 Y7.5236 Z-1.7500 I-1.1300 J-1.1300 F500.00
G2 X21.2184 Y10.4764 Z-1.7500 I-0.6116 J1.4764 F500.00
G2 X22.9600 Y10.1300 Z-1.7500 I0.6116 J-1.4764 F500.00
G1 X22.9600 Y10.1300 Z-2.0000 F200.00
G2 X22.4416 Y7.5236 Z-2.0000 I-1.1300 J-1.1300 F500.00
G2 X21.2184 Y10.4764 Z-2.0000 I-0.6116 J1.4764 F500.00
G2 X22.9600 Y10.1300 Z-2.0000 I0.6116 J-1.4764 F500.00
G1 X22.9600 Y10.1300 Z-2.2500 F200.00
G2 X22.4416 Y7.5236 Z-2.2500 I-1.1300 J-1.1300 F500.00
G2 X21.2184 Y10.4764 Z-2.2500 I-0.6116 J1.4764 F500.00
G2 X22.9600 Y10.1300 Z-2.2500 I0.6116 J-1.4764 F500.00
G1 X22.9600 Y10.1300 Z-2.5000 F200.00
G2 X22.4416 Y7.5236 Z-2.5000 I-1.1300 J-1.1300 F500.00
G2 X21.2184 Y10.4764 Z-2.5000 I-0.6116 J1.4764 F500.00
G2 X22.9600 Y10.1300 Z-2.5000 I0.6116 J-1.4764 F500.00
G1 X22.9600 Y10.1300 Z-2.7500 F200.00
G2 X22.4416 Y7.5236 Z-2.7500 I-1.1300 J-1.1300 F500.00
G2 X21.2184 Y10.4764 Z-2.7500 I-0.6116 J1.4764 F500.00
G2 X22.9600 Y10.1300 Z-2.7500 I0.6116 J-1.4764 F500.00
G1 X22.9600 Y10.1300 Z-3.0000 F200.00
G2 X22.4416 Y7.5236 Z-3.0000 I-1.1300 J-1.1300 F500.00
G2 X21.2184 Y10.4764 Z-3.0000 I-0.6116 J1.4764 F500.00
G2 X22.9600 Y10.1300 Z-3.0000 I0.6116 J-1.4764 F500.00
G0 Z5.0000
(finish operation: holes)
(begin operation: pocket_left)
(Path: pocket_left)
(Pocket_Shape003)
G0 Z5.0000
G0 X5.6685 Y10.8380
G0 Z3.0000
G1 X5.6685 Y10.8380 Z-0.2500 F200.00
G3 X4.2365 Y11.5668 Z-0.2500 I-1.8359 J-1.8361 F500.00
G3 X3.4235 Y6.4332 Z-0.2500 I-0.4065 J-2.5668 F500.00
G1 X3.7672 Y6.4062 Z-0.2500 F500.00
G1 X3.8300 Y7.2037 Z-0.2500 F500.00
G1 X3.7672 Y6.4062 Z-0.2500 F500.00
G3 X5.6685 Y10.8380 Z-0.2500 I0.0653 J2.5957 F500.00
G0 X5.6685 Y10.8380 Z5.0000
G0 X5.1009 Y10.2706 Z5.0000
G0 X5.1009 Y10.2706 Z2.7500
G1 X5.1009 Y10.2706 Z-0.2500 F200.00
G2 X3.8928 Y7.2087 Z-0.2500 I-1.2689 J-1.2686 F500.00
G1 X3.8300 Y8.0062 Z-0.2500 F500.00
G1 X3.9227 Y8.0135 Z-0.2500 F500.00
G3 X3.8300 Y9.9938 Z-0.2500 I-0.0911 J0.9881 F500.00
G3 X3.8300 Y8.0062 Z-0.2500 I0.0000 J-0.9938 F500.00
G1 X3.8928 Y7.2087 Z-0.2500 F500.00
G1 X3.8300 Y7.2037 Z-0.2500 F500.00
G2 X3.8300 Y10.7963 Z-0.2500 I0.0000 J1.7963 F500.00
G2 X5.1009 Y10.2706 Z-0.2500 I0.0020 J-1.7943 F500.00
G0 X5.1009 Y10.2706 Z5.0000
G0 X3.9653 Y9.1353 Z5.0000
G0 X3.9653 Y9.1353 Z2.7500
G1 X3.9653 Y9.1353 Z-0.2500 F200.00
G2 X3.8599 Y8.8110 Z-0.2500 I-0.1353 J-0.1353 F500.00
G1 X3.9227 Y8.0135 Z-0.2500 F500.00
G1 X3.8599 Y8.8110 Z-0.2500 F500.00
G2 X3.8001 Y9.1890 Z-0.2500 I-0.0299 J0.1890 F500.00
G2 X3.9653 Y9.1353 Z-0.2500 I0.0299 J-0.1890 F500.00
G1 X3.9653 Y9.1353 Z-0.5000 F200.00
G2 X3.8599 Y8.8110 Z-0.5000 I-0.1353 J-0.1353 F500.00
G1 X3.9227 Y8.0135 Z-0.5000 F500.00
G1 X3.8599 Y8.8110 Z-0.5000 F500.00
G2 X3.8001 Y9.1890 Z-0.5000 I-0.0299 J0.1890 F500.00
G2 X3.9653 Y9.1353 Z-0.5000 I0.0299 J-0.1890 F500.00
G0 X3.9653 Y9.1353 Z5.0000
G0 X4.5333 Y9.7031 Z5.0000
G0 X4.5333 Y9.7031 Z2.5000
G1 X4.5333 Y9.7031 Z-0.5000 F200.00
G3 X3.8300 Y9.9938 Z-0.5000 I-0.7017 J-0.7016 F500.00
G3 X3.8300 Y8.0062 Z-0.5000 I0.0000 J-0.9938 F500.00
G1 X3.8928 Y7.2087 Z-0.5000 F500.00
G1 X3.8300 Y7.2037 Z-0.5000 F500.00
G2 X3.8300 Y10.7963 Z-0.5000 I0.0000 J1.7963 F500.00
G2 X3.8928 Y7.2087 Z-0.5000 I0.0020 J-1.7943 F500.00
G1 X3.8300 Y8.0062 Z-0.5000 F500.00
G1 X3.9227 Y8.0135 Z-0.5000 F500.00
G3 X4.5333 Y9.7031 Z-0.5000 I-0.0911 J0.9881 F500.00
G0 X4.5333 Y9.7031 Z5.0000
G0 X5.6679 Y10.8386 Z5.0000
G0 X5.6679 Y10.8386 Z2.5000
G1 X5.6679 Y10.8386 Z-0.5000 F200.00
G3 X4.2365 Y11.5668 Z-0.5000 I-1.8353 J-1.8367 F500.00
G3 X3.4235 Y6.4332 Z-0.5000 I-0.4065 J-2.5668 F500.00
G1 X3.7672 Y6.4062 Z-0.5000 F500.00
G1 X3.8300 Y7.2037 Z-0.5000 F500.00
G1 X3.7672 Y6.4062 Z-0.5000 F500.00
G3 X5.6679 Y10.8386 Z-0.5000 I0.0653 J2.5957 F500.00
G1 X5.6679 Y10.8386 Z-0.7500 F200.00
G3 X4.2365 Y11.5668 Z-0.7500 I-1.8353 J-1.8367 F500.00
G3 X3.4235 Y6.4332 Z-0.7500 I-0.4065 J-2.5668 F500.00
G1 X3.7672 Y6.4062 Z-0.7500 F500.00
G1 X3.8300 Y7.2037 Z-0.7500 F500.00
G1 X3.7672 Y6.4062 Z-0.7500 F500.00
G3 X5.6679 Y10.8386 Z-0.7500 I0.0653 J2.5957 F500.00
G0 X5.6679 Y10.8386 Z5.0000
G0 X5.1005 Y10.2710 Z5.0000
G0 X5.1005 Y10.2710 Z2.2500
G1 X5.1005 Y10.2710 Z-0.7500 F200.00
G2 X3.8928 Y7.2087 Z-0.7500 I-1.2685 J-1.2690 F500.00
G1 X3.8300 Y8.0062 Z-0.7500 F500.00
G1 X3.9227 Y8.0135 Z-0.7500 F500.00
G3 X3.8300 Y9.9938 Z-0.7500 I-0.0911 J0.9881 F500.00
G3 X3.8300 Y8.0062 Z-0.7500 I0.0000 J-0.9938 F500.00
G1 X3.8928 Y7.2087 Z-0.7500 F500.00
G1 X3.8300 Y7.2037 Z-0.7500 F500.00
G2 X3.8300 Y10.7963 Z-0.7500 I0.0000 J1.7963 F500.00
G2 X5.1005 Y10.2710 Z-0.7500 I0.0020 J-1.7943 F500.00
G0 X5.1005 Y10.2710 Z5.0000
G0 X3.9653 Y9.1353 Z5.0000
G0 X3.9653 Y9.1353 Z2.2500
G1 X3.9653 Y9.1353 Z-0.7500 F200.00
G2 X3.8599 Y8.8110 Z-0.7500 I-0.1353 J-0.1353 F500.00
G1 X3.9227 Y8.0135 Z-0.7500 F500.00
G1 X3.8599 Y8.8110 Z-0.7500 F500.00
G2 X3.8001 Y9.1890 Z-0.7500 I-0.0299 J0.1890 F500.00
G2 X3.9653 Y9.1353 Z-0.7500 I0.0299 J-0.1890 F500.00
G1 X3.9653 Y9.1353 Z-1.0000 F200.00
G2 X3.8599 Y8.8110 Z-1.0000 I-0.1353 J-0.1353 F500.00
G1 X3.9227 Y8.0135 Z-1.0000 F500.00
G1 X3.8599 Y8.8110 Z-1.0000 F500.00
G2 X3.8001 Y9.1890 Z-1.0000 I-0.0299 J0.1890 F500.00
G2 X3.9653 Y9.1353 Z-1.0000 I0.0299 J-0.1890 F500.00
G0 X3.9653 Y9.1353 Z5.0000
G0 X4.5331 Y9.7033 Z5.0000
G0 X4.5331 Y9.7033 Z2.0000
G1 X4.5331 Y9.7033 Z-1.0000 F200.00
G3 X3.8300 Y9.9938 Z-1.0000 I-0.7015 J-0.7018 F500.00
G3 X3.8300 Y8.0062 Z-1.0000 I0.0000 J-0.9938 F500.00
G1 X3.8928 Y7.2087 Z-1.0000 F500.00
G1 X3.8300 Y7.2037 Z-1.0000 F500.00
G2 X3.8300 Y10.7963 Z-1.0000 I0.0000 J1.7963 F500.00
G2 X3.8928 Y7.2087 Z-1.0000 I0.0020 J-1.7943 F500.00
G1 X3.8300 Y8.0062 Z-1.0000 F500.00
G1 X3.9227 Y8.0135 Z-1.0000 F500.00
G3 X4.5331 Y9.7033 Z-1.0000 I-0.0911 J0.9881 F500.00
G0 X4.5331 Y9.7033 Z5.0000
G0 X5.6673 Y10.8392 Z5.0000
G0 X5.6673 Y10.8392 Z2.0000
G1 X5.6673 Y10.8392 Z-1.0000 F200.00
G3 X4.2365 Y11.5668 Z-1.0000 I-1.8347 J-1.8373 F500.00
G3 X3.4235 Y6.4332 Z-1.0000 I-0.4065 J-2.5668 F500.00
G1 X3.7672 Y6.4062 Z-1.0000 F500.00
G1 X3.8300 Y7.2037 Z-1.0000 F500.00
G1 X3.7672 Y6.4062 Z-1.0000 F500.00
G3 X5.6673 Y10.8392 Z-1.0000 I0.0653 J2.5957 F500.00
G1 X5.6673 Y10.8392 Z-1.2500 F200.00
G3 X4.2365 Y11.5668 Z-1.2500 I-1.8347 J-1.8373 F500.00
G3 X3.4235 Y6.4332 Z-1.2500 I-0.4065 J-2.5668 F500.00
G1 X3.7672 Y6.4062 Z-1.2500 F500.00
G1 X3.8300 Y7.2037 Z-1.2500 F500.00
G1 X3.7672 Y6.4062 Z-1.2500 F500.00
G3 X5.6673 Y10.8392 Z-1.2500 I0.0653 J2.5957 F500.00
G0 X5.6673 Y10.8392 Z5.0000
G0 X5.1001 Y10.2714 Z5.0000
G0 X5.1001 Y10.2714 Z1.7500
G1 X5.1001 Y10.2714 Z-1.2500 F200.00
G2 X3.8928 Y7.2087 Z-1.2500 I-1.2681 J-1.2694 F500.00
G1 X3.8300 Y8.0062 Z-1.2500 F500.00
G1 X3.9227 Y8.0135 Z-1.2500 F500.00
G3 X3.8300 Y9.9938 Z-1.2500 I-0.0911 J0.9881 F500.00
G3 X3.8300 Y8.0062 Z-1.2500 I0.0000 J-0.9938 F500.00
G1 X3.8928 Y7.2087 Z-1.2500 F500.00
G1 X3.8300 Y7.2037 Z-1.2500 F500.00
G2 X3.8300 Y10.7963 Z-1.2500 I0.0000 J1.7963 F500.00
G2 X5.1001 Y10.2714 Z-1.2500 I0.0020 J-1.7943 F500.00
G0 X5.1001 Y10.2714 Z5.0000
G0 X3.9652 Y9.1354 Z5.0000
G0 X3.9652 Y9.1354 Z1.7500
G1 X3.9652 Y9.1354 Z-1.2500 F200.00
G2 X3.8599 Y8.8110 Z-1.2500 I-0.1352 J-0.1354 F500.00
G1 X3.9227 Y8.0135 Z-1.2500 F500.00
G1 X3.8599 Y8.8110 Z-1.2500 F500.00
G2 X3.8001 Y9.1890 Z-1.2500 I-0.0299 J0.1890 F500.00
G2 X3.9652 Y9.1354 Z-1.2500 I0.0299 J-0.1890 F500.00
G1 X3.9652 Y9.1354 Z-1.5000 F200.00
G2 X3.8599 Y8.8110 Z-1.5000 I-0.1352 J-0.1354 F500.00
G1 X3.9227 Y8.0135 Z-1.5000 F500.00
G1 X3.8599 Y8.8110 Z-1.5000 F500.00
G2 X3.8001 Y9.1890 Z-1.5000 I-0.0299 J0.1890 F500.00
G2 X3.9652 Y9.1354 Z-1.5000 I0.0299 J-0.1890 F500.00
G0 X3.9652 Y9.1354 Z5.0000
G0 X4.5328 Y9.7035 Z5.0000
G0 X4.5328 Y9.7035 Z1.5000
G1 X4.5328 Y9.7035 Z-1.5000 F200.00
G3 X3.8300 Y9.9938 Z-1.5000 I-0.7013 J-0.7020 F500.00
G3 X3.8300 Y8.0062 Z-1.5000 I0.0000 J-0.9938 F500.00
G1 X3.8928 Y7.2087 Z-1.5000 F500.00
G1 X3.8300 Y7.2037 Z-1.5000 F500.00
G2 X3.8300 Y10.7963 Z-1.5000 I0.0000 J1.7963 F500.00
G2 X3.8928 Y7.2087 Z-1.5000 I0.0020 J-1.7943 F500.00
G1 X3.8300 Y8.0062 Z-1.5000 F500.00
G1 X3.9227 Y8.0135 Z-1.5000 F500.00
G3 X4.5328 Y9.7035 Z-1.5000 I-0.0911 J0.9881 F500.00
G0 X4.5328 Y9.7035 Z5.0000
G0 X5.6667 Y10.8397 Z5.0000
G0 X5.6667 Y10.8397 Z1.5000
G1 X5.6667 Y10.8397 Z-1.5000 F200.00
G3 X4.2365 Y11.5668 Z-1.5000 I-1.8342 J-1.8379 F500.00
G3 X3.4235 Y6.4332 Z-1.5000 I-0.4065 J-2.5668 F500.00
G1 X3.7672 Y6.4062 Z-1.5000 F500.00
G1 X3.8300 Y7.2037 Z-1.5000 F500.00
G1 X3.7672 Y6.4062 Z-1.5000 F500.00
G3 X5.6667 Y10.8397 Z-1.5000 I0.0653 J2.5957 F500.00
G1 X5.6667 Y10.8397 Z-1.7500 F200.00
G3 X4.2365 Y11.5668 Z-1.7500 I-1.8342 J-1.8379 F500.00
G3 X3.4235 Y6.4332 Z-1.7500 I-0.4065 J-2.5668 F500.00
G1 X3.7672 Y6.4062 Z-1.7500 F500.00
G1 X3.8300 Y7.2037 Z-1.7500 F500.00
G1 X3.7672 Y6.4062 Z-1.7500 F500.00
G3 X5.6667 Y10.8397 Z-1.7500 I0.0653 J2.5957 F500.00
G0 X5.6667 Y10.8397 Z5.0000
G0 X5.0997 Y10.2718 Z5.0000
G0 X5.0997 Y10.2718 Z1.2500
G1 X5.0997 Y10.2718 Z-1.7500 F200.00
G2 X3.8928 Y7.2087 Z-1.7500 I-1.2677 J-1.2698 F500.00
G1 X3.8300 Y8.0062 Z-1.7500 F500.00
G1 X3.9227 Y8.0135 Z-1.7500 F500.00
G3 X3.8300 Y9.9938 Z-1.7500 I-0.0911 J0.9881 F500.00
G3 X3.8300 Y8.0062 Z-1.7500 I0.0000 J-0.9938 F500.00
G1 X3.8928 Y7.2087 Z-1.7500 F500.00
G1 X3.8300 Y7.2037 Z-1.7500 F500.00
G2 X3.8300 Y10.7963 Z-1.7500 I0.0000 J1.7963 F500.00
G2 X5.0997 Y10.2718 Z-1.7500 I0.0020 J-1.7943 F500.00
G0 X5.0997 Y10.2718 Z5.0000
G0 X3.9652 Y9.1354 Z5.0000
G0 X3.9652 Y9.1354 Z1.2500
G1 X3.9652 Y9.1354 Z-1.7500 F200.00
G2 X3.8599 Y8.8110 Z-1.7500 I-0.1352 J-0.1354 F500.00
G1 X3.9227 Y8.0135 Z-1.7500 F500.00
G1 X3.8599 Y8.8110 Z-1.7500 F500.00
G2 X3.8001 Y9.1890 Z-1.7500 I-0.0299 J0.1890 F500.00
G2 X3.9652 Y9.1354 Z-1.7500 I0.0299 J-0.1890 F500.00
G1 X3.9652 Y9.1354 Z-2.0000 F200.00
G2 X3.8599 Y8.8110 Z-2.0000 I-0.1352 J-0.1354 F500.00
G1 X3.9227 Y8.0135 Z-2.0000 F500.00
G1 X3.8599 Y8.8110 Z-2.0000 F500.00
G2 X3.8001 Y9.1890 Z-2.0000 I-0.0299 J0.1890 F500.00
G2 X3.9652 Y9.1354 Z-2.0000 I0.0299 J-0.1890 F500.00
G0 X3.9652 Y9.1354 Z5.0000
G0 X4.5326 Y9.7038 Z5.0000
G0 X4.5326 Y9.7038 Z1.0000
G1 X4.5326 Y9.7038 Z-2.0000 F200.00
G3 X3.8300 Y9.9938 Z-2.0000 I-0.7011 J-0.7022 F500.00
G3 X3.8300 Y8.0062 Z-2.0000 I0.0000 J-0.9938 F500.00
G1 X3.8928 Y7.2087 Z-2.0000 F500.00
G1 X3.8300 Y7.2037 Z-2.0000 F500.00
G2 X3.8300 Y10.7963 Z-2.0000 I0.0000 J1.7963 F500.00
G2 X3.8928 Y7.2087 Z-2.0000 I0.0020 J-1.7943 F500.00
G1 X3.8300 Y8.0062 Z-2.0000 F500.00
G1 X3.9227 Y8.0135 Z-2.0000 F500.00
G3 X4.5326 Y9.7038 Z-2.0000 I-0.0911 J0.9881 F500.00
G0 X4.5326 Y9.7038 Z5.0000
G0 X5.6661 Y10.8403 Z5.0000
G0 X5.6661 Y10.8403 Z1.0000
G1 X5.6661 Y10.8403 Z-2.0000 F200.00
G3 X4.2365 Y11.5668 Z-2.0000 I-1.8336 J-1.8385 F500.00
G3 X3.4235 Y6.4332 Z-2.0000 I-0.4065 J-2.5668 F500.00
G1 X3.7672 Y6.4062 Z-2.0000 F500.00
G1 X3.8300 Y7.2037 Z-2.0000 F500.00
G1 X3.7672 Y6.4062 Z-2.0000 F500.00
G3 X5.6661 Y10.8403 Z-2.0000 I0.0653 J2.5957 F500.00
G0 Z5.0000
(finish operation: pocket_left)
(begin operation: pocket_left_finish)
(Path: pocket_left_finish)
(Profile_Edges032)
(Compensated Tool Path. Diameter: 0.8)
G0 Z5.0000
G0 X5.6676 Y10.8376
G0 Z3.0000
G1 X5.6676 Y10.8376 Z-0.5000 F200.00
G2 X4.6331 Y6.5284 Z-0.5000 I-1.8376 J-1.8376 F500.00
G2 X3.0269 Y11.4716 Z-0.5000 I-0.8031 J2.4716 F500.00
G2 X5.6676 Y10.8376 Z-0.5000 I0.8031 J-2.4716 F500.00
G1 X5.6676 Y10.8376 Z-1.0000 F200.00
G2 X4.6331 Y6.5284 Z-1.0000 I-1.8376 J-1.8376 F500.00
G2 X3.0269 Y11.4716 Z-1.0000 I-0.8031 J2.4716 F500.00
G2 X5.6676 Y10.8376 Z-1.0000 I0.8031 J-2.4716 F500.00
G1 X5.6676 Y10.8376 Z-1.5000 F200.00
G2 X4.6331 Y6.5284 Z-1.5000 I-1.8376 J-1.8376 F500.00
G2 X3.0269 Y11.4716 Z-1.5000 I-0.8031 J2.4716 F500.00
G2 X5.6676 Y10.8376 Z-1.5000 I0.8031 J-2.4716 F500.00
G1 X5.6676 Y10.8376 Z-2.0000 F200.00
G2 X4.6331 Y6.5284 Z-2.0000 I-1.8376 J-1.8376 F500.00
G2 X3.0269 Y11.4716 Z-2.0000 I-0.8031 J2.4716 F500.00
G2 X5.6676 Y10.8376 Z-2.0000 I0.8031 J-2.4716 F500.00
G0 Z5.0000
(finish operation: pocket_left_finish)
(begin operation: pocket_right)
(Path: pocket_right)
(Pocket_Shape004)
G0 Z5.0000
G0 X23.6685 Y10.8380
G0 Z3.0000
G1 X23.6685 Y10.8380 Z-0.2500 F200.00
G3 X22.2365 Y11.5668 Z-0.2500 I-1.8359 J-1.8361 F500.00
G3 X21.4235 Y6.4332 Z-0.2500 I-0.4065 J-2.5668 F500.00
G1 X21.7672 Y6.4062 Z-0.2500 F500.00
G1 X21.8300 Y7.2037 Z-0.2500 F500.00
G1 X21.7672 Y6.4062 Z-0.2500 F500.00
G3 X23.6685 Y10.8380 Z-0.2500 I0.0653 J2.5957 F500.00
G0 X23.6685 Y10.8380 Z5.0000
G0 X23.1009 Y10.2706 Z5.0000
G0 X23.1009 Y10.2706 Z2.7500
G1 X23.1009 Y10.2706 Z-0.2500 F200.00
G2 X21.8928 Y7.2087 Z-0.2500 I-1.2689 J-1.2686 F500.00
G1 X21.8300 Y8.0062 Z-0.2500 F500.00
G1 X21.9227 Y8.0135 Z-0.2500 F500.00
G3 X21.8300 Y9.9938 Z-0.2500 I-0.0911 J0.9881 F500.00
G3 X21.8300 Y8.0062 Z-0.2500 I0.0000 J-0.9938 F500.00
G1 X21.8928 Y7.2087 Z-0.2500 F500.00
G1 X21.8300 Y7.2037 Z-0.2500 F500.00
G2 X21.8300 Y10.7963 Z-0.2500 I0.0000 J1.7963 F500.00
G2 X23.1009 Y10.2706 Z-0.2500 I0.0020 J-1.7943 F500.00
G0 X23.1009 Y10.2706 Z5.0000
G0 X21.9653 Y9.1353 Z5.0000
G0 X21.9653 Y9.1353 Z2.7500
G1 X21.9653 Y9.1353 Z-0.2500 F200.00
G2 X21.8599 Y8.8110 Z-0.2500 I-0.1353 J-0.1353 F500.00
G1 X21.9227 Y8.0135 Z-0.2500 F500.00
G1 X21.8599 Y8.8110 Z-0.2500 F500.00
G2 X21.8001 Y9.1890 Z-0.2500 I-0.0299 J0.1890 F500.00
G2 X21.9653 Y9.1353 Z-0.2500 I0.0299 J-0.1890 F500.00
G1 X21.9653 Y9.1353 Z-0.5000 F200.00
G2 X21.8599 Y8.8110 Z-0.5000 I-0.1353 J-0.1353 F500.00
G1 X21.9227 Y8.0135 Z-0.5000 F500.00
G1 X21.8599 Y8.8110 Z-0.5000 F500.00
G2 X21.8001 Y9.1890 Z-0.5000 I-0.0299 J0.1890 F500.00
G2 X21.9653 Y9.1353 Z-0.5000 I0.0299 J-0.1890 F500.00
G0 X21.9653 Y9.1353 Z5.0000
G0 X22.5333 Y9.7031 Z5.0000
G0 X22.5333 Y9.7031 Z2.5000
G1 X22.5333 Y9.7031 Z-0.5000 F200.00
G3 X21.8300 Y9.9938 Z-0.5000 I-0.7017 J-0.7016 F500.00
G3 X21.8300 Y8.0062 Z-0.5000 I0.0000 J-0.9938 F500.00
G1 X21.8928 Y7.2087 Z-0.5000 F500.00
G1 X21.8300 Y7.2037 Z-0.5000 F500.00
G2 X21.8300 Y10.7963 Z-0.5000 I0.0000 J1.7963 F500.00
G2 X21.8928 Y7.2087 Z-0.5000 I0.0020 J-1.7943 F500.00
G1 X21.8300 Y8.0062 Z-0.5000 F500.00
G1 X21.9227 Y8.0135 Z-0.5000 F500.00
G3 X22.5333 Y9.7031 Z-0.5000 I-0.0911 J0.9881 F500.00
G0 X22.5333 Y9.7031 Z5.0000
G0 X23.6679 Y10.8386 Z5.0000
G0 X23.6679 Y10.8386 Z2.5000
G1 X23.6679 Y10.8386 Z-0.5000 F200.00
G3 X22.2365 Y11.5668 Z-0.5000 I-1.8353 J-1.8367 F500.00
G3 X21.4235 Y6.4332 Z-0.5000 I-0.4065 J-2.5668 F500.00
G1 X21.7672 Y6.4062 Z-0.5000 F500.00
G1 X21.8300 Y7.2037 Z-0.5000 F500.00
G1 X21.7672 Y6.4062 Z-0.5000 F500.00
G3 X23.6679 Y10.8386 Z-0.5000 I0.0653 J2.5957 F500.00
G1 X23.6679 Y10.8386 Z-0.7500 F200.00
G3 X22.2365 Y11.5668 Z-0.7500 I-1.8353 J-1.8367 F500.00
G3 X21.4235 Y6.4332 Z-0.7500 I-0.4065 J-2.5668 F500.00
G1 X21.7672 Y6.4062 Z-0.7500 F500.00
G1 X21.8300 Y7.2037 Z-0.7500 F500.00
G1 X21.7672 Y6.4062 Z-0.7500 F500.00
G3 X23.6679 Y10.8386 Z-0.7500 I0.0653 J2.5957 F500.00
G0 X23.6679 Y10.8386 Z5.0000
G0 X23.1005 Y10.2710 Z5.0000
G0 X23.1005 Y10.2710 Z2.2500
G1 X23.1005 Y10.2710 Z-0.7500 F200.00
G2 X21.8928 Y7.2087 Z-0.7500 I-1.2685 J-1.2690 F500.00
G1 X21.8300 Y8.0062 Z-0.7500 F500.00
G1 X21.9227 Y8.0135 Z-0.7500 F500.00
G3 X21.8300 Y9.9938 Z-0.7500 I-0.0911 J0.9881 F500.00
G3 X21.8300 Y8.0062 Z-0.7500 I0.0000 J-0.9938 F500.00
G1 X21.8928 Y7.2087 Z-0.7500 F500.00
G1 X21.8300 Y7.2037 Z-0.7500 F500.00
G2 X21.8300 Y10.7963 Z-0.7500 I0.0000 J1.7963 F500.00
G2 X23.1005 Y10.2710 Z-0.7500 I0.0020 J-1.7943 F500.00
G0 X23.1005 Y10.2710 Z5.0000
G0 X21.9653 Y9.1353 Z5.0000
G0 X21.9653 Y9.1353 Z2.2500
G1 X21.9653 Y9.1353 Z-0.7500 F200.00
G2 X21.8599 Y8.8110 Z-0.7500 I-0.1353 J-0.1353 F500.00
G1 X21.9227 Y8.0135 Z-0.7500 F500.00
G1 X21.8599 Y8.8110 Z-0.7500 F500.00
G2 X21.8001 Y9.1890 Z-0.7500 I-0.0299 J0.1890 F500.00
G2 X21.9653 Y9.1353 Z-0.7500 I0.0299 J-0.1890 F500.00
G1 X21.9653 Y9.1353 Z-1.0000 F200.00
G2 X21.8599 Y8.8110 Z-1.0000 I-0.1353 J-0.1353 F500.00
G1 X21.9227 Y8.0135 Z-1.0000 F500.00
G1 X21.8599 Y8.8110 Z-1.0000 F500.00
G2 X21.8001 Y9.1890 Z-1.0000 I-0.0299 J0.1890 F500.00
G2 X21.9653 Y9.1353 Z-1.0000 I0.0299 J-0.1890 F500.00
G0 X21.9653 Y9.1353 Z5.0000
G0 X22.5331 Y9.7033 Z5.0000
G0 X22.5331 Y9.7033 Z2.0000
G1 X22.5331 Y9.7033 Z-1.0000 F200.00
G3 X21.8300 Y9.9938 Z-1.0000 I-0.7015 J-0.7018 F500.00
G3 X21.8300 Y8.0062 Z-1.0000 I0.0000 J-0.9938 F500.00
G1 X21.8928 Y7.2087 Z-1.0000 F500.00
G1 X21.8300 Y7.2037 Z-1.0000 F500.00
G2 X21.8300 Y10.7963 Z-1.0000 I0.0000 J1.7963 F500.00
G2 X21.8928 Y7.2087 Z-1.0000 I0.0020 J-1.7943 F500.00
G1 X21.8300 Y8.0062 Z-1.0000 F500.00
G1 X21.9227 Y8.0135 Z-1.0000 F500.00
G3 X22.5331 Y9.7033 Z-1.0000 I-0.0911 J0.9881 F500.00
G0 X22.5331 Y9.7033 Z5.0000
G0 X23.6673 Y10.8392 Z5.0000
G0 X23.6673 Y10.8392 Z2.0000
G1 X23.6673 Y10.8392 Z-1.0000 F200.00
G3 X22.2365 Y11.5668 Z-1.0000 I-1.8347 J-1.8373 F500.00
G3 X21.4235 Y6.4332 Z-1.0000 I-0.4065 J-2.5668 F500.00
G1 X21.7672 Y6.4062 Z-1.0000 F500.00
G1 X21.8300 Y7.2037 Z-1.0000 F500.00
G1 X21.7672 Y6.4062 Z-1.0000 F500.00
G3 X23.6673 Y10.8392 Z-1.0000 I0.0653 J2.5957 F500.00
G1 X23.6673 Y10.8392 Z-1.2500 F200.00
G3 X22.2365 Y11.5668 Z-1.2500 I-1.8347 J-1.8373 F500.00
G3 X21.4235 Y6.4332 Z-1.2500 I-0.4065 J-2.5668 F500.00
G1 X21.7672 Y6.4062 Z-1.2500 F500.00
G1 X21.8300 Y7.2037 Z-1.2500 F500.00
G1 X21.7672 Y6.4062 Z-1.2500 F500.00
G3 X23.6673 Y10.8392 Z-1.2500 I0.0653 J2.5957 F500.00
G0 X23.6673 Y10.8392 Z5.0000
G0 X23.1001 Y10.2714 Z5.0000
G0 X23.1001 Y10.2714 Z1.7500
G1 X23.1001 Y10.2714 Z-1.2500 F200.00
G2 X21.8928 Y7.2087 Z-1.2500 I-1.2681 J-1.2694 F500.00
G1 X21.8300 Y8.0062 Z-1.2500 F500.00
G1 X21.9227 Y8.0135 Z-1.2500 F500.00
G3 X21.8300 Y9.9938 Z-1.2500 I-0.0911 J0.9881 F500.00
G3 X21.8300 Y8.0062 Z-1.2500 I0.0000 J-0.9938 F500.00
G1 X21.8928 Y7.2087 Z-1.2500 F500.00
G1 X21.8300 Y7.2037 Z-1.2500 F500.00
G2 X21.8300 Y10.7963 Z-1.2500 I0.0000 J1.7963 F500.00
G2 X23.1001 Y10.2714 Z-1.2500 I0.0020 J-1.7943 F500.00
G0 X23.1001 Y10.2714 Z5.0000
G0 X21.9652 Y9.1354 Z5.0000
G0 X21.9652 Y9.1354 Z1.7500
G1 X21.9652 Y9.1354 Z-1.2500 F200.00
G2 X21.8599 Y8.8110 Z-1.2500 I-0.1352 J-0.1354 F500.00
G1 X21.9227 Y8.0135 Z-1.2500 F500.00
G1 X21.8599 Y8.8110 Z-1.2500 F500.00
G2 X21.8001 Y9.1890 Z-1.2500 I-0.0299 J0.1890 F500.00
G2 X21.9652 Y9.1354 Z-1.2500 I0.0299 J-0.1890 F500.00
G1 X21.9652 Y9.1354 Z-1.5000 F200.00
G2 X21.8599 Y8.8110 Z-1.5000 I-0.1352 J-0.1354 F500.00
G1 X21.9227 Y8.0135 Z-1.5000 F500.00
G1 X21.8599 Y8.8110 Z-1.5000 F500.00
G2 X21.8001 Y9.1890 Z-1.5000 I-0.0299 J0.1890 F500.00
G2 X21.9652 Y9.1354 Z-1.5000 I0.0299 J-0.1890 F500.00
G0 X21.9652 Y9.1354 Z5.0000
G0 X22.5328 Y9.7035 Z5.0000
G0 X22.5328 Y9.7035 Z1.5000
G1 X22.5328 Y9.7035 Z-1.5000 F200.00
G3 X21.8300 Y9.9938 Z-1.5000 I-0.7013 J-0.7020 F500.00
G3 X21.8300 Y8.0062 Z-1.5000 I0.0000 J-0.9938 F500.00
G1 X21.8928 Y7.2087 Z-1.5000 F500.00
G1 X21.8300 Y7.2037 Z-1.5000 F500.00
G2 X21.8300 Y10.7963 Z-1.5000 I0.0000 J1.7963 F500.00
G2 X21.8928 Y7.2087 Z-1.5000 I0.0020 J-1.7943 F500.00
G1 X21.8300 Y8.0062 Z-1.5000 F500.00
G1 X21.9227 Y8.0135 Z-1.5000 F500.00
G3 X22.5328 Y9.7035 Z-1.5000 I-0.0911 J0.9881 F500.00
G0 X22.5328 Y9.7035 Z5.0000
G0 X23.6667 Y10.8397 Z5.0000
G0 X23.6667 Y10.8397 Z1.5000
G1 X23.6667 Y10.8397 Z-1.5000 F200.00
G3 X22.2365 Y11.5668 Z-1.5000 I-1.8342 J-1.8379 F500.00
G3 X21.4235 Y6.4332 Z-1.5000 I-0.4065 J-2.5668 F500.00
G1 X21.7672 Y6.4062 Z-1.5000 F500.00
G1 X21.8300 Y7.2037 Z-1.5000 F500.00
G1 X21.7672 Y6.4062 Z-1.5000 F500.00
G3 X23.6667 Y10.8397 Z-1.5000 I0.0653 J2.5957 F500.00
G1 X23.6667 Y10.8397 Z-1.7500 F200.00
G3 X22.2365 Y11.5668 Z-1.7500 I-1.8342 J-1.8379 F500.00
G3 X21.4235 Y6.4332 Z-1.7500 I-0.4065 J-2.5668 F500.00
G1 X21.7672 Y6.4062 Z-1.7500 F500.00
G1 X21.8300 Y7.2037 Z-1.7500 F500.00
G1 X21.7672 Y6.4062 Z-1.7500 F500.00
G3 X23.6667 Y10.8397 Z-1.7500 I0.0653 J2.5957 F500.00
G0 X23.6667 Y10.8397 Z5.0000
G0 X23.0997 Y10.2718 Z5.0000
G0 X23.0997 Y10.2718 Z1.2500
G1 X23.0997 Y10.2718 Z-1.7500 F200.00
G2 X21.8928 Y7.2087 Z-1.7500 I-1.2677 J-1.2698 F500.00
G1 X21.8300 Y8.0062 Z-1.7500 F500.00
G1 X21.9227 Y8.0135 Z-1.7500 F500.00
G3 X21.8300 Y9.9938 Z-1.7500 I-0.0911 J0.9881 F500.00
G3 X21.8300 Y8.0062 Z-1.7500 I0.0000 J-0.9938 F500.00
G1 X21.8928 Y7.2087 Z-1.7500 F500.00
G1 X21.8300 Y7.2037 Z-1.7500 F500.00
G2 X21.8300 Y10.7963 Z-1.7500 I0.0000 J1.7963 F500.00
G2 X23.0997 Y10.2718 Z-1.7500 I0.0020 J-1.7943 F500.00
G0 X23.0997 Y10.2718 Z5.0000
G0 X21.9652 Y9.1354 Z5.0000
G0 X21.9652 Y9.1354 Z1.2500
G1 X21.9652 Y9.1354 Z-1.7500 F200.00
G2 X21.8599 Y8.8110 Z-1.7500 I-0.1352 J-0.1354 F500.00
G1 X21.9227 Y8.0135 Z-1.7500 F500.00
G1 X21.8599 Y8.8110 Z-1.7500 F500.00
G2 X21.8001 Y9.1890 Z-1.7500 I-0.0299 J0.1890 F500.00
G2 X21.9652 Y9.1354 Z-1.7500 I0.0299 J-0.1890 F500.00
G1 X21.9652 Y9.1354 Z-2.0000 F200.00
G2 X21.8599 Y8.8110 Z-2.0000 I-0.1352 J-0.1354 F500.00
G1 X21.9227 Y8.0135 Z-2.0000 F500.00
G1 X21.8599 Y8.8110 Z-2.0000 F500.00
G2 X21.8001 Y9.1890 Z-2.0000 I-0.0299 J0.1890 F500.00
G2 X21.9652 Y9.1354 Z-2.0000 I0.0299 J-0.1890 F500.00
G0 X21.9652 Y9.1354 Z5.0000
G0 X22.5326 Y9.7038 Z5.0000
G0 X22.5326 Y9.7038 Z1.0000
G1 X22.5326 Y9.7038 Z-2.0000 F200.00
G3 X21.8300 Y9.9938 Z-2.0000 I-0.7011 J-0.7022 F500.00
G3 X21.8300 Y8.0062 Z-2.0000 I0.0000 J-0.9938 F500.00
G1 X21.8928 Y7.2087 Z-2.0000 F500.00
G1 X21.8300 Y7.2037 Z-2.0000 F500.00
G2 X21.8300 Y10.7963 Z-2.0000 I0.0000 J1.7963 F500.00
G2 X21.8928 Y7.2087 Z-2.0000 I0.0020 J-1.7943 F500.00
G1 X21.8300 Y8.0062 Z-2.0000 F500.00
G1 X21.9227 Y8.0135 Z-2.0000 F500.00
G3 X22.5326 Y9.7038 Z-2.0000 I-0.0911 J0.9881 F500.00
G0 X22.5326 Y9.7038 Z5.0000
G0 X23.6661 Y10.8403 Z5.0000
G0 X23.6661 Y10.8403 Z1.0000
G1 X23.6661 Y10.8403 Z-2.0000 F200.00
G3 X22.2365 Y11.5668 Z-2.0000 I-1.8336 J-1.8385 F500.00
G3 X21.4235 Y6.4332 Z-2.0000 I-0.4065 J-2.5668 F500.00
G1 X21.7672 Y6.4062 Z-2.0000 F500.00
G1 X21.8300 Y7.2037 Z-2.0000 F500.00
G1 X21.7672 Y6.4062 Z-2.0000 F500.00
G3 X23.6661 Y10.8403 Z-2.0000 I0.0653 J2.5957 F500.00
G1 X23.6661 Y10.8403 Z-2.2500 F200.00
G3 X22.2365 Y11.5668 Z-2.2500 I-1.8336 J-1.8385 F500.00
G3 X21.4235 Y6.4332 Z-2.2500 I-0.4065 J-2.5668 F500.00
G1 X21.7672 Y6.4062 Z-2.2500 F500.00
G1 X21.8300 Y7.2037 Z-2.2500 F500.00
G1 X21.7672 Y6.4062 Z-2.2500 F500.00
G3 X23.6661 Y10.8403 Z-2.2500 I0.0653 J2.5957 F500.00
G0 X23.6661 Y10.8403 Z5.0000
G0 X23.0993 Y10.2722 Z5.0000
G0 X23.0993 Y10.2722 Z0.7500
G1 X23.0993 Y10.2722 Z-2.2500 F200.00
G2 X21.8928 Y7.2087 Z-2.2500 I-1.2673 J-1.2702 F500.00
G1 X21.8300 Y8.0062 Z-2.2500 F500.00
G1 X21.9227 Y8.0135 Z-2.2500 F500.00
G3 X21.8300 Y9.9938 Z-2.2500 I-0.0911 J0.9881 F500.00
G3 X21.8300 Y8.0062 Z-2.2500 I0.0000 J-0.9938 F500.00
G1 X21.8928 Y7.2087 Z-2.2500 F500.00
G1 X21.8300 Y7.2037 Z-2.2500 F500.00
G2 X21.8300 Y10.7963 Z-2.2500 I0.0000 J1.7963 F500.00
G2 X23.0993 Y10.2722 Z-2.2500 I0.0020 J-1.7943 F500.00
G0 X23.0993 Y10.2722 Z5.0000
G0 X21.9651 Y9.1355 Z5.0000
G0 X21.9651 Y9.1355 Z0.7500
G1 X21.9651 Y9.1355 Z-2.2500 F200.00
G2 X21.8599 Y8.8110 Z-2.2500 I-0.1351 J-0.1355 F500.00
G1 X21.9227 Y8.0135 Z-2.2500 F500.00
G1 X21.8599 Y8.8110 Z-2.2500 F500.00
G2 X21.8001 Y9.1890 Z-2.2500 I-0.0299 J0.1890 F500.00
G2 X21.9651 Y9.1355 Z-2.2500 I0.0299 J-0.1890 F500.00
G1 X21.9651 Y9.1355 Z-2.5000 F200.00
G2 X21.8599 Y8.8110 Z-2.5000 I-0.1351 J-0.1355 F500.00
G1 X21.9227 Y8.0135 Z-2.5000 F500.00
G1 X21.8599 Y8.8110 Z-2.5000 F500.00
G2 X21.8001 Y9.1890 Z-2.5000 I-0.0299 J0.1890 F500.00
G2 X21.9651 Y9.1355 Z-2.5000 I0.0299 J-0.1890 F500.00
G0 X21.9651 Y9.1355 Z5.0000
G0 X22.5324 Y9.7040 Z5.0000
G0 X22.5324 Y9.7040 Z0.5000
G1 X22.5324 Y9.7040 Z-2.5000 F200.00
G3 X21.8300 Y9.9938 Z-2.5000 I-0.7008 J-0.7024 F500.00
G3 X21.8300 Y8.0062 Z-2.5000 I0.0000 J-0.9938 F500.00
G1 X21.8928 Y7.2087 Z-2.5000 F500.00
G1 X21.8300 Y7.2037 Z-2.5000 F500.00
G2 X21.8300 Y10.7963 Z-2.5000 I0.0000 J1.7963 F500.00
G2 X21.8928 Y7.2087 Z-2.5000 I0.0020 J-1.7943 F500.00
G1 X21.8300 Y8.0062 Z-2.5000 F500.00
G1 X21.9227 Y8.0135 Z-2.5000 F500.00
G3 X22.5324 Y9.7040 Z-2.5000 I-0.0911 J0.9881 F500.00
G0 X22.5324 Y9.7040 Z5.0000
G0 X23.6656 Y10.8409 Z5.0000
G0 X23.6656 Y10.8409 Z0.5000
G1 X23.6656 Y10.8409 Z-2.5000 F200.00
G3 X22.2365 Y11.5668 Z-2.5000 I-1.8330 J-1.8390 F500.00
G3 X21.4235 Y6.4332 Z-2.5000 I-0.4065 J-2.5668 F500.00
G1 X21.7672 Y6.4062 Z-2.5000 F500.00
G1 X21.8300 Y7.2037 Z-2.5000 F500.00
G1 X21.7672 Y6.4062 Z-2.5000 F500.00
G3 X23.6656 Y10.8409 Z-2.5000 I0.0653 J2.5957 F500.00
G0 Z5.0000
(finish operation: pocket_right)
(begin operation: pocket_right_finish)
(Path: pocket_right_finish)
(Profile_Edges033)
(Compensated Tool Path. Diameter: 0.8)
G0 Z5.0000
G0 X23.6676 Y10.8376
G0 Z3.0000
G1 X23.6676 Y10.8376 Z-0.5000 F200.00
G2 X22.6331 Y6.5284 Z-0.5000 I-1.8376 J-1.8376 F500.00
G2 X21.0269 Y11.4716 Z-0.5000 I-0.8031 J2.4716 F500.00
G2 X23.6676 Y10.8376 Z-0.5000 I0.8031 J-2.4716 F500.00
G1 X23.6676 Y10.8376 Z-1.0000 F200.00
G2 X22.6331 Y6.5284 Z-1.0000 I-1.8376 J-1.8376 F500.00
G2 X21.0269 Y11.4716 Z-1.0000 I-0.8031 J2.4716 F500.00
G2 X23.6676 Y10.8376 Z-1.0000 I0.8031 J-2.4716 F500.00
G1 X23.6676 Y10.8376 Z-1.5000 F200.00
G2 X22.6331 Y6.5284 Z-1.5000 I-1.8376 J-1.8376 F500.00
G2 X21.0269 Y11.4716 Z-1.5000 I-0.8031 J2.4716 F500.00
G2 X23.6676 Y10.8376 Z-1.5000 I0.8031 J-2.4716 F500.00
G1 X23.6676 Y10.8376 Z-2.0000 F200.00
G2 X22.6331 Y6.5284 Z-2.0000 I-1.8376 J-1.8376 F500.00
G2 X21.0269 Y11.4716 Z-2.0000 I-0.8031 J2.4716 F500.00
G2 X23.6676 Y10.8376 Z-2.0000 I0.8031 J-2.4716 F500.00
G1 X23.6676 Y10.8376 Z-2.5000 F200.00
G2 X22.6331 Y6.5284 Z-2.5000 I-1.8376 J-1.8376 F500.00
G2 X21.0269 Y11.4716 Z-2.5000 I-0.8031 J2.4716 F500.00
G2 X23.6676 Y10.8376 Z-2.5000 I0.8031 J-2.4716 F500.00
G0 Z5.0000
(finish operation: pocket_right_finish)
(begin operation: contour_left)
(Path: contour_left)
(Profile_Edges029)
(Compensated Tool Path. Diameter: 0.8)
G0 Z5.0000
G0 X7.9428 Y18.2828
G0 Z3.0000
G1 X7.9428 Y18.2828 Z-0.2500 F200.00
G2 X8.0600 Y18.0000 Z-0.2500 I-0.2828 J-0.2828 F500.00
G1 X8.0600 Y0.0000 Z-0.2500 F500.00
G2 X7.6600 Y-0.4000 Z-0.2500 I-0.4000 J0.0000 F500.00
G1 X4.6600 Y-0.4000 Z-0.2500 F500.00
G2 X4.2600 Y0.0000 Z-0.2500 I0.0000 J0.4000 F500.00
G1 X4.2600 Y2.6000 Z-0.2500 F500.00
G1 X3.4000 Y2.6000 Z-0.2500 F500.00
G1 X3.4000 Y0.0000 Z-0.2500 F500.00
G2 X3.0000 Y-0.4000 Z-0.2500 I-0.4000 J0.0000 F500.00
G1 X0.0000 Y-0.4000 Z-0.2500 F500.00
G2 X-0.4000 Y0.0000 Z-0.2500 I0.0000 J0.4000 F500.00
G1 X-0.4000 Y18.0000 Z-0.2500 F500.00
G2 X0.0000 Y18.4000 Z-0.2500 I0.4000 J-0.0000 F500.00
G1 X3.0000 Y18.4000 Z-0.2500 F500.00
G2 X3.4000 Y18.0000 Z-0.2500 I-0.0000 J-0.4000 F500.00
G1 X3.4000 Y15.4000 Z-0.2500 F500.00
G1 X4.2600 Y15.4000 Z-0.2500 F500.00
G1 X4.2600 Y18.0000 Z-0.2500 F500.00
G2 X4.6600 Y18.4000 Z-0.2500 I0.4000 J-0.0000 F500.00
G1 X7.6600 Y18.4000 Z-0.2500 F500.00
G2 X7.9428 Y18.2828 Z-0.2500 I-0.0000 J-0.4000 F500.00
G1 X7.9428 Y18.2828 Z-0.5000 F200.00
G2 X8.0600 Y18.0000 Z-0.5000 I-0.2828 J-0.2828 F500.00
G1 X8.0600 Y0.0000 Z-0.5000 F500.00
G2 X7.6600 Y-0.4000 Z-0.5000 I-0.4000 J0.0000 F500.00
G1 X4.6600 Y-0.4000 Z-0.5000 F500.00
G2 X4.2600 Y0.0000 Z-0.5000 I0.0000 J0.4000 F500.00
G1 X4.2600 Y2.6000 Z-0.5000 F500.00
G1 X3.4000 Y2.6000 Z-0.5000 F500.00
G1 X3.4000 Y0.0000 Z-0.5000 F500.00
G2 X3.0000 Y-0.4000 Z-0.5000 I-0.4000 J0.0000 F500.00
G1 X0.0000 Y-0.4000 Z-0.5000 F500.00
G2 X-0.4000 Y0.0000 Z-0.5000 I0.0000 J0.4000 F500.00
G1 X-0.4000 Y18.0000 Z-0.5000 F500.00
G2 X0.0000 Y18.4000 Z-0.5000 I0.4000 J-0.0000 F500.00
G1 X3.0000 Y18.4000 Z-0.5000 F500.00
G2 X3.4000 Y18.0000 Z-0.5000 I-0.0000 J-0.4000 F500.00
G1 X3.4000 Y15.4000 Z-0.5000 F500.00
G1 X4.2600 Y15.4000 Z-0.5000 F500.00
G1 X4.2600 Y18.0000 Z-0.5000 F500.00
G2 X4.6600 Y18.4000 Z-0.5000 I0.4000 J-0.0000 F500.00
G1 X7.6600 Y18.4000 Z-0.5000 F500.00
G2 X7.9428 Y18.2828 Z-0.5000 I-0.0000 J-0.4000 F500.00
G1 X7.9428 Y18.2828 Z-0.7500 F200.00
G2 X8.0600 Y18.0000 Z-0.7500 I-0.2828 J-0.2828 F500.00
G1 X8.0600 Y0.0000 Z-0.7500 F500.00
G2 X7.6600 Y-0.4000 Z-0.7500 I-0.4000 J0.0000 F500.00
G1 X4.6600 Y-0.4000 Z-0.7500 F500.00
G2 X4.2600 Y0.0000 Z-0.7500 I0.0000 J0.4000 F500.00
G1 X4.2600 Y2.6000 Z-0.7500 F500.00
G1 X3.4000 Y2.6000 Z-0.7500 F500.00
G1 X3.4000 Y0.0000 Z-0.7500 F500.00
G2 X3.0000 Y-0.4000 Z-0.7500 I-0.4000 J0.0000 F500.00
G1 X0.0000 Y-0.4000 Z-0.7500 F500.00
G2 X-0.4000 Y0.0000 Z-0.7500 I0.0000 J0.4000 F500.00
G1 X-0.4000 Y18.0000 Z-0.7500 F500.00
G2 X0.0000 Y18.4000 Z-0.7500 I0.4000 J-0.0000 F500.00
G1 X3.0000 Y18.4000 Z-0.7500 F500.00
G2 X3.4000 Y18.0000 Z-0.7500 I-0.0000 J-0.4000 F500.00
G1 X3.4000 Y15.4000 Z-0.7500 F500.00
G1 X4.2600 Y15.4000 Z-0.7500 F500.00
G1 X4.2600 Y18.0000 Z-0.7500 F500.00
G2 X4.6600 Y18.4000 Z-0.7500 I0.4000 J-0.0000 F500.00
G1 X7.6600 Y18.4000 Z-0.7500 F500.00
G2 X7.9428 Y18.2828 Z-0.7500 I-0.0000 J-0.4000 F500.00
G1 X7.9428 Y18.2828 Z-1.0000 F200.00
G2 X8.0600 Y18.0000 Z-1.0000 I-0.2828 J-0.2828 F500.00
G1 X8.0600 Y0.0000 Z-1.0000 F500.00
G2 X7.6600 Y-0.4000 Z-1.0000 I-0.4000 J0.0000 F500.00
G1 X4.6600 Y-0.4000 Z-1.0000 F500.00
G2 X4.2600 Y0.0000 Z-1.0000 I0.0000 J0.4000 F500.00
G1 X4.2600 Y2.6000 Z-1.0000 F500.00
G1 X3.4000 Y2.6000 Z-1.0000 F500.00
G1 X3.4000 Y0.0000 Z-1.0000 F500.00
G2 X3.0000 Y-0.4000 Z-1.0000 I-0.4000 J0.0000 F500.00
G1 X0.0000 Y-0.4000 Z-1.0000 F500.00
G2 X-0.4000 Y0.0000 Z-1.0000 I0.0000 J0.4000 F500.00
G1 X-0.4000 Y18.0000 Z-1.0000 F500.00
G2 X0.0000 Y18.4000 Z-1.0000 I0.4000 J-0.0000 F500.00
G1 X3.0000 Y18.4000 Z-1.0000 F500.00
G2 X3.4000 Y18.0000 Z-1.0000 I-0.0000 J-0.4000 F500.00
G1 X3.4000 Y15.4000 Z-1.0000 F500.00
G1 X4.2600 Y15.4000 Z-1.0000 F500.00
G1 X4.2600 Y18.0000 Z-1.0000 F500.00
G2 X4.6600 Y18.4000 Z-1.0000 I0.4000 J-0.0000 F500.00
G1 X7.6600 Y18.4000 Z-1.0000 F500.00
G2 X7.9428 Y18.2828 Z-1.0000 I-0.0000 J-0.4000 F500.00
G1 X7.9428 Y18.2828 Z-1.2500 F200.00
G2 X8.0600 Y18.0000 Z-1.2500 I-0.2828 J-0.2828 F500.00
G1 X8.0600 Y0.0000 Z-1.2500 F500.00
G2 X7.6600 Y-0.4000 Z-1.2500 I-0.4000 J0.0000 F500.00
G1 X4.6600 Y-0.4000 Z-1.2500 F500.00
G2 X4.2600 Y0.0000 Z-1.2500 I0.0000 J0.4000 F500.00
G1 X4.2600 Y2.6000 Z-1.2500 F500.00
G1 X3.4000 Y2.6000 Z-1.2500 F500.00
G1 X3.4000 Y0.0000 Z-1.2500 F500.00
G2 X3.0000 Y-0.4000 Z-1.2500 I-0.4000 J0.0000 F500.00
G1 X0.0000 Y-0.4000 Z-1.2500 F500.00
G2 X-0.4000 Y0.0000 Z-1.2500 I0.0000 J0.4000 F500.00
G1 X-0.4000 Y18.0000 Z-1.2500 F500.00
G2 X0.0000 Y18.4000 Z-1.2500 I0.4000 J-0.0000 F500.00
G1 X3.0000 Y18.4000 Z-1.2500 F500.00
G2 X3.4000 Y18.0000 Z-1.2500 I-0.0000 J-0.4000 F500.00
G1 X3.4000 Y15.4000 Z-1.2500 F500.00
G1 X4.2600 Y15.4000 Z-1.2500 F500.00
G1 X4.2600 Y18.0000 Z-1.2500 F500.00
G2 X4.6600 Y18.4000 Z-1.2500 I0.4000 J-0.0000 F500.00
G1 X7.6600 Y18.4000 Z-1.2500 F500.00
G2 X7.9428 Y18.2828 Z-1.2500 I-0.0000 J-0.4000 F500.00
G1 X7.9428 Y18.2828 Z-1.5000 F200.00
G2 X8.0600 Y18.0000 Z-1.5000 I-0.2828 J-0.2828 F500.00
G1 X8.0600 Y0.0000 Z-1.5000 F500.00
G2 X7.6600 Y-0.4000 Z-1.5000 I-0.4000 J0.0000 F500.00
G1 X4.6600 Y-0.4000 Z-1.5000 F500.00
G2 X4.2600 Y0.0000 Z-1.5000 I0.0000 J0.4000 F500.00
G1 X4.2600 Y2.6000 Z-1.5000 F500.00
G1 X3.4000 Y2.6000 Z-1.5000 F500.00
G1 X3.4000 Y0.0000 Z-1.5000 F500.00
G2 X3.0000 Y-0.4000 Z-1.5000 I-0.4000 J0.0000 F500.00
G1 X0.0000 Y-0.4000 Z-1.5000 F500.00
G2 X-0.4000 Y0.0000 Z-1.5000 I0.0000 J0.4000 F500.00
G1 X-0.4000 Y18.0000 Z-1.5000 F500.00
G2 X0.0000 Y18.4000 Z-1.5000 I0.4000 J-0.0000 F500.00
G1 X3.0000 Y18.4000 Z-1.5000 F500.00
G2 X3.4000 Y18.0000 Z-1.5000 I-0.0000 J-0.4000 F500.00
G1 X3.4000 Y15.4000 Z-1.5000 F500.00
G1 X4.2600 Y15.4000 Z-1.5000 F500.00
G1 X4.2600 Y18.0000 Z-1.5000 F500.00
G2 X4.6600 Y18.4000 Z-1.5000 I0.4000 J-0.0000 F500.00
G1 X7.6600 Y18.4000 Z-1.5000 F500.00
G2 X7.9428 Y18.2828 Z-1.5000 I-0.0000 J-0.4000 F500.00
G1 X7.9428 Y18.2828 Z-1.7500 F200.00
G2 X8.0600 Y18.0000 Z-1.7500 I-0.2828 J-0.2828 F500.00
G1 X8.0600 Y0.0000 Z-1.7500 F500.00
G2 X7.6600 Y-0.4000 Z-1.7500 I-0.4000 J0.0000 F500.00
G1 X4.6600 Y-0.4000 Z-1.7500 F500.00
G2 X4.2600 Y0.0000 Z-1.7500 I0.0000 J0.4000 F500.00
G1 X4.2600 Y2.6000 Z-1.7500 F500.00
G1 X3.4000 Y2.6000 Z-1.7500 F500.00
G1 X3.4000 Y0.0000 Z-1.7500 F500.00
G2 X3.0000 Y-0.4000 Z-1.7500 I-0.4000 J0.0000 F500.00
G1 X0.0000 Y-0.4000 Z-1.7500 F500.00
G2 X-0.4000 Y0.0000 Z-1.7500 I0.0000 J0.4000 F500.00
G1 X-0.4000 Y18.0000 Z-1.7500 F500.00
G2 X0.0000 Y18.4000 Z-1.7500 I0.4000 J-0.0000 F500.00
G1 X3.0000 Y18.4000 Z-1.7500 F500.00
G2 X3.4000 Y18.0000 Z-1.7500 I-0.0000 J-0.4000 F500.00
G1 X3.4000 Y15.4000 Z-1.7500 F500.00
G1 X4.2600 Y15.4000 Z-1.7500 F500.00
G1 X4.2600 Y18.0000 Z-1.7500 F500.00
G2 X4.6600 Y18.4000 Z-1.7500 I0.4000 J-0.0000 F500.00
G1 X7.6600 Y18.4000 Z-1.7500 F500.00
G2 X7.9428 Y18.2828 Z-1.7500 I-0.0000 J-0.4000 F500.00
G1 X7.9428 Y18.2828 Z-2.0000 F200.00
G2 X8.0600 Y18.0000 Z-2.0000 I-0.2828 J-0.2828 F500.00
G1 X8.0600 Y0.0000 Z-2.0000 F500.00
G2 X7.6600 Y-0.4000 Z-2.0000 I-0.4000 J0.0000 F500.00
G1 X4.6600 Y-0.4000 Z-2.0000 F500.00
G2 X4.2600 Y0.0000 Z-2.0000 I0.0000 J0.4000 F500.00
G1 X4.2600 Y2.6000 Z-2.0000 F500.00
G1 X3.4000 Y2.6000 Z-2.0000 F500.00
G1 X3.4000 Y0.0000 Z-2.0000 F500.00
G2 X3.0000 Y-0.4000 Z-2.0000 I-0.4000 J0.0000 F500.00
G1 X0.0000 Y-0.4000 Z-2.0000 F500.00
G2 X-0.4000 Y0.0000 Z-2.0000 I0.0000 J0.4000 F500.00
G1 X-0.4000 Y18.0000 Z-2.0000 F500.00
G2 X0.0000 Y18.4000 Z-2.0000 I0.4000 J-0.0000 F500.00
G1 X3.0000 Y18.4000 Z-2.0000 F500.00
G2 X3.4000 Y18.0000 Z-2.0000 I-0.0000 J-0.4000 F500.00
G1 X3.4000 Y15.4000 Z-2.0000 F500.00
G1 X4.2600 Y15.4000 Z-2.0000 F500.00
G1 X4.2600 Y18.0000 Z-2.0000 F500.00
G2 X4.6600 Y18.4000 Z-2.0000 I0.4000 J-0.0000 F500.00
G1 X7.6600 Y18.4000 Z-2.0000 F500.00
G2 X7.9428 Y18.2828 Z-2.0000 I-0.0000 J-0.4000 F500.00
G1 X7.9428 Y18.2828 Z-2.2500 F200.00
G2 X8.0600 Y18.0000 Z-2.2500 I-0.2828 J-0.2828 F500.00
G1 X8.0600 Y0.0000 Z-2.2500 F500.00
G2 X7.6600 Y-0.4000 Z-2.2500 I-0.4000 J0.0000 F500.00
G1 X4.6600 Y-0.4000 Z-2.2500 F500.00
G2 X4.2600 Y0.0000 Z-2.2500 I0.0000 J0.4000 F500.00
G1 X4.2600 Y2.6000 Z-2.2500 F500.00
G1 X3.4000 Y2.6000 Z-2.2500 F500.00
G1 X3.4000 Y0.0000 Z-2.2500 F500.00
G2 X3.0000 Y-0.4000 Z-2.2500 I-0.4000 J0.0000 F500.00
G1 X0.0000 Y-0.4000 Z-2.2500 F500.00
G2 X-0.4000 Y0.0000 Z-2.2500 I0.0000 J0.4000 F500.00
G1 X-0.4000 Y18.0000 Z-2.2500 F500.00
G2 X0.0000 Y18.4000 Z-2.2500 I0.4000 J-0.0000 F500.00
G1 X3.0000 Y18.4000 Z-2.2500 F500.00
G2 X3.4000 Y18.0000 Z-2.2500 I-0.0000 J-0.4000 F500.00
G1 X3.4000 Y15.4000 Z-2.2500 F500.00
G1 X4.2600 Y15.4000 Z-2.2500 F500.00
G1 X4.2600 Y18.0000 Z-2.2500 F500.00
G2 X4.6600 Y18.4000 Z-2.2500 I0.4000 J-0.0000 F500.00
G1 X7.6600 Y18.4000 Z-2.2500 F500.00
G2 X7.9428 Y18.2828 Z-2.2500 I-0.0000 J-0.4000 F500.00
G1 X7.9428 Y18.2828 Z-2.5000 F200.00
G2 X8.0600 Y18.0000 Z-2.5000 I-0.2828 J-0.2828 F500.00
G1 X8.0600 Y0.0000 Z-2.5000 F500.00
G2 X7.6600 Y-0.4000 Z-2.5000 I-0.4000 J0.0000 F500.00
G1 X4.6600 Y-0.4000 Z-2.5000 F500.00
G2 X4.2600 Y0.0000 Z-2.5000 I0.0000 J0.4000 F500.00
G1 X4.2600 Y2.6000 Z-2.5000 F500.00
G1 X3.4000 Y2.6000 Z-2.5000 F500.00
G1 X3.4000 Y0.0000 Z-2.5000 F500.00
G2 X3.0000 Y-0.4000 Z-2.5000 I-0.4000 J0.0000 F500.00
G1 X0.0000 Y-0.4000 Z-2.5000 F500.00
G2 X-0.4000 Y0.0000 Z-2.5000 I0.0000 J0.4000 F500.00
G1 X-0.4000 Y18.0000 Z-2.5000 F500.00
G2 X0.0000 Y18.4000 Z-2.5000 I0.4000 J-0.0000 F500.00
G1 X3.0000 Y18.4000 Z-2.5000 F500.00
G2 X3.4000 Y18.0000 Z-2.5000 I-0.0000 J-0.4000 F500.00
G1 X3.4000 Y15.4000 Z-2.5000 F500.00
G1 X4.2600 Y15.4000 Z-2.5000 F500.00
G1 X4.2600 Y18.0000 Z-2.5000 F500.00
G2 X4.6600 Y18.4000 Z-2.5000 I0.4000 J-0.0000 F500.00
G1 X7.6600 Y18.4000 Z-2.5000 F500.00
G2 X7.9428 Y18.2828 Z-2.5000 I-0.0000 J-0.4000 F500.00
G1 X7.9428 Y18.2828 Z-2.7500 F200.00
G2 X8.0600 Y18.0000 Z-2.7500 I-0.2828 J-0.2828 F500.00
G1 X8.0600 Y0.0000 Z-2.7500 F500.00
G2 X7.6600 Y-0.4000 Z-2.7500 I-0.4000 J0.0000 F500.00
G1 X4.6600 Y-0.4000 Z-2.7500 F500.00
G2 X4.2600 Y0.0000 Z-2.7500 I0.0000 J0.4000 F500.00
G1 X4.2600 Y2.6000 Z-2.7500 F500.00
G1 X3.4000 Y2.6000 Z-2.7500 F500.00
G1 X3.4000 Y0.0000 Z-2.7500 F500.00
G2 X3.0000 Y-0.4000 Z-2.7500 I-0.4000 J0.0000 F500.00
G1 X0.0000 Y-0.4000 Z-2.7500 F500.00
G2 X-0.4000 Y0.0000 Z-2.7500 I0.0000 J0.4000 F500.00
G1 X-0.4000 Y18.0000 Z-2.7500 F500.00
G2 X0.0000 Y18.4000 Z-2.7500 I0.4000 J-0.0000 F500.00
G1 X3.0000 Y18.4000 Z-2.7500 F500.00
G2 X3.4000 Y18.0000 Z-2.7500 I-0.0000 J-0.4000 F500.00
G1 X3.4000 Y15.4000 Z-2.7500 F500.00
G1 X4.2600 Y15.4000 Z-2.7500 F500.00
G1 X4.2600 Y18.0000 Z-2.7500 F500.00
G2 X4.6600 Y18.4000 Z-2.7500 I0.4000 J-0.0000 F500.00
G1 X7.6600 Y18.4000 Z-2.7500 F500.00
G2 X7.9428 Y18.2828 Z-2.7500 I-0.0000 J-0.4000 F500.00
G1 X7.9428 Y18.2828 Z-3.0000 F200.00
G2 X8.0600 Y18.0000 Z-3.0000 I-0.2828 J-0.2828 F500.00
G1 X8.0600 Y0.0000 Z-3.0000 F500.00
G2 X7.6600 Y-0.4000 Z-3.0000 I-0.4000 J0.0000 F500.00
G1 X4.6600 Y-0.4000 Z-3.0000 F500.00
G2 X4.2600 Y0.0000 Z-3.0000 I0.0000 J0.4000 F500.00
G1 X4.2600 Y2.6000 Z-3.0000 F500.00
G1 X3.4000 Y2.6000 Z-3.0000 F500.00
G1 X3.4000 Y0.0000 Z-3.0000 F500.00
G2 X3.0000 Y-0.4000 Z-3.0000 I-0.4000 J0.0000 F500.00
G1 X0.0000 Y-0.4000 Z-3.0000 F500.00
G2 X-0.4000 Y0.0000 Z-3.0000 I0.0000 J0.4000 F500.00
G1 X-0.4000 Y18.0000 Z-3.0000 F500.00
G2 X0.0000 Y18.4000 Z-3.0000 I0.4000 J-0.0000 F500.00
G1 X3.0000 Y18.4000 Z-3.0000 F500.00
G2 X3.4000 Y18.0000 Z-3.0000 I-0.0000 J-0.4000 F500.00
G1 X3.4000 Y15.4000 Z-3.0000 F500.00
G1 X4.2600 Y15.4000 Z-3.0000 F500.00
G1 X4.2600 Y18.0000 Z-3.0000 F500.00
G2 X4.6600 Y18.4000 Z-3.0000 I0.4000 J-0.0000 F500.00
G1 X7.6600 Y18.4000 Z-3.0000 F500.00
G2 X7.9428 Y18.2828 Z-3.0000 I-0.0000 J-0.4000 F500.00
G0 Z5.0000
(finish operation: contour_left)
(begin operation: contour_middle)
(Path: contour_middle)
(Profile_Edges030)
(Compensated Tool Path. Diameter: 0.8)
G0 Z5.0000
G0 X16.9428 Y18.2828
G0 Z3.0000
G1 X16.9428 Y18.2828 Z-0.2500 F200.00
G2 X17.0600 Y18.0000 Z-0.2500 I-0.2828 J-0.2828 F500.00
G1 X17.0600 Y0.0000 Z-0.2500 F500.00
G2 X16.6600 Y-0.4000 Z-0.2500 I-0.4000 J0.0000 F500.00
G1 X13.6600 Y-0.4000 Z-0.2500 F500.00
G2 X13.2600 Y0.0000 Z-0.2500 I0.0000 J0.4000 F500.00
G1 X13.2600 Y2.6000 Z-0.2500 F500.00
G1 X12.4000 Y2.6000 Z-0.2500 F500.00
G1 X12.4000 Y0.0000 Z-0.2500 F500.00
G2 X12.0000 Y-0.4000 Z-0.2500 I-0.4000 J0.0000 F500.00
G1 X9.0000 Y-0.4000 Z-0.2500 F500.00
G2 X8.6000 Y0.0000 Z-0.2500 I0.0000 J0.4000 F500.00
G1 X8.6000 Y18.0000 Z-0.2500 F500.00
G2 X9.0000 Y18.4000 Z-0.2500 I0.4000 J-0.0000 F500.00
G1 X12.0000 Y18.4000 Z-0.2500 F500.00
G2 X12.4000 Y18.0000 Z-0.2500 I-0.0000 J-0.4000 F500.00
G1 X12.4000 Y15.4000 Z-0.2500 F500.00
G1 X13.2600 Y15.4000 Z-0.2500 F500.00
G1 X13.2600 Y18.0000 Z-0.2500 F500.00
G2 X13.6600 Y18.4000 Z-0.2500 I0.4000 J-0.0000 F500.00
G1 X16.6600 Y18.4000 Z-0.2500 F500.00
G2 X16.9428 Y18.2828 Z-0.2500 I-0.0000 J-0.4000 F500.00
G1 X16.9428 Y18.2828 Z-0.5000 F200.00
G2 X17.0600 Y18.0000 Z-0.5000 I-0.2828 J-0.2828 F500.00
G1 X17.0600 Y0.0000 Z-0.5000 F500.00
G2 X16.6600 Y-0.4000 Z-0.5000 I-0.4000 J0.0000 F500.00
G1 X13.6600 Y-0.4000 Z-0.5000 F500.00
G2 X13.2600 Y0.0000 Z-0.5000 I0.0000 J0.4000 F500.00
G1 X13.2600 Y2.6000 Z-0.5000 F500.00
G1 X12.4000 Y2.6000 Z-0.5000 F500.00
G1 X12.4000 Y0.0000 Z-0.5000 F500.00
G2 X12.0000 Y-0.4000 Z-0.5000 I-0.4000 J0.0000 F500.00
G1 X9.0000 Y-0.4000 Z-0.5000 F500.00
G2 X8.6000 Y0.0000 Z-0.5000 I0.0000 J0.4000 F500.00
G1 X8.6000 Y18.0000 Z-0.5000 F500.00
G2 X9.0000 Y18.4000 Z-0.5000 I0.4000 J-0.0000 F500.00
G1 X12.0000 Y18.4000 Z-0.5000 F500.00
G2 X12.4000 Y18.0000 Z-0.5000 I-0.0000 J-0.4000 F500.00
G1 X12.4000 Y15.4000 Z-0.5000 F500.00
G1 X13.2600 Y15.4000 Z-0.5000 F500.00
G1 X13.2600 Y18.0000 Z-0.5000 F500.00
G2 X13.6600 Y18.4000 Z-0.5000 I0.4000 J-0.0000 F500.00
G1 X16.6600 Y18.4000 Z-0.5000 F500.00
G2 X16.9428 Y18.2828 Z-0.5000 I-0.0000 J-0.4000 F500.00
G1 X16.9428 Y18.2828 Z-0.7500 F200.00
G2 X17.0600 Y18.0000 Z-0.7500 I-0.2828 J-0.2828 F500.00
G1 X17.0600 Y0.0000 Z-0.7500 F500.00
G2 X16.6600 Y-0.4000 Z-0.7500 I-0.4000 J0.0000 F500.00
G1 X13.6600 Y-0.4000 Z-0.7500 F500.00
G2 X13.2600 Y0.0000 Z-0.7500 I0.0000 J0.4000 F500.00
G1 X13.2600 Y2.6000 Z-0.7500 F500.00
G1 X12.4000 Y2.6000 Z-0.7500 F500.00
G1 X12.4000 Y0.0000 Z-0.7500 F500.00
G2 X12.0000 Y-0.4000 Z-0.7500 I-0.4000 J0.0000 F500.00
G1 X9.0000 Y-0.4000 Z-0.7500 F500.00
G2 X8.6000 Y0.0000 Z-0.7500 I0.0000 J0.4000 F500.00
G1 X8.6000 Y18.0000 Z-0.7500 F500.00
G2 X9.0000 Y18.4000 Z-0.7500 I0.4000 J-0.0000 F500.00
G1 X12.0000 Y18.4000 Z-0.7500 F500.00
G2 X12.4000 Y18.0000 Z-0.7500 I-0.0000 J-0.4000 F500.00
G1 X12.4000 Y15.4000 Z-0.7500 F500.00
G1 X13.2600 Y15.4000 Z-0.7500 F500.00
G1 X13.2600 Y18.0000 Z-0.7500 F500.00
G2 X13.6600 Y18.4000 Z-0.7500 I0.4000 J-0.0000 F500.00
G1 X16.6600 Y18.4000 Z-0.7500 F500.00
G2 X16.9428 Y18.2828 Z-0.7500 I-0.0000 J-0.4000 F500.00
G1 X16.9428 Y18.2828 Z-1.0000 F200.00
G2 X17.0600 Y18.0000 Z-1.0000 I-0.2828 J-0.2828 F500.00
G1 X17.0600 Y0.0000 Z-1.0000 F500.00
G2 X16.6600 Y-0.4000 Z-1.0000 I-0.4000 J0.0000 F500.00
G1 X13.6600 Y-0.4000 Z-1.0000 F500.00
G2 X13.2600 Y0.0000 Z-1.0000 I0.0000 J0.4000 F500.00
G1 X13.2600 Y2.6000 Z-1.0000 F500.00
G1 X12.4000 Y2.6000 Z-1.0000 F500.00
G1 X12.4000 Y0.0000 Z-1.0000 F500.00
G2 X12.0000 Y-0.4000 Z-1.0000 I-0.4000 J0.0000 F500.00
G1 X9.0000 Y-0.4000 Z-1.0000 F500.00
G2 X8.6000 Y0.0000 Z-1.0000 I0.0000 J0.4000 F500.00
G1 X8.6000 Y18.0000 Z-1.0000 F500.00
G2 X9.0000 Y18.4000 Z-1.0000 I0.4000 J-0.0000 F500.00
G1 X12.0000 Y18.4000 Z-1.0000 F500.00
G2 X12.4000 Y18.0000 Z-1.0000 I-0.0000 J-0.4000 F500.00
G1 X12.4000 Y15.4000 Z-1.0000 F500.00
G1 X13.2600 Y15.4000 Z-1.0000 F500.00
G1 X13.2600 Y18.0000 Z-1.0000 F500.00
G2 X13.6600 Y18.4000 Z-1.0000 I0.4000 J-0.0000 F500.00
G1 X16.6600 Y18.4000 Z-1.0000 F500.00
G2 X16.9428 Y18.2828 Z-1.0000 I-0.0000 J-0.4000 F500.00
G1 X16.9428 Y18.2828 Z-1.2500 F200.00
G2 X17.0600 Y18.0000 Z-1.2500 I-0.2828 J-0.2828 F500.00
G1 X17.0600 Y0.0000 Z-1.2500 F500.00
G2 X16.6600 Y-0.4000 Z-1.2500 I-0.4000 J0.0000 F500.00
G1 X13.6600 Y-0.4000 Z-1.2500 F500.00
G2 X13.2600 Y0.0000 Z-1.2500 I0.0000 J0.4000 F500.00
G1 X13.2600 Y2.6000 Z-1.2500 F500.00
G1 X12.4000 Y2.6000 Z-1.2500 F500.00
G1 X12.4000 Y0.0000 Z-1.2500 F500.00
G2 X12.0000 Y-0.4000 Z-1.2500 I-0.4000 J0.0000 F500.00
G1 X9.0000 Y-0.4000 Z-1.2500 F500.00
G2 X8.6000 Y0.0000 Z-1.2500 I0.0000 J0.4000 F500.00
G1 X8.6000 Y18.0000 Z-1.2500 F500.00
G2 X9.0000 Y18.4000 Z-1.2500 I0.4000 J-0.0000 F500.00
G1 X12.0000 Y18.4000 Z-1.2500 F500.00
G2 X12.4000 Y18.0000 Z-1.2500 I-0.0000 J-0.4000 F500.00
G1 X12.4000 Y15.4000 Z-1.2500 F500.00
G1 X13.2600 Y15.4000 Z-1.2500 F500.00
G1 X13.2600 Y18.0000 Z-1.2500 F500.00
G2 X13.6600 Y18.4000 Z-1.2500 I0.4000 J-0.0000 F500.00
G1 X16.6600 Y18.4000 Z-1.2500 F500.00
G2 X16.9428 Y18.2828 Z-1.2500 I-0.0000 J-0.4000 F500.00
G1 X16.9428 Y18.2828 Z-1.5000 F200.00
G2 X17.0600 Y18.0000 Z-1.5000 I-0.2828 J-0.2828 F500.00
G1 X17.0600 Y0.0000 Z-1.5000 F500.00
G2 X16.6600 Y-0.4000 Z-1.5000 I-0.4000 J0.0000 F500.00
G1 X13.6600 Y-0.4000 Z-1.5000 F500.00
G2 X13.2600 Y0.0000 Z-1.5000 I0.0000 J0.4000 F500.00
G1 X13.2600 Y2.6000 Z-1.5000 F500.00
G1 X12.4000 Y2.6000 Z-1.5000 F500.00
G1 X12.4000 Y0.0000 Z-1.5000 F500.00
G2 X12.0000 Y-0.4000 Z-1.5000 I-0.4000 J0.0000 F500.00
G1 X9.0000 Y-0.4000 Z-1.5000 F500.00
G2 X8.6000 Y0.0000 Z-1.5000 I0.0000 J0.4000 F500.00
G1 X8.6000 Y18.0000 Z-1.5000 F500.00
G2 X9.0000 Y18.4000 Z-1.5000 I0.4000 J-0.0000 F500.00
G1 X12.0000 Y18.4000 Z-1.5000 F500.00
G2 X12.4000 Y18.0000 Z-1.5000 I-0.0000 J-0.4000 F500.00
G1 X12.4000 Y15.4000 Z-1.5000 F500.00
G1 X13.2600 Y15.4000 Z-1.5000 F500.00
G1 X13.2600 Y18.0000 Z-1.5000 F500.00
G2 X13.6600 Y18.4000 Z-1.5000 I0.4000 J-0.0000 F500.00
G1 X16.6600 Y18.4000 Z-1.5000 F500.00
G2 X16.9428 Y18.2828 Z-1.5000 I-0.0000 J-0.4000 F500.00
G1 X16.9428 Y18.2828 Z-1.7500 F200.00
G2 X17.0600 Y18.0000 Z-1.7500 I-0.2828 J-0.2828 F500.00
G1 X17.0600 Y0.0000 Z-1.7500 F500.00
G2 X16.6600 Y-0.4000 Z-1.7500 I-0.4000 J0.0000 F500.00
G1 X13.6600 Y-0.4000 Z-1.7500 F500.00
G2 X13.2600 Y0.0000 Z-1.7500 I0.0000 J0.4000 F500.00
G1 X13.2600 Y2.6000 Z-1.7500 F500.00
G1 X12.4000 Y2.6000 Z-1.7500 F500.00
G1 X12.4000 Y0.0000 Z-1.7500 F500.00
G2 X12.0000 Y-0.4000 Z-1.7500 I-0.4000 J0.0000 F500.00
G1 X9.0000 Y-0.4000 Z-1.7500 F500.00
G2 X8.6000 Y0.0000 Z-1.7500 I0.0000 J0.4000 F500.00
G1 X8.6000 Y18.0000 Z-1.7500 F500.00
G2 X9.0000 Y18.4000 Z-1.7500 I0.4000 J-0.0000 F500.00
G1 X12.0000 Y18.4000 Z-1.7500 F500.00
G2 X12.4000 Y18.0000 Z-1.7500 I-0.0000 J-0.4000 F500.00
G1 X12.4000 Y15.4000 Z-1.7500 F500.00
G1 X13.2600 Y15.4000 Z-1.7500 F500.00
G1 X13.2600 Y18.0000 Z-1.7500 F500.00
G2 X13.6600 Y18.4000 Z-1.7500 I0.4000 J-0.0000 F500.00
G1 X16.6600 Y18.4000 Z-1.7500 F500.00
G2 X16.9428 Y18.2828 Z-1.7500 I-0.0000 J-0.4000 F500.00
G1 X16.9428 Y18.2828 Z-2.0000 F200.00
G2 X17.0600 Y18.0000 Z-2.0000 I-0.2828 J-0.2828 F500.00
G1 X17.0600 Y0.0000 Z-2.0000 F500.00
G2 X16.6600 Y-0.4000 Z-2.0000 I-0.4000 J0.0000 F500.00
G1 X13.6600 Y-0.4000 Z-2.0000 F500.00
G2 X13.2600 Y0.0000 Z-2.0000 I0.0000 J0.4000 F500.00
G1 X13.2600 Y2.6000 Z-2.0000 F500.00
G1 X12.4000 Y2.6000 Z-2.0000 F500.00
G1 X12.4000 Y0.0000 Z-2.0000 F500.00
G2 X12.0000 Y-0.4000 Z-2.0000 I-0.4000 J0.0000 F500.00
G1 X9.0000 Y-0.4000 Z-2.0000 F500.00
G2 X8.6000 Y0.0000 Z-2.0000 I0.0000 J0.4000 F500.00
G1 X8.6000 Y18.0000 Z-2.0000 F500.00
G2 X9.0000 Y18.4000 Z-2.0000 I0.4000 J-0.0000 F500.00
G1 X12.0000 Y18.4000 Z-2.0000 F500.00
G2 X12.4000 Y18.0000 Z-2.0000 I-0.0000 J-0.4000 F500.00
G1 X12.4000 Y15.4000 Z-2.0000 F500.00
G1 X13.2600 Y15.4000 Z-2.0000 F500.00
G1 X13.2600 Y18.0000 Z-2.0000 F500.00
G2 X13.6600 Y18.4000 Z-2.0000 I0.4000 J-0.0000 F500.00
G1 X16.6600 Y18.4000 Z-2.0000 F500.00
G2 X16.9428 Y18.2828 Z-2.0000 I-0.0000 J-0.4000 F500.00
G1 X16.9428 Y18.2828 Z-2.2500 F200.00
G2 X17.0600 Y18.0000 Z-2.2500 I-0.2828 J-0.2828 F500.00
G1 X17.0600 Y0.0000 Z-2.2500 F500.00
G2 X16.6600 Y-0.4000 Z-2.2500 I-0.4000 J0.0000 F500.00
G1 X13.6600 Y-0.4000 Z-2.2500 F500.00
G2 X13.2600 Y0.0000 Z-2.2500 I0.0000 J0.4000 F500.00
G1 X13.2600 Y2.6000 Z-2.2500 F500.00
G1 X12.4000 Y2.6000 Z-2.2500 F500.00
G1 X12.4000 Y0.0000 Z-2.2500 F500.00
G2 X12.0000 Y-0.4000 Z-2.2500 I-0.4000 J0.0000 F500.00
G1 X9.0000 Y-0.4000 Z-2.2500 F500.00
G2 X8.6000 Y0.0000 Z-2.2500 I0.0000 J0.4000 F500.00
G1 X8.6000 Y18.0000 Z-2.2500 F500.00
G2 X9.0000 Y18.4000 Z-2.2500 I0.4000 J-0.0000 F500.00
G1 X12.0000 Y18.4000 Z-2.2500 F500.00
G2 X12.4000 Y18.0000 Z-2.2500 I-0.0000 J-0.4000 F500.00
G1 X12.4000 Y15.4000 Z-2.2500 F500.00
G1 X13.2600 Y15.4000 Z-2.2500 F500.00
G1 X13.2600 Y18.0000 Z-2.2500 F500.00
G2 X13.6600 Y18.4000 Z-2.2500 I0.4000 J-0.0000 F500.00
G1 X16.6600 Y18.4000 Z-2.2500 F500.00
G2 X16.9428 Y18.2828 Z-2.2500 I-0.0000 J-0.4000 F500.00
G1 X16.9428 Y18.2828 Z-2.5000 F200.00
G2 X17.0600 Y18.0000 Z-2.5000 I-0.2828 J-0.2828 F500.00
G1 X17.0600 Y0.0000 Z-2.5000 F500.00
G2 X16.6600 Y-0.4000 Z-2.5000 I-0.4000 J0.0000 F500.00
G1 X13.6600 Y-0.4000 Z-2.5000 F500.00
G2 X13.2600 Y0.0000 Z-2.5000 I0.0000 J0.4000 F500.00
G1 X13.2600 Y2.6000 Z-2.5000 F500.00
G1 X12.4000 Y2.6000 Z-2.5000 F500.00
G1 X12.4000 Y0.0000 Z-2.5000 F500.00
G2 X12.0000 Y-0.4000 Z-2.5000 I-0.4000 J0.0000 F500.00
G1 X9.0000 Y-0.4000 Z-2.5000 F500.00
G2 X8.6000 Y0.0000 Z-2.5000 I0.0000 J0.4000 F500.00
G1 X8.6000 Y18.0000 Z-2.5000 F500.00
G2 X9.0000 Y18.4000 Z-2.5000 I0.4000 J-0.0000 F500.00
G1 X12.0000 Y18.4000 Z-2.5000 F500.00
G2 X12.4000 Y18.0000 Z-2.5000 I-0.0000 J-0.4000 F500.00
G1 X12.4000 Y15.4000 Z-2.5000 F500.00
G1 X13.2600 Y15.4000 Z-2.5000 F500.00
G1 X13.2600 Y18.0000 Z-2.5000 F500.00
G2 X13.6600 Y18.4000 Z-2.5000 I0.4000 J-0.0000 F500.00
G1 X16.6600 Y18.4000 Z-2.5000 F500.00
G2 X16.9428 Y18.2828 Z-2.5000 I-0.0000 J-0.4000 F500.00
G1 X16.9428 Y18.2828 Z-2.7500 F200.00
G2 X17.0600 Y18.0000 Z-2.7500 I-0.2828 J-0.2828 F500.00
G1 X17.0600 Y0.0000 Z-2.7500 F500.00
G2 X16.6600 Y-0.4000 Z-2.7500 I-0.4000 J0.0000 F500.00
G1 X13.6600 Y-0.4000 Z-2.7500 F500.00
G2 X13.2600 Y0.0000 Z-2.7500 I0.0000 J0.4000 F500.00
G1 X13.2600 Y2.6000 Z-2.7500 F500.00
G1 X12.4000 Y2.6000 Z-2.7500 F500.00
G1 X12.4000 Y0.0000 Z-2.7500 F500.00
G2 X12.0000 Y-0.4000 Z-2.7500 I-0.4000 J0.0000 F500.00
G1 X9.0000 Y-0.4000 Z-2.7500 F500.00
G2 X8.6000 Y0.0000 Z-2.7500 I0.0000 J0.4000 F500.00
G1 X8.6000 Y18.0000 Z-2.7500 F500.00
G2 X9.0000 Y18.4000 Z-2.7500 I0.4000 J-0.0000 F500.00
G1 X12.0000 Y18.4000 Z-2.7500 F500.00
G2 X12.4000 Y18.0000 Z-2.7500 I-0.0000 J-0.4000 F500.00
G1 X12.4000 Y15.4000 Z-2.7500 F500.00
G1 X13.2600 Y15.4000 Z-2.7500 F500.00
G1 X13.2600 Y18.0000 Z-2.7500 F500.00
G2 X13.6600 Y18.4000 Z-2.7500 I0.4000 J-0.0000 F500.00
G1 X16.6600 Y18.4000 Z-2.7500 F500.00
G2 X16.9428 Y18.2828 Z-2.7500 I-0.0000 J-0.4000 F500.00
G1 X16.9428 Y18.2828 Z-3.0000 F200.00
G2 X17.0600 Y18.0000 Z-3.0000 I-0.2828 J-0.2828 F500.00
G1 X17.0600 Y0.0000 Z-3.0000 F500.00
G2 X16.6600 Y-0.4000 Z-3.0000 I-0.4000 J0.0000 F500.00
G1 X13.6600 Y-0.4000 Z-3.0000 F500.00
G2 X13.2600 Y0.0000 Z-3.0000 I0.0000 J0.4000 F500.00
G1 X13.2600 Y2.6000 Z-3.0000 F500.00
G1 X12.4000 Y2.6000 Z-3.0000 F500.00
G1 X12.4000 Y0.0000 Z-3.0000 F500.00
G2 X12.0000 Y-0.4000 Z-3.0000 I-0.4000 J0.0000 F500.00
G1 X9.0000 Y-0.4000 Z-3.0000 F500.00
G2 X8.6000 Y0.0000 Z-3.0000 I0.0000 J0.4000 F500.00
G1 X8.6000 Y18.0000 Z-3.0000 F500.00
G2 X9.0000 Y18.4000 Z-3.0000 I0.4000 J-0.0000 F500.00
G1 X12.0000 Y18.4000 Z-3.0000 F500.00
G2 X12.4000 Y18.0000 Z-3.0000 I-0.0000 J-0.4000 F500.00
G1 X12.4000 Y15.4000 Z-3.0000 F500.00
G1 X13.2600 Y15.4000 Z-3.0000 F500.00
G1 X13.2600 Y18.0000 Z-3.0000 F500.00
G2 X13.6600 Y18.4000 Z-3.0000 I0.4000 J-0.0000 F500.00
G1 X16.6600 Y18.4000 Z-3.0000 F500.00
G2 X16.9428 Y18.2828 Z-3.0000 I-0.0000 J-0.4000 F500.00
G0 Z5.0000
(finish operation: contour_middle)
(begin operation: contour_right)
(Path: contour_right)
(Profile_Edges031)
(Compensated Tool Path. Diameter: 0.8)
G0 Z5.0000
G0 X25.9428 Y18.2828
G0 Z3.0000
G1 X25.9428 Y18.2828 Z-0.2500 F200.00
G2 X26.0600 Y18.0000 Z-0.2500 I-0.2828 J-0.2828 F500.00
G1 X26.0600 Y0.0000 Z-0.2500 F500.00
G2 X25.6600 Y-0.4000 Z-0.2500 I-0.4000 J0.0000 F500.00
G1 X22.6600 Y-0.4000 Z-0.2500 F500.00
G2 X22.2600 Y0.0000 Z-0.2500 I0.0000 J0.4000 F500.00
G1 X22.2600 Y2.6000 Z-0.2500 F500.00
G1 X21.4000 Y2.6000 Z-0.2500 F500.00
G1 X21.4000 Y0.0000 Z-0.2500 F500.00
G2 X21.0000 Y-0.4000 Z-0.2500 I-0.4000 J0.0000 F500.00
G1 X18.0000 Y-0.4000 Z-0.2500 F500.00
G2 X17.6000 Y0.0000 Z-0.2500 I0.0000 J0.4000 F500.00
G1 X17.6000 Y18.0000 Z-0.2500 F500.00
G2 X18.0000 Y18.4000 Z-0.2500 I0.4000 J-0.0000 F500.00
G1 X21.0000 Y18.4000 Z-0.2500 F500.00
G2 X21.4000 Y18.0000 Z-0.2500 I-0.0000 J-0.4000 F500.00
G1 X21.4000 Y15.4000 Z-0.2500 F500.00
G1 X22.2600 Y15.4000 Z-0.2500 F500.00
G1 X22.2600 Y18.0000 Z-0.2500 F500.00
G2 X22.6600 Y18.4000 Z-0.2500 I0.4000 J-0.0000 F500.00
G1 X25.6600 Y18.4000 Z-0.2500 F500.00
G2 X25.9428 Y18.2828 Z-0.2500 I-0.0000 J-0.4000 F500.00
G1 X25.9428 Y18.2828 Z-0.5000 F200.00
G2 X26.0600 Y18.0000 Z-0.5000 I-0.2828 J-0.2828 F500.00
G1 X26.0600 Y0.0000 Z-0.5000 F500.00
G2 X25.6600 Y-0.4000 Z-0.5000 I-0.4000 J0.0000 F500.00
G1 X22.6600 Y-0.4000 Z-0.5000 F500.00
G2 X22.2600 Y0.0000 Z-0.5000 I0.0000 J0.4000 F500.00
G1 X22.2600 Y2.6000 Z-0.5000 F500.00
G1 X21.4000 Y2.6000 Z-0.5000 F500.00
G1 X21.4000 Y0.0000 Z-0.5000 F500.00
G2 X21.0000 Y-0.4000 Z-0.5000 I-0.4000 J0.0000 F500.00
G1 X18.0000 Y-0.4000 Z-0.5000 F500.00
G2 X17.6000 Y0.0000 Z-0.5000 I0.0000 J0.4000 F500.00
G1 X17.6000 Y18.0000 Z-0.5000 F500.00
G2 X18.0000 Y18.4000 Z-0.5000 I0.4000 J-0.0000 F500.00
G1 X21.0000 Y18.4000 Z-0.5000 F500.00
G2 X21.4000 Y18.0000 Z-0.5000 I-0.0000 J-0.4000 F500.00
G1 X21.4000 Y15.4000 Z-0.5000 F500.00
G1 X22.2600 Y15.4000 Z-0.5000 F500.00
G1 X22.2600 Y18.0000 Z-0.5000 F500.00
G2 X22.6600 Y18.4000 Z-0.5000 I0.4000 J-0.0000 F500.00
G1 X25.6600 Y18.4000 Z-0.5000 F500.00
G2 X25.9428 Y18.2828 Z-0.5000 I-0.0000 J-0.4000 F500.00
G1 X25.9428 Y18.2828 Z-0.7500 F200.00
G2 X26.0600 Y18.0000 Z-0.7500 I-0.2828 J-0.2828 F500.00
G1 X26.0600 Y0.0000 Z-0.7500 F500.00
G2 X25.6600 Y-0.4000 Z-0.7500 I-0.4000 J0.0000 F500.00
G1 X22.6600 Y-0.4000 Z-0.7500 F500.00
G2 X22.2600 Y0.0000 Z-0.7500 I0.0000 J0.4000 F500.00
G1 X22.2600 Y2.6000 Z-0.7500 F500.00
G1 X21.4000 Y2.6000 Z-0.7500 F500.00
G1 X21.4000 Y0.0000 Z-0.7500 F500.00
G2 X21.0000 Y-0.4000 Z-0.7500 I-0.4000 J0.0000 F500.00
G1 X18.0000 Y-0.4000 Z-0.7500 F500.00
G2 X17.6000 Y0.0000 Z-0.7500 I0.0000 J0.4000 F500.00
G1 X17.6000 Y18.0000 Z-0.7500 F500.00
G2 X18.0000 Y18.4000 Z-0.7500 I0.4000 J-0.0000 F500.00
G1 X21.0000 Y18.4000 Z-0.7500 F500.00
G2 X21.4000 Y18.0000 Z-0.7500 I-0.0000 J-0.4000 F500.00
G1 X21.4000 Y15.4000 Z-0.7500 F500.00
G1 X22.2600 Y15.4000 Z-0.7500 F500.00
G1 X22.2600 Y18.0000 Z-0.7500 F500.00
G2 X22.6600 Y18.4000 Z-0.7500 I0.4000 J-0.0000 F500.00
G1 X25.6600 Y18.4000 Z-0.7500 F500.00
G2 X25.9428 Y18.2828 Z-0.7500 I-0.0000 J-0.4000 F500.00
G1 X25.9428 Y18.2828 Z-1.0000 F200.00
G2 X26.0600 Y18.0000 Z-1.0000 I-0.2828 J-0.2828 F500.00
G1 X26.0600 Y0.0000 Z-1.0000 F500.00
G2 X25.6600 Y-0.4000 Z-1.0000 I-0.4000 J0.0000 F500.00
G1 X22.6600 Y-0.4000 Z-1.0000 F500.00
G2 X22.2600 Y0.0000 Z-1.0000 I0.0000 J0.4000 F500.00
G1 X22.2600 Y2.6000 Z-1.0000 F500.00
G1 X21.4000 Y2.6000 Z-1.0000 F500.00
G1 X21.4000 Y0.0000 Z-1.0000 F500.00
G2 X21.0000 Y-0.4000 Z-1.0000 I-0.4000 J0.0000 F500.00
G1 X18.0000 Y-0.4000 Z-1.0000 F500.00
G2 X17.6000 Y0.0000 Z-1.0000 I0.0000 J0.4000 F500.00
G1 X17.6000 Y18.0000 Z-1.0000 F500.00
G2 X18.0000 Y18.4000 Z-1.0000 I0.4000 J-0.0000 F500.00
G1 X21.0000 Y18.4000 Z-1.0000 F500.00
G2 X21.4000 Y18.0000 Z-1.0000 I-0.0000 J-0.4000 F500.00
G1 X21.4000 Y15.4000 Z-1.0000 F500.00
G1 X22.2600 Y15.4000 Z-1.0000 F500.00
G1 X22.2600 Y18.0000 Z-1.0000 F500.00
G2 X22.6600 Y18.4000 Z-1.0000 I0.4000 J-0.0000 F500.00
G1 X25.6600 Y18.4000 Z-1.0000 F500.00
G2 X25.9428 Y18.2828 Z-1.0000 I-0.0000 J-0.4000 F500.00
G1 X25.9428 Y18.2828 Z-1.2500 F200.00
G2 X26.0600 Y18.0000 Z-1.2500 I-0.2828 J-0.2828 F500.00
G1 X26.0600 Y0.0000 Z-1.2500 F500.00
G2 X25.6600 Y-0.4000 Z-1.2500 I-0.4000 J0.0000 F500.00
G1 X22.6600 Y-0.4000 Z-1.2500 F500.00
G2 X22.2600 Y0.0000 Z-1.2500 I0.0000 J0.4000 F500.00
G1 X22.2600 Y2.6000 Z-1.2500 F500.00
G1 X21.4000 Y2.6000 Z-1.2500 F500.00
G1 X21.4000 Y0.0000 Z-1.2500 F500.00
G2 X21.0000 Y-0.4000 Z-1.2500 I-0.4000 J0.0000 F500.00
G1 X18.0000 Y-0.4000 Z-1.2500 F500.00
G2 X17.6000 Y0.0000 Z-1.2500 I0.0000 J0.4000 F500.00
G1 X17.6000 Y18.0000 Z-1.2500 F500.00
G2 X18.0000 Y18.4000 Z-1.2500 I0.4000 J-0.0000 F500.00
G1 X21.0000 Y18.4000 Z-1.2500 F500.00
G2 X21.4000 Y18.0000 Z-1.2500 I-0.0000 J-0.4000 F500.00
G1 X21.4000 Y15.4000 Z-1.2500 F500.00
G1 X22.2600 Y15.4000 Z-1.2500 F500.00
G1 X22.2600 Y18.0000 Z-1.2500 F500.00
G2 X22.6600 Y18.4000 Z-1.2500 I0.4000 J-0.0000 F500.00
G1 X25.6600 Y18.4000 Z-1.2500 F500.00
G2 X25.9428 Y18.2828 Z-1.2500 I-0.0000 J-0.4000 F500.00
G1 X25.9428 Y18.2828 Z-1.5000 F200.00
G2 X26.0600 Y18.0000 Z-1.5000 I-0.2828 J-0.2828 F500.00
G1 X26.0600 Y0.0000 Z-1.5000 F500.00
G2 X25.6600 Y-0.4000 Z-1.5000 I-0.4000 J0.0000 F500.00
G1 X22.6600 Y-0.4000 Z-1.5000 F500.00
G2 X22.2600 Y0.0000 Z-1.5000 I0.0000 J0.4000 F500.00
G1 X22.2600 Y2.6000 Z-1.5000 F500.00
G1 X21.4000 Y2.6000 Z-1.5000 F500.00
G1 X21.4000 Y0.0000 Z-1.5000 F500.00
G2 X21.0000 Y-0.4000 Z-1.5000 I-0.4000 J0.0000 F500.00
G1 X18.0000 Y-0.4000 Z-1.5000 F500.00
G2 X17.6000 Y0.0000 Z-1.5000 I0.0000 J0.4000 F500.00
G1 X17.6000 Y18.0000 Z-1.5000 F500.00
G2 X18.0000 Y18.4000 Z-1.5000 I0.4000 J-0.0000 F500.00
G1 X21.0000 Y18.4000 Z-1.5000 F500.00
G2 X21.4000 Y18.0000 Z-1.5000 I-0.0000 J-0.4000 F500.00
G1 X21.4000 Y15.4000 Z-1.5000 F500.00
G1 X22.2600 Y15.4000 Z-1.5000 F500.00
G1 X22.2600 Y18.0000 Z-1.5000 F500.00
G2 X22.6600 Y18.4000 Z-1.5000 I0.4000 J-0.0000 F500.00
G1 X25.6600 Y18.4000 Z-1.5000 F500.00
G2 X25.9428 Y18.2828 Z-1.5000 I-0.0000 J-0.4000 F500.00
G1 X25.9428 Y18.2828 Z-1.7500 F200.00
G2 X26.0600 Y18.0000 Z-1.7500 I-0.2828 J-0.2828 F500.00
G1 X26.0600 Y0.0000 Z-1.7500 F500.00
G2 X25.6600 Y-0.4000 Z-1.7500 I-0.4000 J0.0000 F500.00
G1 X22.6600 Y-0.4000 Z-1.7500 F500.00
G2 X22.2600 Y0.0000 Z-1.7500 I0.0000 J0.4000 F500.00
G1 X22.2600 Y2.6000 Z-1.7500 F500.00
G1 X21.4000 Y2.6000 Z-1.7500 F500.00
G1 X21.4000 Y0.0000 Z-1.7500 F500.00
G2 X21.0000 Y-0.4000 Z-1.7500 I-0.4000 J0.0000 F500.00
G1 X18.0000 Y-0.4000 Z-1.7500 F500.00
G2 X17.6000 Y0.0000 Z-1.7500 I0.0000 J0.4000 F500.00
G1 X17.6000 Y18.0000 Z-1.7500 F500.00
G2 X18.0000 Y18.4000 Z-1.7500 I0.4000 J-0.0000 F500.00
G1 X21.0000 Y18.4000 Z-1.7500 F500.00
G2 X21.4000 Y18.0000 Z-1.7500 I-0.0000 J-0.4000 F500.00
G1 X21.4000 Y15.4000 Z-1.7500 F500.00
G1 X22.2600 Y15.4000 Z-1.7500 F500.00
G1 X22.2600 Y18.0000 Z-1.7500 F500.00
G2 X22.6600 Y18.4000 Z-1.7500 I0.4000 J-0.0000 F500.00
G1 X25.6600 Y18.4000 Z-1.7500 F500.00
G2 X25.9428 Y18.2828 Z-1.7500 I-0.0000 J-0.4000 F500.00
G1 X25.9428 Y18.2828 Z-2.0000 F200.00
G2 X26.0600 Y18.0000 Z-2.0000 I-0.2828 J-0.2828 F500.00
G1 X26.0600 Y0.0000 Z-2.0000 F500.00
G2 X25.6600 Y-0.4000 Z-2.0000 I-0.4000 J0.0000 F500.00
G1 X22.6600 Y-0.4000 Z-2.0000 F500.00
G2 X22.2600 Y0.0000 Z-2.0000 I0.0000 J0.4000 F500.00
G1 X22.2600 Y2.6000 Z-2.0000 F500.00
G1 X21.4000 Y2.6000 Z-2.0000 F500.00
G1 X21.4000 Y0.0000 Z-2.0000 F500.00
G2 X21.0000 Y-0.4000 Z-2.0000 I-0.4000 J0.0000 F500.00
G1 X18.0000 Y-0.4000 Z-2.0000 F500.00
G2 X17.6000 Y0.0000 Z-2.0000 I0.0000 J0.4000 F500.00
G1 X17.6000 Y18.0000 Z-2.0000 F500.00
G2 X18.0000 Y18.4000 Z-2.0000 I0.4000 J-0.0000 F500.00
G1 X21.0000 Y18.4000 Z-2.0000 F500.00
G2 X21.4000 Y18.0000 Z-2.0000 I-0.0000 J-0.4000 F500.00
G1 X21.4000 Y15.4000 Z-2.0000 F500.00
G1 X22.2600 Y15.4000 Z-2.0000 F500.00
G1 X22.2600 Y18.0000 Z-2.0000 F500.00
G2 X22.6600 Y18.4000 Z-2.0000 I0.4000 J-0.0000 F500.00
G1 X25.6600 Y18.4000 Z-2.0000 F500.00
G2 X25.9428 Y18.2828 Z-2.0000 I-0.0000 J-0.4000 F500.00
G1 X25.9428 Y18.2828 Z-2.2500 F200.00
G2 X26.0600 Y18.0000 Z-2.2500 I-0.2828 J-0.2828 F500.00
G1 X26.0600 Y0.0000 Z-2.2500 F500.00
G2 X25.6600 Y-0.4000 Z-2.2500 I-0.4000 J0.0000 F500.00
G1 X22.6600 Y-0.4000 Z-2.2500 F500.00
G2 X22.2600 Y0.0000 Z-2.2500 I0.0000 J0.4000 F500.00
G1 X22.2600 Y2.6000 Z-2.2500 F500.00
G1 X21.4000 Y2.6000 Z-2.2500 F500.00
G1 X21.4000 Y0.0000 Z-2.2500 F500.00
G2 X21.0000 Y-0.4000 Z-2.2500 I-0.4000 J0.0000 F500.00
G1 X18.0000 Y-0.4000 Z-2.2500 F500.00
G2 X17.6000 Y0.0000 Z-2.2500 I0.0000 J0.4000 F500.00
G1 X17.6000 Y18.0000 Z-2.2500 F500.00
G2 X18.0000 Y18.4000 Z-2.2500 I0.4000 J-0.0000 F500.00
G1 X21.0000 Y18.4000 Z-2.2500 F500.00
G2 X21.4000 Y18.0000 Z-2.2500 I-0.0000 J-0.4000 F500.00
G1 X21.4000 Y15.4000 Z-2.2500 F500.00
G1 X22.2600 Y15.4000 Z-2.2500 F500.00
G1 X22.2600 Y18.0000 Z-2.2500 F500.00
G2 X22.6600 Y18.4000 Z-2.2500 I0.4000 J-0.0000 F500.00
G1 X25.6600 Y18.4000 Z-2.2500 F500.00
G2 X25.9428 Y18.2828 Z-2.2500 I-0.0000 J-0.4000 F500.00
G1 X25.9428 Y18.2828 Z-2.5000 F200.00
G2 X26.0600 Y18.0000 Z-2.5000 I-0.2828 J-0.2828 F500.00
G1 X26.0600 Y0.0000 Z-2.5000 F500.00
G2 X25.6600 Y-0.4000 Z-2.5000 I-0.4000 J0.0000 F500.00
G1 X22.6600 Y-0.4000 Z-2.5000 F500.00
G2 X22.2600 Y0.0000 Z-2.5000 I0.0000 J0.4000 F500.00
G1 X22.2600 Y2.6000 Z-2.5000 F500.00
G1 X21.4000 Y2.6000 Z-2.5000 F500.00
G1 X21.4000 Y0.0000 Z-2.5000 F500.00
G2 X21.0000 Y-0.4000 Z-2.5000 I-0.4000 J0.0000 F500.00
G1 X18.0000 Y-0.4000 Z-2.5000 F500.00
G2 X17.6000 Y0.0000 Z-2.5000 I0.0000 J0.4000 F500.00
G1 X17.6000 Y18.0000 Z-2.5000 F500.00
G2 X18.0000 Y18.4000 Z-2.5000 I0.4000 J-0.0000 F500.00
G1 X21.0000 Y18.4000 Z-2.5000 F500.00
G2 X21.4000 Y18.0000 Z-2.5000 I-0.0000 J-0.4000 F500.00
G1 X21.4000 Y15.4000 Z-2.5000 F500.00
G1 X22.2600 Y15.4000 Z-2.5000 F500.00
G1 X22.2600 Y18.0000 Z-2.5000 F500.00
G2 X22.6600 Y18.4000 Z-2.5000 I0.4000 J-0.0000 F500.00
G1 X25.6600 Y18.4000 Z-2.5000 F500.00
G2 X25.9428 Y18.2828 Z-2.5000 I-0.0000 J-0.4000 F500.00
G1 X25.9428 Y18.2828 Z-2.7500 F200.00
G2 X26.0600 Y18.0000 Z-2.7500 I-0.2828 J-0.2828 F500.00
G1 X26.0600 Y0.0000 Z-2.7500 F500.00
G2 X25.6600 Y-0.4000 Z-2.7500 I-0.4000 J0.0000 F500.00
G1 X22.6600 Y-0.4000 Z-2.7500 F500.00
G2 X22.2600 Y0.0000 Z-2.7500 I0.0000 J0.4000 F500.00
G1 X22.2600 Y2.6000 Z-2.7500 F500.00
G1 X21.4000 Y2.6000 Z-2.7500 F500.00
G1 X21.4000 Y0.0000 Z-2.7500 F500.00
G2 X21.0000 Y-0.4000 Z-2.7500 I-0.4000 J0.0000 F500.00
G1 X18.0000 Y-0.4000 Z-2.7500 F500.00
G2 X17.6000 Y0.0000 Z-2.7500 I0.0000 J0.4000 F500.00
G1 X17.6000 Y18.0000 Z-2.7500 F500.00
G2 X18.0000 Y18.4000 Z-2.7500 I0.4000 J-0.0000 F500.00
G1 X21.0000 Y18.4000 Z-2.7500 F500.00
G2 X21.4000 Y18.0000 Z-2.7500 I-0.0000 J-0.4000 F500.00
G1 X21.4000 Y15.4000 Z-2.7500 F500.00
G1 X22.2600 Y15.4000 Z-2.7500 F500.00
G1 X22.2600 Y18.0000 Z-2.7500 F500.00
G2 X22.6600 Y18.4000 Z-2.7500 I0.4000 J-0.0000 F500.00
G1 X25.6600 Y18.4000 Z-2.7500 F500.00
G2 X25.9428 Y18.2828 Z-2.7500 I-0.0000 J-0.4000 F500.00
G1 X25.9428 Y18.2828 Z-3.0000 F200.00
G2 X26.0600 Y18.0000 Z-3.0000 I-0.2828 J-0.2828 F500.00
G1 X26.0600 Y0.0000 Z-3.0000 F500.00
G2 X25.6600 Y-0.4000 Z-3.0000 I-0.4000 J0.0000 F500.00
G1 X22.6600 Y-0.4000 Z-3.0000 F500.00
G2 X22.2600 Y0.0000 Z-3.0000 I0.0000 J0.4000 F500.00
G1 X22.2600 Y2.6000 Z-3.0000 F500.00
G1 X21.4000 Y2.6000 Z-3.0000 F500.00
G1 X21.4000 Y0.0000 Z-3.0000 F500.00
G2 X21.0000 Y-0.4000 Z-3.0000 I-0.4000 J0.0000 F500.00
G1 X18.0000 Y-0.4000 Z-3.0000 F500.00
G2 X17.6000 Y0.0000 Z-3.0000 I0.0000 J0.4000 F500.00
G1 X17.6000 Y18.0000 Z-3.0000 F500.00
G2 X18.0000 Y18.4000 Z-3.0000 I0.4000 J-0.0000 F500.00
G1 X21.0000 Y18.4000 Z-3.0000 F500.00
G2 X21.4000 Y18.0000 Z-3.0000 I-0.0000 J-0.4000 F500.00
G1 X21.4000 Y15.4000 Z-3.0000 F500.00
G1 X22.2600 Y15.4000 Z-3.0000 F500.00
G1 X22.2600 Y18.0000 Z-3.0000 F500.00
G2 X22.6600 Y18.4000 Z-3.0000 I0.4000 J-0.0000 F500.00
G1 X25.6600 Y18.4000 Z-3.0000 F500.00
G2 X25.9428 Y18.2828 Z-3.0000 I-0.0000 J-0.4000 F500.00
G0 Z5.0000
(finish operation: contour_right)
(begin postamble)
M5
G17 G90
; M2
