(Exported by FreeCAD)
(Post Processor: grbl_post)
(Output Time:2019-08-18 17:42:11.528773)
(begin preamble)
G17 G90
G21
(begin operation: T3: drill bit 2mm)
(Path: T3: drill bit 2mm)
(T3: drill bit 2mm)
(begin toolchange)
; M6 T3
M3 S10000.0000
(finish operation: T3: drill bit 2mm)
(begin operation: Profile_Edges)
(Path: Profile_Edges)
(Profile_Edges)
(Compensated Tool Path. Diameter: 2.0)
G0 Z6.0000
G0 X1.3411 Y1.3411
G0 Z4.0000
G1 X1.3411 Y1.3411 Z0.8000 F100.00
G2 X0.6158 Y-1.7938 Z0.8000 I-1.3411 J-1.3411 F500.00
G2 X-0.6158 Y1.7938 Z0.8000 I-0.6158 J1.7938 F500.00
G2 X1.3411 Y1.3411 Z0.8000 I0.6158 J-1.7938 F500.00
G1 X1.3411 Y1.3411 Z0.6000 F100.00
G2 X0.6158 Y-1.7938 Z0.6000 I-1.3411 J-1.3411 F500.00
G2 X-0.6158 Y1.7938 Z0.6000 I-0.6158 J1.7938 F500.00
G2 X1.3411 Y1.3411 Z0.6000 I0.6158 J-1.7938 F500.00
G1 X1.3411 Y1.3411 Z0.4000 F100.00
G2 X0.6158 Y-1.7938 Z0.4000 I-1.3411 J-1.3411 F500.00
G2 X-0.6158 Y1.7938 Z0.4000 I-0.6158 J1.7938 F500.00
G2 X1.3411 Y1.3411 Z0.4000 I0.6158 J-1.7938 F500.00
G1 X1.3411 Y1.3411 Z0.2000 F100.00
G2 X0.6158 Y-1.7938 Z0.2000 I-1.3411 J-1.3411 F500.00
G2 X-0.6158 Y1.7938 Z0.2000 I-0.6158 J1.7938 F500.00
G2 X1.3411 Y1.3411 Z0.2000 I0.6158 J-1.7938 F500.00
G1 X1.3411 Y1.3411 Z0.0000 F100.00
G2 X0.6158 Y-1.7938 Z0.0000 I-1.3411 J-1.3411 F500.00
G2 X-0.6158 Y1.7938 Z0.0000 I-0.6158 J1.7938 F500.00
G2 X1.3411 Y1.3411 Z0.0000 I0.6158 J-1.7938 F500.00
G1 X1.3411 Y1.3411 Z-0.2000 F100.00
G2 X0.6158 Y-1.7938 Z-0.2000 I-1.3411 J-1.3411 F500.00
G2 X-0.6158 Y1.7938 Z-0.2000 I-0.6158 J1.7938 F500.00
G2 X1.3411 Y1.3411 Z-0.2000 I0.6158 J-1.7938 F500.00
G1 X1.3411 Y1.3411 Z-0.4000 F100.00
G2 X0.6158 Y-1.7938 Z-0.4000 I-1.3411 J-1.3411 F500.00
G2 X-0.6158 Y1.7938 Z-0.4000 I-0.6158 J1.7938 F500.00
G2 X1.3411 Y1.3411 Z-0.4000 I0.6158 J-1.7938 F500.00
G1 X1.3411 Y1.3411 Z-0.6000 F100.00
G2 X0.6158 Y-1.7938 Z-0.6000 I-1.3411 J-1.3411 F500.00
G2 X-0.6158 Y1.7938 Z-0.6000 I-0.6158 J1.7938 F500.00
G2 X1.3411 Y1.3411 Z-0.6000 I0.6158 J-1.7938 F500.00
G1 X1.3411 Y1.3411 Z-0.8000 F100.00
G2 X0.6158 Y-1.7938 Z-0.8000 I-1.3411 J-1.3411 F500.00
G2 X-0.6158 Y1.7938 Z-0.8000 I-0.6158 J1.7938 F500.00
G2 X1.3411 Y1.3411 Z-0.8000 I0.6158 J-1.7938 F500.00
G1 X1.3411 Y1.3411 Z-1.0000 F100.00
G2 X0.6158 Y-1.7938 Z-1.0000 I-1.3411 J-1.3411 F500.00
G2 X-0.6158 Y1.7938 Z-1.0000 I-0.6158 J1.7938 F500.00
G2 X1.3411 Y1.3411 Z-1.0000 I0.6158 J-1.7938 F500.00
G1 X1.3411 Y1.3411 Z-1.2000 F100.00
G2 X0.6158 Y-1.7938 Z-1.2000 I-1.3411 J-1.3411 F500.00
G2 X-0.6158 Y1.7938 Z-1.2000 I-0.6158 J1.7938 F500.00
G2 X1.3411 Y1.3411 Z-1.2000 I0.6158 J-1.7938 F500.00
G1 X1.3411 Y1.3411 Z-1.4000 F100.00
G2 X0.6158 Y-1.7938 Z-1.4000 I-1.3411 J-1.3411 F500.00
G2 X-0.6158 Y1.7938 Z-1.4000 I-0.6158 J1.7938 F500.00
G2 X1.3411 Y1.3411 Z-1.4000 I0.6158 J-1.7938 F500.00
G1 X1.3411 Y1.3411 Z-1.6000 F100.00
G2 X0.6158 Y-1.7938 Z-1.6000 I-1.3411 J-1.3411 F500.00
G2 X-0.6158 Y1.7938 Z-1.6000 I-0.6158 J1.7938 F500.00
G2 X1.3411 Y1.3411 Z-1.6000 I0.6158 J-1.7938 F500.00
G1 X1.3411 Y1.3411 Z-1.8000 F100.00
G2 X0.6158 Y-1.7938 Z-1.8000 I-1.3411 J-1.3411 F500.00
G2 X-0.6158 Y1.7938 Z-1.8000 I-0.6158 J1.7938 F500.00
G2 X1.3411 Y1.3411 Z-1.8000 I0.6158 J-1.7938 F500.00
G1 X1.3411 Y1.3411 Z-2.0000 F100.00
G2 X0.6158 Y-1.7938 Z-2.0000 I-1.3411 J-1.3411 F500.00
G2 X-0.6158 Y1.7938 Z-2.0000 I-0.6158 J1.7938 F500.00
G2 X1.3411 Y1.3411 Z-2.0000 I0.6158 J-1.7938 F500.00
G0 Z6.0000
(finish operation: Profile_Edges)
(begin operation: Pocket_Shape002)
(Path: Pocket_Shape002)
(Pocket_Shape002)
G0 Z6.0000
G0 X0.3491 Y0.3491
G0 Z4.0000
G1 X0.3491 Y0.3491 Z0.8000 F100.00
G2 X-0.0000 Y-0.4937 Z0.8000 I-0.3491 J-0.3491 F500.00
G2 X0.0000 Y0.4937 Z0.8000 I0.0000 J0.4937 F500.00
G2 X0.3491 Y0.3491 Z0.8000 I0.0000 J-0.4937 F500.00
G1 X0.3491 Y0.3491 Z0.6000 F100.00
G2 X-0.0000 Y-0.4937 Z0.6000 I-0.3491 J-0.3491 F500.00
G2 X0.0000 Y0.4937 Z0.6000 I0.0000 J0.4937 F500.00
G2 X0.3491 Y0.3491 Z0.6000 I0.0000 J-0.4937 F500.00
G1 X0.3491 Y0.3491 Z0.4000 F100.00
G2 X-0.0000 Y-0.4937 Z0.4000 I-0.3491 J-0.3491 F500.00
G2 X0.0000 Y0.4937 Z0.4000 I0.0000 J0.4937 F500.00
G2 X0.3491 Y0.3491 Z0.4000 I0.0000 J-0.4937 F500.00
G1 X0.3491 Y0.3491 Z0.2000 F100.00
G2 X-0.0000 Y-0.4937 Z0.2000 I-0.3491 J-0.3491 F500.00
G2 X0.0000 Y0.4937 Z0.2000 I0.0000 J0.4937 F500.00
G2 X0.3491 Y0.3491 Z0.2000 I0.0000 J-0.4937 F500.00
G1 X0.3491 Y0.3491 Z0.0000 F100.00
G2 X-0.0000 Y-0.4937 Z0.0000 I-0.3491 J-0.3491 F500.00
G2 X0.0000 Y0.4937 Z0.0000 I0.0000 J0.4937 F500.00
G2 X0.3491 Y0.3491 Z0.0000 I0.0000 J-0.4937 F500.00
G1 X0.3491 Y0.3491 Z-0.2000 F100.00
G2 X-0.0000 Y-0.4937 Z-0.2000 I-0.3491 J-0.3491 F500.00
G2 X0.0000 Y0.4937 Z-0.2000 I0.0000 J0.4937 F500.00
G2 X0.3491 Y0.3491 Z-0.2000 I0.0000 J-0.4937 F500.00
G1 X0.3491 Y0.3491 Z-0.4000 F100.00
G2 X-0.0000 Y-0.4937 Z-0.4000 I-0.3491 J-0.3491 F500.00
G2 X0.0000 Y0.4937 Z-0.4000 I0.0000 J0.4937 F500.00
G2 X0.3491 Y0.3491 Z-0.4000 I0.0000 J-0.4937 F500.00
G1 X0.3491 Y0.3491 Z-0.6000 F100.00
G2 X-0.0000 Y-0.4937 Z-0.6000 I-0.3491 J-0.3491 F500.00
G2 X0.0000 Y0.4937 Z-0.6000 I0.0000 J0.4937 F500.00
G2 X0.3491 Y0.3491 Z-0.6000 I0.0000 J-0.4937 F500.00
G1 X0.3491 Y0.3491 Z-0.8000 F100.00
G2 X-0.0000 Y-0.4937 Z-0.8000 I-0.3491 J-0.3491 F500.00
G2 X0.0000 Y0.4937 Z-0.8000 I0.0000 J0.4937 F500.00
G2 X0.3491 Y0.3491 Z-0.8000 I0.0000 J-0.4937 F500.00
G1 X0.3491 Y0.3491 Z-1.0000 F100.00
G2 X-0.0000 Y-0.4937 Z-1.0000 I-0.3491 J-0.3491 F500.00
G2 X0.0000 Y0.4937 Z-1.0000 I0.0000 J0.4937 F500.00
G2 X0.3491 Y0.3491 Z-1.0000 I0.0000 J-0.4937 F500.00
G1 X0.3491 Y0.3491 Z-1.2000 F100.00
G2 X-0.0000 Y-0.4937 Z-1.2000 I-0.3491 J-0.3491 F500.00
G2 X0.0000 Y0.4937 Z-1.2000 I0.0000 J0.4937 F500.00
G2 X0.3491 Y0.3491 Z-1.2000 I0.0000 J-0.4937 F500.00
G1 X0.3491 Y0.3491 Z-1.4000 F100.00
G2 X-0.0000 Y-0.4937 Z-1.4000 I-0.3491 J-0.3491 F500.00
G2 X0.0000 Y0.4937 Z-1.4000 I0.0000 J0.4937 F500.00
G2 X0.3491 Y0.3491 Z-1.4000 I0.0000 J-0.4937 F500.00
G1 X0.3491 Y0.3491 Z-1.6000 F100.00
G2 X-0.0000 Y-0.4937 Z-1.6000 I-0.3491 J-0.3491 F500.00
G2 X0.0000 Y0.4937 Z-1.6000 I0.0000 J0.4937 F500.00
G2 X0.3491 Y0.3491 Z-1.6000 I0.0000 J-0.4937 F500.00
G1 X0.3491 Y0.3491 Z-1.8000 F100.00
G2 X-0.0000 Y-0.4937 Z-1.8000 I-0.3491 J-0.3491 F500.00
G2 X0.0000 Y0.4937 Z-1.8000 I0.0000 J0.4937 F500.00
G2 X0.3491 Y0.3491 Z-1.8000 I0.0000 J-0.4937 F500.00
G1 X0.3491 Y0.3491 Z-2.0000 F100.00
G2 X-0.0000 Y-0.4937 Z-2.0000 I-0.3491 J-0.3491 F500.00
G2 X0.0000 Y0.4937 Z-2.0000 I0.0000 J0.4937 F500.00
G2 X0.3491 Y0.3491 Z-2.0000 I0.0000 J-0.4937 F500.00
G1 X0.3491 Y0.3491 Z-2.2000 F100.00
G2 X-0.0000 Y-0.4937 Z-2.2000 I-0.3491 J-0.3491 F500.00
G2 X0.0000 Y0.4937 Z-2.2000 I0.0000 J0.4937 F500.00
G2 X0.3491 Y0.3491 Z-2.2000 I0.0000 J-0.4937 F500.00
G1 X0.3491 Y0.3491 Z-2.4000 F100.00
G2 X-0.0000 Y-0.4937 Z-2.4000 I-0.3491 J-0.3491 F500.00
G2 X0.0000 Y0.4937 Z-2.4000 I0.0000 J0.4937 F500.00
G2 X0.3491 Y0.3491 Z-2.4000 I0.0000 J-0.4937 F500.00
G1 X0.3491 Y0.3491 Z-2.6000 F100.00
G2 X-0.0000 Y-0.4937 Z-2.6000 I-0.3491 J-0.3491 F500.00
G2 X0.0000 Y0.4937 Z-2.6000 I0.0000 J0.4937 F500.00
G2 X0.3491 Y0.3491 Z-2.6000 I0.0000 J-0.4937 F500.00
G1 X0.3491 Y0.3491 Z-2.8000 F100.00
G2 X-0.0000 Y-0.4937 Z-2.8000 I-0.3491 J-0.3491 F500.00
G2 X0.0000 Y0.4937 Z-2.8000 I0.0000 J0.4937 F500.00
G2 X0.3491 Y0.3491 Z-2.8000 I0.0000 J-0.4937 F500.00
G1 X0.3491 Y0.3491 Z-3.0000 F100.00
G2 X-0.0000 Y-0.4937 Z-3.0000 I-0.3491 J-0.3491 F500.00
G2 X0.0000 Y0.4937 Z-3.0000 I0.0000 J0.4937 F500.00
G2 X0.3491 Y0.3491 Z-3.0000 I0.0000 J-0.4937 F500.00
G1 X0.3491 Y0.3491 Z-3.2000 F100.00
G2 X-0.0000 Y-0.4937 Z-3.2000 I-0.3491 J-0.3491 F500.00
G2 X0.0000 Y0.4937 Z-3.2000 I0.0000 J0.4937 F500.00
G2 X0.3491 Y0.3491 Z-3.2000 I0.0000 J-0.4937 F500.00
G1 X0.3491 Y0.3491 Z-3.4000 F100.00
G2 X-0.0000 Y-0.4937 Z-3.4000 I-0.3491 J-0.3491 F500.00
G2 X0.0000 Y0.4937 Z-3.4000 I0.0000 J0.4937 F500.00
G2 X0.3491 Y0.3491 Z-3.4000 I0.0000 J-0.4937 F500.00
G1 X0.3491 Y0.3491 Z-3.6000 F100.00
G2 X-0.0000 Y-0.4937 Z-3.6000 I-0.3491 J-0.3491 F500.00
G2 X0.0000 Y0.4937 Z-3.6000 I0.0000 J0.4937 F500.00
G2 X0.3491 Y0.3491 Z-3.6000 I0.0000 J-0.4937 F500.00
G1 X0.3491 Y0.3491 Z-3.8000 F100.00
G2 X-0.0000 Y-0.4937 Z-3.8000 I-0.3491 J-0.3491 F500.00
G2 X0.0000 Y0.4937 Z-3.8000 I0.0000 J0.4937 F500.00
G2 X0.3491 Y0.3491 Z-3.8000 I0.0000 J-0.4937 F500.00
G1 X0.3491 Y0.3491 Z-4.0000 F100.00
G2 X-0.0000 Y-0.4937 Z-4.0000 I-0.3491 J-0.3491 F500.00
G2 X0.0000 Y0.4937 Z-4.0000 I0.0000 J0.4937 F500.00
G2 X0.3491 Y0.3491 Z-4.0000 I0.0000 J-0.4937 F500.00
G1 X0.3491 Y0.3491 Z-4.2000 F100.00
G2 X-0.0000 Y-0.4937 Z-4.2000 I-0.3491 J-0.3491 F500.00
G2 X0.0000 Y0.4937 Z-4.2000 I0.0000 J0.4937 F500.00
G2 X0.3491 Y0.3491 Z-4.2000 I0.0000 J-0.4937 F500.00
G1 X0.3491 Y0.3491 Z-4.4000 F100.00
G2 X-0.0000 Y-0.4937 Z-4.4000 I-0.3491 J-0.3491 F500.00
G2 X0.0000 Y0.4937 Z-4.4000 I0.0000 J0.4937 F500.00
G2 X0.3491 Y0.3491 Z-4.4000 I0.0000 J-0.4937 F500.00
G1 X0.3491 Y0.3491 Z-4.6000 F100.00
G2 X-0.0000 Y-0.4937 Z-4.6000 I-0.3491 J-0.3491 F500.00
G2 X0.0000 Y0.4937 Z-4.6000 I0.0000 J0.4937 F500.00
G2 X0.3491 Y0.3491 Z-4.6000 I0.0000 J-0.4937 F500.00
G1 X0.3491 Y0.3491 Z-4.8000 F100.00
G2 X-0.0000 Y-0.4937 Z-4.8000 I-0.3491 J-0.3491 F500.00
G2 X0.0000 Y0.4937 Z-4.8000 I0.0000 J0.4937 F500.00
G2 X0.3491 Y0.3491 Z-4.8000 I0.0000 J-0.4937 F500.00
G1 X0.3491 Y0.3491 Z-5.0000 F100.00
G2 X-0.0000 Y-0.4937 Z-5.0000 I-0.3491 J-0.3491 F500.00
G2 X0.0000 Y0.4937 Z-5.0000 I0.0000 J0.4937 F500.00
G2 X0.3491 Y0.3491 Z-5.0000 I0.0000 J-0.4937 F500.00
G1 X0.3491 Y0.3491 Z-5.2000 F100.00
G2 X-0.0000 Y-0.4937 Z-5.2000 I-0.3491 J-0.3491 F500.00
G2 X0.0000 Y0.4937 Z-5.2000 I0.0000 J0.4937 F500.00
G2 X0.3491 Y0.3491 Z-5.2000 I0.0000 J-0.4937 F500.00
G1 X0.3491 Y0.3491 Z-5.4000 F100.00
G2 X-0.0000 Y-0.4937 Z-5.4000 I-0.3491 J-0.3491 F500.00
G2 X0.0000 Y0.4937 Z-5.4000 I0.0000 J0.4937 F500.00
G2 X0.3491 Y0.3491 Z-5.4000 I0.0000 J-0.4937 F500.00
G1 X0.3491 Y0.3491 Z-5.6000 F100.00
G2 X-0.0000 Y-0.4937 Z-5.6000 I-0.3491 J-0.3491 F500.00
G2 X0.0000 Y0.4937 Z-5.6000 I0.0000 J0.4937 F500.00
G2 X0.3491 Y0.3491 Z-5.6000 I0.0000 J-0.4937 F500.00
G1 X0.3491 Y0.3491 Z-5.8000 F100.00
G2 X-0.0000 Y-0.4937 Z-5.8000 I-0.3491 J-0.3491 F500.00
G2 X0.0000 Y0.4937 Z-5.8000 I0.0000 J0.4937 F500.00
G2 X0.3491 Y0.3491 Z-5.8000 I0.0000 J-0.4937 F500.00
G1 X0.3491 Y0.3491 Z-6.0000 F100.00
G2 X-0.0000 Y-0.4937 Z-6.0000 I-0.3491 J-0.3491 F500.00
G2 X0.0000 Y0.4937 Z-6.0000 I0.0000 J0.4937 F500.00
G2 X0.3491 Y0.3491 Z-6.0000 I0.0000 J-0.4937 F500.00
G1 X0.3491 Y0.3491 Z-6.2000 F100.00
G2 X-0.0000 Y-0.4937 Z-6.2000 I-0.3491 J-0.3491 F500.00
G2 X0.0000 Y0.4937 Z-6.2000 I0.0000 J0.4937 F500.00
G2 X0.3491 Y0.3491 Z-6.2000 I0.0000 J-0.4937 F500.00
G1 X0.3491 Y0.3491 Z-6.4000 F100.00
G2 X-0.0000 Y-0.4937 Z-6.4000 I-0.3491 J-0.3491 F500.00
G2 X0.0000 Y0.4937 Z-6.4000 I0.0000 J0.4937 F500.00
G2 X0.3491 Y0.3491 Z-6.4000 I0.0000 J-0.4937 F500.00
G1 X0.3491 Y0.3491 Z-6.6000 F100.00
G2 X-0.0000 Y-0.4937 Z-6.6000 I-0.3491 J-0.3491 F500.00
G2 X0.0000 Y0.4937 Z-6.6000 I0.0000 J0.4937 F500.00
G2 X0.3491 Y0.3491 Z-6.6000 I0.0000 J-0.4937 F500.00
G1 X0.3491 Y0.3491 Z-6.8000 F100.00
G2 X-0.0000 Y-0.4937 Z-6.8000 I-0.3491 J-0.3491 F500.00
G2 X0.0000 Y0.4937 Z-6.8000 I0.0000 J0.4937 F500.00
G2 X0.3491 Y0.3491 Z-6.8000 I0.0000 J-0.4937 F500.00
G1 X0.3491 Y0.3491 Z-7.0000 F100.00
G2 X-0.0000 Y-0.4937 Z-7.0000 I-0.3491 J-0.3491 F500.00
G2 X0.0000 Y0.4937 Z-7.0000 I0.0000 J0.4937 F500.00
G2 X0.3491 Y0.3491 Z-7.0000 I0.0000 J-0.4937 F500.00
G1 X0.3491 Y0.3491 Z-7.2000 F100.00
G2 X-0.0000 Y-0.4937 Z-7.2000 I-0.3491 J-0.3491 F500.00
G2 X0.0000 Y0.4937 Z-7.2000 I0.0000 J0.4937 F500.00
G2 X0.3491 Y0.3491 Z-7.2000 I0.0000 J-0.4937 F500.00
G1 X0.3491 Y0.3491 Z-7.4000 F100.00
G2 X-0.0000 Y-0.4937 Z-7.4000 I-0.3491 J-0.3491 F500.00
G2 X0.0000 Y0.4937 Z-7.4000 I0.0000 J0.4937 F500.00
G2 X0.3491 Y0.3491 Z-7.4000 I0.0000 J-0.4937 F500.00
G1 X0.3491 Y0.3491 Z-7.6000 F100.00
G2 X-0.0000 Y-0.4937 Z-7.6000 I-0.3491 J-0.3491 F500.00
G2 X0.0000 Y0.4937 Z-7.6000 I0.0000 J0.4937 F500.00
G2 X0.3491 Y0.3491 Z-7.6000 I0.0000 J-0.4937 F500.00
G1 X0.3491 Y0.3491 Z-7.8000 F100.00
G2 X-0.0000 Y-0.4937 Z-7.8000 I-0.3491 J-0.3491 F500.00
G2 X0.0000 Y0.4937 Z-7.8000 I0.0000 J0.4937 F500.00
G2 X0.3491 Y0.3491 Z-7.8000 I0.0000 J-0.4937 F500.00
G1 X0.3491 Y0.3491 Z-8.0000 F100.00
G2 X-0.0000 Y-0.4937 Z-8.0000 I-0.3491 J-0.3491 F500.00
G2 X0.0000 Y0.4937 Z-8.0000 I0.0000 J0.4937 F500.00
G2 X0.3491 Y0.3491 Z-8.0000 I0.0000 J-0.4937 F500.00
G1 X0.3491 Y0.3491 Z-8.2000 F100.00
G2 X-0.0000 Y-0.4937 Z-8.2000 I-0.3491 J-0.3491 F500.00
G2 X0.0000 Y0.4937 Z-8.2000 I0.0000 J0.4937 F500.00
G2 X0.3491 Y0.3491 Z-8.2000 I0.0000 J-0.4937 F500.00
G1 X0.3491 Y0.3491 Z-8.4000 F100.00
G2 X-0.0000 Y-0.4937 Z-8.4000 I-0.3491 J-0.3491 F500.00
G2 X0.0000 Y0.4937 Z-8.4000 I0.0000 J0.4937 F500.00
G2 X0.3491 Y0.3491 Z-8.4000 I0.0000 J-0.4937 F500.00
G1 X0.3491 Y0.3491 Z-8.6000 F100.00
G2 X-0.0000 Y-0.4937 Z-8.6000 I-0.3491 J-0.3491 F500.00
G2 X0.0000 Y0.4937 Z-8.6000 I0.0000 J0.4937 F500.00
G2 X0.3491 Y0.3491 Z-8.6000 I0.0000 J-0.4937 F500.00
G1 X0.3491 Y0.3491 Z-8.8000 F100.00
G2 X-0.0000 Y-0.4937 Z-8.8000 I-0.3491 J-0.3491 F500.00
G2 X0.0000 Y0.4937 Z-8.8000 I0.0000 J0.4937 F500.00
G2 X0.3491 Y0.3491 Z-8.8000 I0.0000 J-0.4937 F500.00
G1 X0.3491 Y0.3491 Z-9.0000 F100.00
G2 X-0.0000 Y-0.4937 Z-9.0000 I-0.3491 J-0.3491 F500.00
G2 X0.0000 Y0.4937 Z-9.0000 I0.0000 J0.4937 F500.00
G2 X0.3491 Y0.3491 Z-9.0000 I0.0000 J-0.4937 F500.00
G1 X0.3491 Y0.3491 Z-9.2000 F100.00
G2 X-0.0000 Y-0.4937 Z-9.2000 I-0.3491 J-0.3491 F500.00
G2 X0.0000 Y0.4937 Z-9.2000 I0.0000 J0.4937 F500.00
G2 X0.3491 Y0.3491 Z-9.2000 I0.0000 J-0.4937 F500.00
G1 X0.3491 Y0.3491 Z-9.4000 F100.00
G2 X-0.0000 Y-0.4937 Z-9.4000 I-0.3491 J-0.3491 F500.00
G2 X0.0000 Y0.4937 Z-9.4000 I0.0000 J0.4937 F500.00
G2 X0.3491 Y0.3491 Z-9.4000 I0.0000 J-0.4937 F500.00
G1 X0.3491 Y0.3491 Z-9.6000 F100.00
G2 X-0.0000 Y-0.4937 Z-9.6000 I-0.3491 J-0.3491 F500.00
G2 X0.0000 Y0.4937 Z-9.6000 I0.0000 J0.4937 F500.00
G2 X0.3491 Y0.3491 Z-9.6000 I0.0000 J-0.4937 F500.00
G1 X0.3491 Y0.3491 Z-9.8000 F100.00
G2 X-0.0000 Y-0.4937 Z-9.8000 I-0.3491 J-0.3491 F500.00
G2 X0.0000 Y0.4937 Z-9.8000 I0.0000 J0.4937 F500.00
G2 X0.3491 Y0.3491 Z-9.8000 I0.0000 J-0.4937 F500.00
G1 X0.3491 Y0.3491 Z-10.0000 F100.00
G2 X-0.0000 Y-0.4937 Z-10.0000 I-0.3491 J-0.3491 F500.00
G2 X0.0000 Y0.4937 Z-10.0000 I0.0000 J0.4937 F500.00
G2 X0.3491 Y0.3491 Z-10.0000 I0.0000 J-0.4937 F500.00
G1 X0.3491 Y0.3491 Z-10.2000 F100.00
G2 X-0.0000 Y-0.4937 Z-10.2000 I-0.3491 J-0.3491 F500.00
G2 X0.0000 Y0.4937 Z-10.2000 I0.0000 J0.4937 F500.00
G2 X0.3491 Y0.3491 Z-10.2000 I0.0000 J-0.4937 F500.00
G1 X0.3491 Y0.3491 Z-10.4000 F100.00
G2 X-0.0000 Y-0.4937 Z-10.4000 I-0.3491 J-0.3491 F500.00
G2 X0.0000 Y0.4937 Z-10.4000 I0.0000 J0.4937 F500.00
G2 X0.3491 Y0.3491 Z-10.4000 I0.0000 J-0.4937 F500.00
G1 X0.3491 Y0.3491 Z-10.6000 F100.00
G2 X-0.0000 Y-0.4937 Z-10.6000 I-0.3491 J-0.3491 F500.00
G2 X0.0000 Y0.4937 Z-10.6000 I0.0000 J0.4937 F500.00
G2 X0.3491 Y0.3491 Z-10.6000 I0.0000 J-0.4937 F500.00
G1 X0.3491 Y0.3491 Z-10.8000 F100.00
G2 X-0.0000 Y-0.4937 Z-10.8000 I-0.3491 J-0.3491 F500.00
G2 X0.0000 Y0.4937 Z-10.8000 I0.0000 J0.4937 F500.00
G2 X0.3491 Y0.3491 Z-10.8000 I0.0000 J-0.4937 F500.00
G1 X0.3491 Y0.3491 Z-11.0000 F100.00
G2 X-0.0000 Y-0.4937 Z-11.0000 I-0.3491 J-0.3491 F500.00
G2 X0.0000 Y0.4937 Z-11.0000 I0.0000 J0.4937 F500.00
G2 X0.3491 Y0.3491 Z-11.0000 I0.0000 J-0.4937 F500.00
G1 X0.3491 Y0.3491 Z-11.2000 F100.00
G2 X-0.0000 Y-0.4937 Z-11.2000 I-0.3491 J-0.3491 F500.00
G2 X0.0000 Y0.4937 Z-11.2000 I0.0000 J0.4937 F500.00
G2 X0.3491 Y0.3491 Z-11.2000 I0.0000 J-0.4937 F500.00
G1 X0.3491 Y0.3491 Z-11.4000 F100.00
G2 X-0.0000 Y-0.4937 Z-11.4000 I-0.3491 J-0.3491 F500.00
G2 X0.0000 Y0.4937 Z-11.4000 I0.0000 J0.4937 F500.00
G2 X0.3491 Y0.3491 Z-11.4000 I0.0000 J-0.4937 F500.00
G1 X0.3491 Y0.3491 Z-11.6000 F100.00
G2 X-0.0000 Y-0.4937 Z-11.6000 I-0.3491 J-0.3491 F500.00
G2 X0.0000 Y0.4937 Z-11.6000 I0.0000 J0.4937 F500.00
G2 X0.3491 Y0.3491 Z-11.6000 I0.0000 J-0.4937 F500.00
G1 X0.3491 Y0.3491 Z-11.8000 F100.00
G2 X-0.0000 Y-0.4937 Z-11.8000 I-0.3491 J-0.3491 F500.00
G2 X0.0000 Y0.4937 Z-11.8000 I0.0000 J0.4937 F500.00
G2 X0.3491 Y0.3491 Z-11.8000 I0.0000 J-0.4937 F500.00
G1 X0.3491 Y0.3491 Z-12.0000 F100.00
G2 X-0.0000 Y-0.4937 Z-12.0000 I-0.3491 J-0.3491 F500.00
G2 X0.0000 Y0.4937 Z-12.0000 I0.0000 J0.4937 F500.00
G2 X0.3491 Y0.3491 Z-12.0000 I0.0000 J-0.4937 F500.00
G0 Z6.0000
(finish operation: Pocket_Shape002)
(begin operation: Profile_Edges001)
(Path: Profile_Edges001)
(Profile_Edges001)
(Compensated Tool Path. Diameter: 2.0)
G0 Z6.0000
G0 X17.3411 Y1.3411
G0 Z4.0000
G1 X17.3411 Y1.3411 Z0.8000 F100.00
G2 X16.6158 Y-1.7938 Z0.8000 I-1.3411 J-1.3411 F500.00
G2 X15.3842 Y1.7938 Z0.8000 I-0.6158 J1.7938 F500.00
G2 X17.3411 Y1.3411 Z0.8000 I0.6158 J-1.7938 F500.00
G1 X17.3411 Y1.3411 Z0.6000 F100.00
G2 X16.6158 Y-1.7938 Z0.6000 I-1.3411 J-1.3411 F500.00
G2 X15.3842 Y1.7938 Z0.6000 I-0.6158 J1.7938 F500.00
G2 X17.3411 Y1.3411 Z0.6000 I0.6158 J-1.7938 F500.00
G1 X17.3411 Y1.3411 Z0.4000 F100.00
G2 X16.6158 Y-1.7938 Z0.4000 I-1.3411 J-1.3411 F500.00
G2 X15.3842 Y1.7938 Z0.4000 I-0.6158 J1.7938 F500.00
G2 X17.3411 Y1.3411 Z0.4000 I0.6158 J-1.7938 F500.00
G1 X17.3411 Y1.3411 Z0.2000 F100.00
G2 X16.6158 Y-1.7938 Z0.2000 I-1.3411 J-1.3411 F500.00
G2 X15.3842 Y1.7938 Z0.2000 I-0.6158 J1.7938 F500.00
G2 X17.3411 Y1.3411 Z0.2000 I0.6158 J-1.7938 F500.00
G1 X17.3411 Y1.3411 Z0.0000 F100.00
G2 X16.6158 Y-1.7938 Z0.0000 I-1.3411 J-1.3411 F500.00
G2 X15.3842 Y1.7938 Z0.0000 I-0.6158 J1.7938 F500.00
G2 X17.3411 Y1.3411 Z0.0000 I0.6158 J-1.7938 F500.00
G1 X17.3411 Y1.3411 Z-0.2000 F100.00
G2 X16.6158 Y-1.7938 Z-0.2000 I-1.3411 J-1.3411 F500.00
G2 X15.3842 Y1.7938 Z-0.2000 I-0.6158 J1.7938 F500.00
G2 X17.3411 Y1.3411 Z-0.2000 I0.6158 J-1.7938 F500.00
G1 X17.3411 Y1.3411 Z-0.4000 F100.00
G2 X16.6158 Y-1.7938 Z-0.4000 I-1.3411 J-1.3411 F500.00
G2 X15.3842 Y1.7938 Z-0.4000 I-0.6158 J1.7938 F500.00
G2 X17.3411 Y1.3411 Z-0.4000 I0.6158 J-1.7938 F500.00
G1 X17.3411 Y1.3411 Z-0.6000 F100.00
G2 X16.6158 Y-1.7938 Z-0.6000 I-1.3411 J-1.3411 F500.00
G2 X15.3842 Y1.7938 Z-0.6000 I-0.6158 J1.7938 F500.00
G2 X17.3411 Y1.3411 Z-0.6000 I0.6158 J-1.7938 F500.00
G1 X17.3411 Y1.3411 Z-0.8000 F100.00
G2 X16.6158 Y-1.7938 Z-0.8000 I-1.3411 J-1.3411 F500.00
G2 X15.3842 Y1.7938 Z-0.8000 I-0.6158 J1.7938 F500.00
G2 X17.3411 Y1.3411 Z-0.8000 I0.6158 J-1.7938 F500.00
G1 X17.3411 Y1.3411 Z-1.0000 F100.00
G2 X16.6158 Y-1.7938 Z-1.0000 I-1.3411 J-1.3411 F500.00
G2 X15.3842 Y1.7938 Z-1.0000 I-0.6158 J1.7938 F500.00
G2 X17.3411 Y1.3411 Z-1.0000 I0.6158 J-1.7938 F500.00
G1 X17.3411 Y1.3411 Z-1.2000 F100.00
G2 X16.6158 Y-1.7938 Z-1.2000 I-1.3411 J-1.3411 F500.00
G2 X15.3842 Y1.7938 Z-1.2000 I-0.6158 J1.7938 F500.00
G2 X17.3411 Y1.3411 Z-1.2000 I0.6158 J-1.7938 F500.00
G1 X17.3411 Y1.3411 Z-1.4000 F100.00
G2 X16.6158 Y-1.7938 Z-1.4000 I-1.3411 J-1.3411 F500.00
G2 X15.3842 Y1.7938 Z-1.4000 I-0.6158 J1.7938 F500.00
G2 X17.3411 Y1.3411 Z-1.4000 I0.6158 J-1.7938 F500.00
G1 X17.3411 Y1.3411 Z-1.6000 F100.00
G2 X16.6158 Y-1.7938 Z-1.6000 I-1.3411 J-1.3411 F500.00
G2 X15.3842 Y1.7938 Z-1.6000 I-0.6158 J1.7938 F500.00
G2 X17.3411 Y1.3411 Z-1.6000 I0.6158 J-1.7938 F500.00
G1 X17.3411 Y1.3411 Z-1.8000 F100.00
G2 X16.6158 Y-1.7938 Z-1.8000 I-1.3411 J-1.3411 F500.00
G2 X15.3842 Y1.7938 Z-1.8000 I-0.6158 J1.7938 F500.00
G2 X17.3411 Y1.3411 Z-1.8000 I0.6158 J-1.7938 F500.00
G1 X17.3411 Y1.3411 Z-2.0000 F100.00
G2 X16.6158 Y-1.7938 Z-2.0000 I-1.3411 J-1.3411 F500.00
G2 X15.3842 Y1.7938 Z-2.0000 I-0.6158 J1.7938 F500.00
G2 X17.3411 Y1.3411 Z-2.0000 I0.6158 J-1.7938 F500.00
G0 Z6.0000
(finish operation: Profile_Edges001)
(begin operation: Pocket_Shape)
(Path: Pocket_Shape)
(Pocket_Shape)
G0 Z6.0000
G0 X16.3491 Y0.3491
G0 Z4.0000
G1 X16.3491 Y0.3491 Z0.8000 F100.00
G2 X16.0000 Y-0.4937 Z0.8000 I-0.3491 J-0.3491 F500.00
G2 X15.5063 Y-0.0000 Z0.8000 I-0.0000 J0.4937 F500.00
G2 X16.0000 Y0.4937 Z0.8000 I0.4937 J-0.0000 F500.00
G2 X16.3491 Y0.3491 Z0.8000 I0.0000 J-0.4937 F500.00
G1 X16.3491 Y0.3491 Z0.6000 F100.00
G2 X16.0000 Y-0.4937 Z0.6000 I-0.3491 J-0.3491 F500.00
G2 X15.5063 Y-0.0000 Z0.6000 I-0.0000 J0.4937 F500.00
G2 X16.0000 Y0.4937 Z0.6000 I0.4937 J-0.0000 F500.00
G2 X16.3491 Y0.3491 Z0.6000 I0.0000 J-0.4937 F500.00
G1 X16.3491 Y0.3491 Z0.4000 F100.00
G2 X16.0000 Y-0.4937 Z0.4000 I-0.3491 J-0.3491 F500.00
G2 X15.5063 Y-0.0000 Z0.4000 I-0.0000 J0.4937 F500.00
G2 X16.0000 Y0.4937 Z0.4000 I0.4937 J-0.0000 F500.00
G2 X16.3491 Y0.3491 Z0.4000 I0.0000 J-0.4937 F500.00
G1 X16.3491 Y0.3491 Z0.2000 F100.00
G2 X16.0000 Y-0.4937 Z0.2000 I-0.3491 J-0.3491 F500.00
G2 X15.5063 Y-0.0000 Z0.2000 I-0.0000 J0.4937 F500.00
G2 X16.0000 Y0.4937 Z0.2000 I0.4937 J-0.0000 F500.00
G2 X16.3491 Y0.3491 Z0.2000 I0.0000 J-0.4937 F500.00
G1 X16.3491 Y0.3491 Z0.0000 F100.00
G2 X16.0000 Y-0.4937 Z0.0000 I-0.3491 J-0.3491 F500.00
G2 X15.5063 Y-0.0000 Z0.0000 I-0.0000 J0.4937 F500.00
G2 X16.0000 Y0.4937 Z0.0000 I0.4937 J-0.0000 F500.00
G2 X16.3491 Y0.3491 Z0.0000 I0.0000 J-0.4937 F500.00
G1 X16.3491 Y0.3491 Z-0.2000 F100.00
G2 X16.0000 Y-0.4937 Z-0.2000 I-0.3491 J-0.3491 F500.00
G2 X15.5063 Y-0.0000 Z-0.2000 I-0.0000 J0.4937 F500.00
G2 X16.0000 Y0.4937 Z-0.2000 I0.4937 J-0.0000 F500.00
G2 X16.3491 Y0.3491 Z-0.2000 I0.0000 J-0.4937 F500.00
G1 X16.3491 Y0.3491 Z-0.4000 F100.00
G2 X16.0000 Y-0.4937 Z-0.4000 I-0.3491 J-0.3491 F500.00
G2 X15.5063 Y-0.0000 Z-0.4000 I-0.0000 J0.4937 F500.00
G2 X16.0000 Y0.4937 Z-0.4000 I0.4937 J-0.0000 F500.00
G2 X16.3491 Y0.3491 Z-0.4000 I0.0000 J-0.4937 F500.00
G1 X16.3491 Y0.3491 Z-0.6000 F100.00
G2 X16.0000 Y-0.4937 Z-0.6000 I-0.3491 J-0.3491 F500.00
G2 X15.5063 Y-0.0000 Z-0.6000 I-0.0000 J0.4937 F500.00
G2 X16.0000 Y0.4937 Z-0.6000 I0.4937 J-0.0000 F500.00
G2 X16.3491 Y0.3491 Z-0.6000 I0.0000 J-0.4937 F500.00
G1 X16.3491 Y0.3491 Z-0.8000 F100.00
G2 X16.0000 Y-0.4937 Z-0.8000 I-0.3491 J-0.3491 F500.00
G2 X15.5063 Y-0.0000 Z-0.8000 I-0.0000 J0.4937 F500.00
G2 X16.0000 Y0.4937 Z-0.8000 I0.4937 J-0.0000 F500.00
G2 X16.3491 Y0.3491 Z-0.8000 I0.0000 J-0.4937 F500.00
G1 X16.3491 Y0.3491 Z-1.0000 F100.00
G2 X16.0000 Y-0.4937 Z-1.0000 I-0.3491 J-0.3491 F500.00
G2 X15.5063 Y-0.0000 Z-1.0000 I-0.0000 J0.4937 F500.00
G2 X16.0000 Y0.4937 Z-1.0000 I0.4937 J-0.0000 F500.00
G2 X16.3491 Y0.3491 Z-1.0000 I0.0000 J-0.4937 F500.00
G1 X16.3491 Y0.3491 Z-1.2000 F100.00
G2 X16.0000 Y-0.4937 Z-1.2000 I-0.3491 J-0.3491 F500.00
G2 X15.5063 Y-0.0000 Z-1.2000 I-0.0000 J0.4937 F500.00
G2 X16.0000 Y0.4937 Z-1.2000 I0.4937 J-0.0000 F500.00
G2 X16.3491 Y0.3491 Z-1.2000 I0.0000 J-0.4937 F500.00
G1 X16.3491 Y0.3491 Z-1.4000 F100.00
G2 X16.0000 Y-0.4937 Z-1.4000 I-0.3491 J-0.3491 F500.00
G2 X15.5063 Y-0.0000 Z-1.4000 I-0.0000 J0.4937 F500.00
G2 X16.0000 Y0.4937 Z-1.4000 I0.4937 J-0.0000 F500.00
G2 X16.3491 Y0.3491 Z-1.4000 I0.0000 J-0.4937 F500.00
G1 X16.3491 Y0.3491 Z-1.6000 F100.00
G2 X16.0000 Y-0.4937 Z-1.6000 I-0.3491 J-0.3491 F500.00
G2 X15.5063 Y-0.0000 Z-1.6000 I-0.0000 J0.4937 F500.00
G2 X16.0000 Y0.4937 Z-1.6000 I0.4937 J-0.0000 F500.00
G2 X16.3491 Y0.3491 Z-1.6000 I0.0000 J-0.4937 F500.00
G1 X16.3491 Y0.3491 Z-1.8000 F100.00
G2 X16.0000 Y-0.4937 Z-1.8000 I-0.3491 J-0.3491 F500.00
G2 X15.5063 Y-0.0000 Z-1.8000 I-0.0000 J0.4937 F500.00
G2 X16.0000 Y0.4937 Z-1.8000 I0.4937 J-0.0000 F500.00
G2 X16.3491 Y0.3491 Z-1.8000 I0.0000 J-0.4937 F500.00
G1 X16.3491 Y0.3491 Z-2.0000 F100.00
G2 X16.0000 Y-0.4937 Z-2.0000 I-0.3491 J-0.3491 F500.00
G2 X15.5063 Y-0.0000 Z-2.0000 I-0.0000 J0.4937 F500.00
G2 X16.0000 Y0.4937 Z-2.0000 I0.4937 J-0.0000 F500.00
G2 X16.3491 Y0.3491 Z-2.0000 I0.0000 J-0.4937 F500.00
G1 X16.3491 Y0.3491 Z-2.2000 F100.00
G2 X16.0000 Y-0.4937 Z-2.2000 I-0.3491 J-0.3491 F500.00
G2 X15.5063 Y-0.0000 Z-2.2000 I-0.0000 J0.4937 F500.00
G2 X16.0000 Y0.4937 Z-2.2000 I0.4937 J-0.0000 F500.00
G2 X16.3491 Y0.3491 Z-2.2000 I0.0000 J-0.4937 F500.00
G1 X16.3491 Y0.3491 Z-2.4000 F100.00
G2 X16.0000 Y-0.4937 Z-2.4000 I-0.3491 J-0.3491 F500.00
G2 X15.5063 Y-0.0000 Z-2.4000 I-0.0000 J0.4937 F500.00
G2 X16.0000 Y0.4937 Z-2.4000 I0.4937 J-0.0000 F500.00
G2 X16.3491 Y0.3491 Z-2.4000 I0.0000 J-0.4937 F500.00
G1 X16.3491 Y0.3491 Z-2.6000 F100.00
G2 X16.0000 Y-0.4937 Z-2.6000 I-0.3491 J-0.3491 F500.00
G2 X15.5063 Y-0.0000 Z-2.6000 I-0.0000 J0.4937 F500.00
G2 X16.0000 Y0.4937 Z-2.6000 I0.4937 J-0.0000 F500.00
G2 X16.3491 Y0.3491 Z-2.6000 I0.0000 J-0.4937 F500.00
G1 X16.3491 Y0.3491 Z-2.8000 F100.00
G2 X16.0000 Y-0.4937 Z-2.8000 I-0.3491 J-0.3491 F500.00
G2 X15.5063 Y-0.0000 Z-2.8000 I-0.0000 J0.4937 F500.00
G2 X16.0000 Y0.4937 Z-2.8000 I0.4937 J-0.0000 F500.00
G2 X16.3491 Y0.3491 Z-2.8000 I0.0000 J-0.4937 F500.00
G1 X16.3491 Y0.3491 Z-3.0000 F100.00
G2 X16.0000 Y-0.4937 Z-3.0000 I-0.3491 J-0.3491 F500.00
G2 X15.5063 Y-0.0000 Z-3.0000 I-0.0000 J0.4937 F500.00
G2 X16.0000 Y0.4937 Z-3.0000 I0.4937 J-0.0000 F500.00
G2 X16.3491 Y0.3491 Z-3.0000 I0.0000 J-0.4937 F500.00
G1 X16.3491 Y0.3491 Z-3.2000 F100.00
G2 X16.0000 Y-0.4937 Z-3.2000 I-0.3491 J-0.3491 F500.00
G2 X15.5063 Y-0.0000 Z-3.2000 I-0.0000 J0.4937 F500.00
G2 X16.0000 Y0.4937 Z-3.2000 I0.4937 J-0.0000 F500.00
G2 X16.3491 Y0.3491 Z-3.2000 I0.0000 J-0.4937 F500.00
G1 X16.3491 Y0.3491 Z-3.4000 F100.00
G2 X16.0000 Y-0.4937 Z-3.4000 I-0.3491 J-0.3491 F500.00
G2 X15.5063 Y-0.0000 Z-3.4000 I-0.0000 J0.4937 F500.00
G2 X16.0000 Y0.4937 Z-3.4000 I0.4937 J-0.0000 F500.00
G2 X16.3491 Y0.3491 Z-3.4000 I0.0000 J-0.4937 F500.00
G1 X16.3491 Y0.3491 Z-3.6000 F100.00
G2 X16.0000 Y-0.4937 Z-3.6000 I-0.3491 J-0.3491 F500.00
G2 X15.5063 Y-0.0000 Z-3.6000 I-0.0000 J0.4937 F500.00
G2 X16.0000 Y0.4937 Z-3.6000 I0.4937 J-0.0000 F500.00
G2 X16.3491 Y0.3491 Z-3.6000 I0.0000 J-0.4937 F500.00
G1 X16.3491 Y0.3491 Z-3.8000 F100.00
G2 X16.0000 Y-0.4937 Z-3.8000 I-0.3491 J-0.3491 F500.00
G2 X15.5063 Y-0.0000 Z-3.8000 I-0.0000 J0.4937 F500.00
G2 X16.0000 Y0.4937 Z-3.8000 I0.4937 J-0.0000 F500.00
G2 X16.3491 Y0.3491 Z-3.8000 I0.0000 J-0.4937 F500.00
G1 X16.3491 Y0.3491 Z-4.0000 F100.00
G2 X16.0000 Y-0.4937 Z-4.0000 I-0.3491 J-0.3491 F500.00
G2 X15.5063 Y-0.0000 Z-4.0000 I-0.0000 J0.4937 F500.00
G2 X16.0000 Y0.4937 Z-4.0000 I0.4937 J-0.0000 F500.00
G2 X16.3491 Y0.3491 Z-4.0000 I0.0000 J-0.4937 F500.00
G1 X16.3491 Y0.3491 Z-4.2000 F100.00
G2 X16.0000 Y-0.4937 Z-4.2000 I-0.3491 J-0.3491 F500.00
G2 X15.5063 Y-0.0000 Z-4.2000 I-0.0000 J0.4937 F500.00
G2 X16.0000 Y0.4937 Z-4.2000 I0.4937 J-0.0000 F500.00
G2 X16.3491 Y0.3491 Z-4.2000 I0.0000 J-0.4937 F500.00
G1 X16.3491 Y0.3491 Z-4.4000 F100.00
G2 X16.0000 Y-0.4937 Z-4.4000 I-0.3491 J-0.3491 F500.00
G2 X15.5063 Y-0.0000 Z-4.4000 I-0.0000 J0.4937 F500.00
G2 X16.0000 Y0.4937 Z-4.4000 I0.4937 J-0.0000 F500.00
G2 X16.3491 Y0.3491 Z-4.4000 I0.0000 J-0.4937 F500.00
G1 X16.3491 Y0.3491 Z-4.6000 F100.00
G2 X16.0000 Y-0.4937 Z-4.6000 I-0.3491 J-0.3491 F500.00
G2 X15.5063 Y-0.0000 Z-4.6000 I-0.0000 J0.4937 F500.00
G2 X16.0000 Y0.4937 Z-4.6000 I0.4937 J-0.0000 F500.00
G2 X16.3491 Y0.3491 Z-4.6000 I0.0000 J-0.4937 F500.00
G1 X16.3491 Y0.3491 Z-4.8000 F100.00
G2 X16.0000 Y-0.4937 Z-4.8000 I-0.3491 J-0.3491 F500.00
G2 X15.5063 Y-0.0000 Z-4.8000 I-0.0000 J0.4937 F500.00
G2 X16.0000 Y0.4937 Z-4.8000 I0.4937 J-0.0000 F500.00
G2 X16.3491 Y0.3491 Z-4.8000 I0.0000 J-0.4937 F500.00
G1 X16.3491 Y0.3491 Z-5.0000 F100.00
G2 X16.0000 Y-0.4937 Z-5.0000 I-0.3491 J-0.3491 F500.00
G2 X15.5063 Y-0.0000 Z-5.0000 I-0.0000 J0.4937 F500.00
G2 X16.0000 Y0.4937 Z-5.0000 I0.4937 J-0.0000 F500.00
G2 X16.3491 Y0.3491 Z-5.0000 I0.0000 J-0.4937 F500.00
G1 X16.3491 Y0.3491 Z-5.2000 F100.00
G2 X16.0000 Y-0.4937 Z-5.2000 I-0.3491 J-0.3491 F500.00
G2 X15.5063 Y-0.0000 Z-5.2000 I-0.0000 J0.4937 F500.00
G2 X16.0000 Y0.4937 Z-5.2000 I0.4937 J-0.0000 F500.00
G2 X16.3491 Y0.3491 Z-5.2000 I0.0000 J-0.4937 F500.00
G1 X16.3491 Y0.3491 Z-5.4000 F100.00
G2 X16.0000 Y-0.4937 Z-5.4000 I-0.3491 J-0.3491 F500.00
G2 X15.5063 Y-0.0000 Z-5.4000 I-0.0000 J0.4937 F500.00
G2 X16.0000 Y0.4937 Z-5.4000 I0.4937 J-0.0000 F500.00
G2 X16.3491 Y0.3491 Z-5.4000 I0.0000 J-0.4937 F500.00
G1 X16.3491 Y0.3491 Z-5.6000 F100.00
G2 X16.0000 Y-0.4937 Z-5.6000 I-0.3491 J-0.3491 F500.00
G2 X15.5063 Y-0.0000 Z-5.6000 I-0.0000 J0.4937 F500.00
G2 X16.0000 Y0.4937 Z-5.6000 I0.4937 J-0.0000 F500.00
G2 X16.3491 Y0.3491 Z-5.6000 I0.0000 J-0.4937 F500.00
G1 X16.3491 Y0.3491 Z-5.8000 F100.00
G2 X16.0000 Y-0.4937 Z-5.8000 I-0.3491 J-0.3491 F500.00
G2 X15.5063 Y-0.0000 Z-5.8000 I-0.0000 J0.4937 F500.00
G2 X16.0000 Y0.4937 Z-5.8000 I0.4937 J-0.0000 F500.00
G2 X16.3491 Y0.3491 Z-5.8000 I0.0000 J-0.4937 F500.00
G1 X16.3491 Y0.3491 Z-6.0000 F100.00
G2 X16.0000 Y-0.4937 Z-6.0000 I-0.3491 J-0.3491 F500.00
G2 X15.5063 Y-0.0000 Z-6.0000 I-0.0000 J0.4937 F500.00
G2 X16.0000 Y0.4937 Z-6.0000 I0.4937 J-0.0000 F500.00
G2 X16.3491 Y0.3491 Z-6.0000 I0.0000 J-0.4937 F500.00
G1 X16.3491 Y0.3491 Z-6.2000 F100.00
G2 X16.0000 Y-0.4937 Z-6.2000 I-0.3491 J-0.3491 F500.00
G2 X15.5063 Y-0.0000 Z-6.2000 I-0.0000 J0.4937 F500.00
G2 X16.0000 Y0.4937 Z-6.2000 I0.4937 J-0.0000 F500.00
G2 X16.3491 Y0.3491 Z-6.2000 I0.0000 J-0.4937 F500.00
G1 X16.3491 Y0.3491 Z-6.4000 F100.00
G2 X16.0000 Y-0.4937 Z-6.4000 I-0.3491 J-0.3491 F500.00
G2 X15.5063 Y-0.0000 Z-6.4000 I-0.0000 J0.4937 F500.00
G2 X16.0000 Y0.4937 Z-6.4000 I0.4937 J-0.0000 F500.00
G2 X16.3491 Y0.3491 Z-6.4000 I0.0000 J-0.4937 F500.00
G1 X16.3491 Y0.3491 Z-6.6000 F100.00
G2 X16.0000 Y-0.4937 Z-6.6000 I-0.3491 J-0.3491 F500.00
G2 X15.5063 Y-0.0000 Z-6.6000 I-0.0000 J0.4937 F500.00
G2 X16.0000 Y0.4937 Z-6.6000 I0.4937 J-0.0000 F500.00
G2 X16.3491 Y0.3491 Z-6.6000 I0.0000 J-0.4937 F500.00
G1 X16.3491 Y0.3491 Z-6.8000 F100.00
G2 X16.0000 Y-0.4937 Z-6.8000 I-0.3491 J-0.3491 F500.00
G2 X15.5063 Y-0.0000 Z-6.8000 I-0.0000 J0.4937 F500.00
G2 X16.0000 Y0.4937 Z-6.8000 I0.4937 J-0.0000 F500.00
G2 X16.3491 Y0.3491 Z-6.8000 I0.0000 J-0.4937 F500.00
G1 X16.3491 Y0.3491 Z-7.0000 F100.00
G2 X16.0000 Y-0.4937 Z-7.0000 I-0.3491 J-0.3491 F500.00
G2 X15.5063 Y-0.0000 Z-7.0000 I-0.0000 J0.4937 F500.00
G2 X16.0000 Y0.4937 Z-7.0000 I0.4937 J-0.0000 F500.00
G2 X16.3491 Y0.3491 Z-7.0000 I0.0000 J-0.4937 F500.00
G1 X16.3491 Y0.3491 Z-7.2000 F100.00
G2 X16.0000 Y-0.4937 Z-7.2000 I-0.3491 J-0.3491 F500.00
G2 X15.5063 Y-0.0000 Z-7.2000 I-0.0000 J0.4937 F500.00
G2 X16.0000 Y0.4937 Z-7.2000 I0.4937 J-0.0000 F500.00
G2 X16.3491 Y0.3491 Z-7.2000 I0.0000 J-0.4937 F500.00
G1 X16.3491 Y0.3491 Z-7.4000 F100.00
G2 X16.0000 Y-0.4937 Z-7.4000 I-0.3491 J-0.3491 F500.00
G2 X15.5063 Y-0.0000 Z-7.4000 I-0.0000 J0.4937 F500.00
G2 X16.0000 Y0.4937 Z-7.4000 I0.4937 J-0.0000 F500.00
G2 X16.3491 Y0.3491 Z-7.4000 I0.0000 J-0.4937 F500.00
G1 X16.3491 Y0.3491 Z-7.6000 F100.00
G2 X16.0000 Y-0.4937 Z-7.6000 I-0.3491 J-0.3491 F500.00
G2 X15.5063 Y-0.0000 Z-7.6000 I-0.0000 J0.4937 F500.00
G2 X16.0000 Y0.4937 Z-7.6000 I0.4937 J-0.0000 F500.00
G2 X16.3491 Y0.3491 Z-7.6000 I0.0000 J-0.4937 F500.00
G1 X16.3491 Y0.3491 Z-7.8000 F100.00
G2 X16.0000 Y-0.4937 Z-7.8000 I-0.3491 J-0.3491 F500.00
G2 X15.5063 Y-0.0000 Z-7.8000 I-0.0000 J0.4937 F500.00
G2 X16.0000 Y0.4937 Z-7.8000 I0.4937 J-0.0000 F500.00
G2 X16.3491 Y0.3491 Z-7.8000 I0.0000 J-0.4937 F500.00
G1 X16.3491 Y0.3491 Z-8.0000 F100.00
G2 X16.0000 Y-0.4937 Z-8.0000 I-0.3491 J-0.3491 F500.00
G2 X15.5063 Y-0.0000 Z-8.0000 I-0.0000 J0.4937 F500.00
G2 X16.0000 Y0.4937 Z-8.0000 I0.4937 J-0.0000 F500.00
G2 X16.3491 Y0.3491 Z-8.0000 I0.0000 J-0.4937 F500.00
G1 X16.3491 Y0.3491 Z-8.2000 F100.00
G2 X16.0000 Y-0.4937 Z-8.2000 I-0.3491 J-0.3491 F500.00
G2 X15.5063 Y-0.0000 Z-8.2000 I-0.0000 J0.4937 F500.00
G2 X16.0000 Y0.4937 Z-8.2000 I0.4937 J-0.0000 F500.00
G2 X16.3491 Y0.3491 Z-8.2000 I0.0000 J-0.4937 F500.00
G1 X16.3491 Y0.3491 Z-8.4000 F100.00
G2 X16.0000 Y-0.4937 Z-8.4000 I-0.3491 J-0.3491 F500.00
G2 X15.5063 Y-0.0000 Z-8.4000 I-0.0000 J0.4937 F500.00
G2 X16.0000 Y0.4937 Z-8.4000 I0.4937 J-0.0000 F500.00
G2 X16.3491 Y0.3491 Z-8.4000 I0.0000 J-0.4937 F500.00
G1 X16.3491 Y0.3491 Z-8.6000 F100.00
G2 X16.0000 Y-0.4937 Z-8.6000 I-0.3491 J-0.3491 F500.00
G2 X15.5063 Y-0.0000 Z-8.6000 I-0.0000 J0.4937 F500.00
G2 X16.0000 Y0.4937 Z-8.6000 I0.4937 J-0.0000 F500.00
G2 X16.3491 Y0.3491 Z-8.6000 I0.0000 J-0.4937 F500.00
G1 X16.3491 Y0.3491 Z-8.8000 F100.00
G2 X16.0000 Y-0.4937 Z-8.8000 I-0.3491 J-0.3491 F500.00
G2 X15.5063 Y-0.0000 Z-8.8000 I-0.0000 J0.4937 F500.00
G2 X16.0000 Y0.4937 Z-8.8000 I0.4937 J-0.0000 F500.00
G2 X16.3491 Y0.3491 Z-8.8000 I0.0000 J-0.4937 F500.00
G1 X16.3491 Y0.3491 Z-9.0000 F100.00
G2 X16.0000 Y-0.4937 Z-9.0000 I-0.3491 J-0.3491 F500.00
G2 X15.5063 Y-0.0000 Z-9.0000 I-0.0000 J0.4937 F500.00
G2 X16.0000 Y0.4937 Z-9.0000 I0.4937 J-0.0000 F500.00
G2 X16.3491 Y0.3491 Z-9.0000 I0.0000 J-0.4937 F500.00
G1 X16.3491 Y0.3491 Z-9.2000 F100.00
G2 X16.0000 Y-0.4937 Z-9.2000 I-0.3491 J-0.3491 F500.00
G2 X15.5063 Y-0.0000 Z-9.2000 I-0.0000 J0.4937 F500.00
G2 X16.0000 Y0.4937 Z-9.2000 I0.4937 J-0.0000 F500.00
G2 X16.3491 Y0.3491 Z-9.2000 I0.0000 J-0.4937 F500.00
G1 X16.3491 Y0.3491 Z-9.4000 F100.00
G2 X16.0000 Y-0.4937 Z-9.4000 I-0.3491 J-0.3491 F500.00
G2 X15.5063 Y-0.0000 Z-9.4000 I-0.0000 J0.4937 F500.00
G2 X16.0000 Y0.4937 Z-9.4000 I0.4937 J-0.0000 F500.00
G2 X16.3491 Y0.3491 Z-9.4000 I0.0000 J-0.4937 F500.00
G1 X16.3491 Y0.3491 Z-9.6000 F100.00
G2 X16.0000 Y-0.4937 Z-9.6000 I-0.3491 J-0.3491 F500.00
G2 X15.5063 Y-0.0000 Z-9.6000 I-0.0000 J0.4937 F500.00
G2 X16.0000 Y0.4937 Z-9.6000 I0.4937 J-0.0000 F500.00
G2 X16.3491 Y0.3491 Z-9.6000 I0.0000 J-0.4937 F500.00
G1 X16.3491 Y0.3491 Z-9.8000 F100.00
G2 X16.0000 Y-0.4937 Z-9.8000 I-0.3491 J-0.3491 F500.00
G2 X15.5063 Y-0.0000 Z-9.8000 I-0.0000 J0.4937 F500.00
G2 X16.0000 Y0.4937 Z-9.8000 I0.4937 J-0.0000 F500.00
G2 X16.3491 Y0.3491 Z-9.8000 I0.0000 J-0.4937 F500.00
G1 X16.3491 Y0.3491 Z-10.0000 F100.00
G2 X16.0000 Y-0.4937 Z-10.0000 I-0.3491 J-0.3491 F500.00
G2 X15.5063 Y-0.0000 Z-10.0000 I-0.0000 J0.4937 F500.00
G2 X16.0000 Y0.4937 Z-10.0000 I0.4937 J-0.0000 F500.00
G2 X16.3491 Y0.3491 Z-10.0000 I0.0000 J-0.4937 F500.00
G1 X16.3491 Y0.3491 Z-10.2000 F100.00
G2 X16.0000 Y-0.4937 Z-10.2000 I-0.3491 J-0.3491 F500.00
G2 X15.5063 Y-0.0000 Z-10.2000 I-0.0000 J0.4937 F500.00
G2 X16.0000 Y0.4937 Z-10.2000 I0.4937 J-0.0000 F500.00
G2 X16.3491 Y0.3491 Z-10.2000 I0.0000 J-0.4937 F500.00
G1 X16.3491 Y0.3491 Z-10.4000 F100.00
G2 X16.0000 Y-0.4937 Z-10.4000 I-0.3491 J-0.3491 F500.00
G2 X15.5063 Y-0.0000 Z-10.4000 I-0.0000 J0.4937 F500.00
G2 X16.0000 Y0.4937 Z-10.4000 I0.4937 J-0.0000 F500.00
G2 X16.3491 Y0.3491 Z-10.4000 I0.0000 J-0.4937 F500.00
G1 X16.3491 Y0.3491 Z-10.6000 F100.00
G2 X16.0000 Y-0.4937 Z-10.6000 I-0.3491 J-0.3491 F500.00
G2 X15.5063 Y-0.0000 Z-10.6000 I-0.0000 J0.4937 F500.00
G2 X16.0000 Y0.4937 Z-10.6000 I0.4937 J-0.0000 F500.00
G2 X16.3491 Y0.3491 Z-10.6000 I0.0000 J-0.4937 F500.00
G1 X16.3491 Y0.3491 Z-10.8000 F100.00
G2 X16.0000 Y-0.4937 Z-10.8000 I-0.3491 J-0.3491 F500.00
G2 X15.5063 Y-0.0000 Z-10.8000 I-0.0000 J0.4937 F500.00
G2 X16.0000 Y0.4937 Z-10.8000 I0.4937 J-0.0000 F500.00
G2 X16.3491 Y0.3491 Z-10.8000 I0.0000 J-0.4937 F500.00
G1 X16.3491 Y0.3491 Z-11.0000 F100.00
G2 X16.0000 Y-0.4937 Z-11.0000 I-0.3491 J-0.3491 F500.00
G2 X15.5063 Y-0.0000 Z-11.0000 I-0.0000 J0.4937 F500.00
G2 X16.0000 Y0.4937 Z-11.0000 I0.4937 J-0.0000 F500.00
G2 X16.3491 Y0.3491 Z-11.0000 I0.0000 J-0.4937 F500.00
G1 X16.3491 Y0.3491 Z-11.2000 F100.00
G2 X16.0000 Y-0.4937 Z-11.2000 I-0.3491 J-0.3491 F500.00
G2 X15.5063 Y-0.0000 Z-11.2000 I-0.0000 J0.4937 F500.00
G2 X16.0000 Y0.4937 Z-11.2000 I0.4937 J-0.0000 F500.00
G2 X16.3491 Y0.3491 Z-11.2000 I0.0000 J-0.4937 F500.00
G1 X16.3491 Y0.3491 Z-11.4000 F100.00
G2 X16.0000 Y-0.4937 Z-11.4000 I-0.3491 J-0.3491 F500.00
G2 X15.5063 Y-0.0000 Z-11.4000 I-0.0000 J0.4937 F500.00
G2 X16.0000 Y0.4937 Z-11.4000 I0.4937 J-0.0000 F500.00
G2 X16.3491 Y0.3491 Z-11.4000 I0.0000 J-0.4937 F500.00
G1 X16.3491 Y0.3491 Z-11.6000 F100.00
G2 X16.0000 Y-0.4937 Z-11.6000 I-0.3491 J-0.3491 F500.00
G2 X15.5063 Y-0.0000 Z-11.6000 I-0.0000 J0.4937 F500.00
G2 X16.0000 Y0.4937 Z-11.6000 I0.4937 J-0.0000 F500.00
G2 X16.3491 Y0.3491 Z-11.6000 I0.0000 J-0.4937 F500.00
G1 X16.3491 Y0.3491 Z-11.8000 F100.00
G2 X16.0000 Y-0.4937 Z-11.8000 I-0.3491 J-0.3491 F500.00
G2 X15.5063 Y-0.0000 Z-11.8000 I-0.0000 J0.4937 F500.00
G2 X16.0000 Y0.4937 Z-11.8000 I0.4937 J-0.0000 F500.00
G2 X16.3491 Y0.3491 Z-11.8000 I0.0000 J-0.4937 F500.00
G1 X16.3491 Y0.3491 Z-12.0000 F100.00
G2 X16.0000 Y-0.4937 Z-12.0000 I-0.3491 J-0.3491 F500.00
G2 X15.5063 Y-0.0000 Z-12.0000 I-0.0000 J0.4937 F500.00
G2 X16.0000 Y0.4937 Z-12.0000 I0.4937 J-0.0000 F500.00
G2 X16.3491 Y0.3491 Z-12.0000 I0.0000 J-0.4937 F500.00
G0 Z6.0000
(finish operation: Pocket_Shape)
(begin postamble)
M5
G17 G90
; M2
