(Exported by FreeCAD)
(Post Processor: grbl_post)
(Output Time:2019-09-17 14:39:40.959170)
(begin preamble)
G17 G90
G21
(begin operation: T1: end mill 2mm)
(Path: T1: end mill 2mm)
(T1: end mill 2mm)
(begin toolchange)
; M6 T1
M3 S10000.0000
(finish operation: T1: end mill 2mm)
(begin operation: Pocket_Shape)
(Path: Pocket_Shape)
(Pocket_Shape)
G0 Z5.0000
G0 X1.0580 Y1.0580
G0 Z3.0000
G1 X1.0580 Y1.0580 Z0.3000 F200.00
G2 X-0.0000 Y-1.4962 Z0.3000 I-1.0580 J-1.0580 F500.00
G2 X-0.0000 Y1.4962 Z0.3000 I0.0000 J1.4962 F500.00
G2 X1.0580 Y1.0580 Z0.3000 I0.0000 J-1.4962 F500.00
G1 X1.0580 Y1.0580 Z0.1000 F200.00
G2 X-0.0000 Y-1.4962 Z0.1000 I-1.0580 J-1.0580 F500.00
G2 X-0.0000 Y1.4962 Z0.1000 I0.0000 J1.4962 F500.00
G2 X1.0580 Y1.0580 Z0.1000 I0.0000 J-1.4962 F500.00
G1 X1.0580 Y1.0580 Z-0.1000 F200.00
G2 X-0.0000 Y-1.4962 Z-0.1000 I-1.0580 J-1.0580 F500.00
G2 X-0.0000 Y1.4962 Z-0.1000 I0.0000 J1.4962 F500.00
G2 X1.0580 Y1.0580 Z-0.1000 I0.0000 J-1.4962 F500.00
G1 X1.0580 Y1.0580 Z-0.3000 F200.00
G2 X-0.0000 Y-1.4962 Z-0.3000 I-1.0580 J-1.0580 F500.00
G2 X-0.0000 Y1.4962 Z-0.3000 I0.0000 J1.4962 F500.00
G2 X1.0580 Y1.0580 Z-0.3000 I0.0000 J-1.4962 F500.00
G1 X1.0580 Y1.0580 Z-0.5000 F200.00
G2 X-0.0000 Y-1.4962 Z-0.5000 I-1.0580 J-1.0580 F500.00
G2 X-0.0000 Y1.4962 Z-0.5000 I0.0000 J1.4962 F500.00
G2 X1.0580 Y1.0580 Z-0.5000 I0.0000 J-1.4962 F500.00
G1 X1.0580 Y1.0580 Z-0.7000 F200.00
G2 X-0.0000 Y-1.4962 Z-0.7000 I-1.0580 J-1.0580 F500.00
G2 X-0.0000 Y1.4962 Z-0.7000 I0.0000 J1.4962 F500.00
G2 X1.0580 Y1.0580 Z-0.7000 I0.0000 J-1.4962 F500.00
G1 X1.0580 Y1.0580 Z-0.9000 F200.00
G2 X-0.0000 Y-1.4962 Z-0.9000 I-1.0580 J-1.0580 F500.00
G2 X-0.0000 Y1.4962 Z-0.9000 I0.0000 J1.4962 F500.00
G2 X1.0580 Y1.0580 Z-0.9000 I0.0000 J-1.4962 F500.00
G1 X1.0580 Y1.0580 Z-1.1000 F200.00
G2 X-0.0000 Y-1.4962 Z-1.1000 I-1.0580 J-1.0580 F500.00
G2 X-0.0000 Y1.4962 Z-1.1000 I0.0000 J1.4962 F500.00
G2 X1.0580 Y1.0580 Z-1.1000 I0.0000 J-1.4962 F500.00
G1 X1.0580 Y1.0580 Z-1.3000 F200.00
G2 X-0.0000 Y-1.4962 Z-1.3000 I-1.0580 J-1.0580 F500.00
G2 X-0.0000 Y1.4962 Z-1.3000 I0.0000 J1.4962 F500.00
G2 X1.0580 Y1.0580 Z-1.3000 I0.0000 J-1.4962 F500.00
G1 X1.0580 Y1.0580 Z-1.5000 F200.00
G2 X-0.0000 Y-1.4962 Z-1.5000 I-1.0580 J-1.0580 F500.00
G2 X-0.0000 Y1.4962 Z-1.5000 I0.0000 J1.4962 F500.00
G2 X1.0580 Y1.0580 Z-1.5000 I0.0000 J-1.4962 F500.00
G1 X1.0580 Y1.0580 Z-1.7000 F200.00
G2 X-0.0000 Y-1.4962 Z-1.7000 I-1.0580 J-1.0580 F500.00
G2 X-0.0000 Y1.4962 Z-1.7000 I0.0000 J1.4962 F500.00
G2 X1.0580 Y1.0580 Z-1.7000 I0.0000 J-1.4962 F500.00
G1 X1.0580 Y1.0580 Z-1.9000 F200.00
G2 X-0.0000 Y-1.4962 Z-1.9000 I-1.0580 J-1.0580 F500.00
G2 X-0.0000 Y1.4962 Z-1.9000 I0.0000 J1.4962 F500.00
G2 X1.0580 Y1.0580 Z-1.9000 I0.0000 J-1.4962 F500.00
G1 X1.0580 Y1.0580 Z-2.1000 F200.00
G2 X-0.0000 Y-1.4962 Z-2.1000 I-1.0580 J-1.0580 F500.00
G2 X-0.0000 Y1.4962 Z-2.1000 I0.0000 J1.4962 F500.00
G2 X1.0580 Y1.0580 Z-2.1000 I0.0000 J-1.4962 F500.00
G1 X1.0580 Y1.0580 Z-2.3000 F200.00
G2 X-0.0000 Y-1.4962 Z-2.3000 I-1.0580 J-1.0580 F500.00
G2 X-0.0000 Y1.4962 Z-2.3000 I0.0000 J1.4962 F500.00
G2 X1.0580 Y1.0580 Z-2.3000 I0.0000 J-1.4962 F500.00
G1 X1.0580 Y1.0580 Z-2.5000 F200.00
G2 X-0.0000 Y-1.4962 Z-2.5000 I-1.0580 J-1.0580 F500.00
G2 X-0.0000 Y1.4962 Z-2.5000 I0.0000 J1.4962 F500.00
G2 X1.0580 Y1.0580 Z-2.5000 I0.0000 J-1.4962 F500.00
G1 X1.0580 Y1.0580 Z-2.7000 F200.00
G2 X-0.0000 Y-1.4962 Z-2.7000 I-1.0580 J-1.0580 F500.00
G2 X-0.0000 Y1.4962 Z-2.7000 I0.0000 J1.4962 F500.00
G2 X1.0580 Y1.0580 Z-2.7000 I0.0000 J-1.4962 F500.00
G1 X1.0580 Y1.0580 Z-2.9000 F200.00
G2 X-0.0000 Y-1.4962 Z-2.9000 I-1.0580 J-1.0580 F500.00
G2 X-0.0000 Y1.4962 Z-2.9000 I0.0000 J1.4962 F500.00
G2 X1.0580 Y1.0580 Z-2.9000 I0.0000 J-1.4962 F500.00
G1 X1.0580 Y1.0580 Z-3.1000 F200.00
G2 X-0.0000 Y-1.4962 Z-3.1000 I-1.0580 J-1.0580 F500.00
G2 X-0.0000 Y1.4962 Z-3.1000 I0.0000 J1.4962 F500.00
G2 X1.0580 Y1.0580 Z-3.1000 I0.0000 J-1.4962 F500.00
G1 X1.0580 Y1.0580 Z-3.3000 F200.00
G2 X-0.0000 Y-1.4962 Z-3.3000 I-1.0580 J-1.0580 F500.00
G2 X-0.0000 Y1.4962 Z-3.3000 I0.0000 J1.4962 F500.00
G2 X1.0580 Y1.0580 Z-3.3000 I0.0000 J-1.4962 F500.00
G1 X1.0580 Y1.0580 Z-3.5000 F200.00
G2 X-0.0000 Y-1.4962 Z-3.5000 I-1.0580 J-1.0580 F500.00
G2 X-0.0000 Y1.4962 Z-3.5000 I0.0000 J1.4962 F500.00
G2 X1.0580 Y1.0580 Z-3.5000 I0.0000 J-1.4962 F500.00
G1 X1.0580 Y1.0580 Z-3.7000 F200.00
G2 X-0.0000 Y-1.4962 Z-3.7000 I-1.0580 J-1.0580 F500.00
G2 X-0.0000 Y1.4962 Z-3.7000 I0.0000 J1.4962 F500.00
G2 X1.0580 Y1.0580 Z-3.7000 I0.0000 J-1.4962 F500.00
G1 X1.0580 Y1.0580 Z-3.9000 F200.00
G2 X-0.0000 Y-1.4962 Z-3.9000 I-1.0580 J-1.0580 F500.00
G2 X-0.0000 Y1.4962 Z-3.9000 I0.0000 J1.4962 F500.00
G2 X1.0580 Y1.0580 Z-3.9000 I0.0000 J-1.4962 F500.00
G1 X1.0580 Y1.0580 Z-4.1000 F200.00
G2 X-0.0000 Y-1.4962 Z-4.1000 I-1.0580 J-1.0580 F500.00
G2 X-0.0000 Y1.4962 Z-4.1000 I0.0000 J1.4962 F500.00
G2 X1.0580 Y1.0580 Z-4.1000 I0.0000 J-1.4962 F500.00
G1 X1.0580 Y1.0580 Z-4.3000 F200.00
G2 X-0.0000 Y-1.4962 Z-4.3000 I-1.0580 J-1.0580 F500.00
G2 X-0.0000 Y1.4962 Z-4.3000 I0.0000 J1.4962 F500.00
G2 X1.0580 Y1.0580 Z-4.3000 I0.0000 J-1.4962 F500.00
G1 X1.0580 Y1.0580 Z-4.5000 F200.00
G2 X-0.0000 Y-1.4962 Z-4.5000 I-1.0580 J-1.0580 F500.00
G2 X-0.0000 Y1.4962 Z-4.5000 I0.0000 J1.4962 F500.00
G2 X1.0580 Y1.0580 Z-4.5000 I0.0000 J-1.4962 F500.00
G1 X1.0580 Y1.0580 Z-4.7000 F200.00
G2 X-0.0000 Y-1.4962 Z-4.7000 I-1.0580 J-1.0580 F500.00
G2 X-0.0000 Y1.4962 Z-4.7000 I0.0000 J1.4962 F500.00
G2 X1.0580 Y1.0580 Z-4.7000 I0.0000 J-1.4962 F500.00
G1 X1.0580 Y1.0580 Z-4.9000 F200.00
G2 X-0.0000 Y-1.4962 Z-4.9000 I-1.0580 J-1.0580 F500.00
G2 X-0.0000 Y1.4962 Z-4.9000 I0.0000 J1.4962 F500.00
G2 X1.0580 Y1.0580 Z-4.9000 I0.0000 J-1.4962 F500.00
G1 X1.0580 Y1.0580 Z-5.1000 F200.00
G2 X-0.0000 Y-1.4962 Z-5.1000 I-1.0580 J-1.0580 F500.00
G2 X-0.0000 Y1.4962 Z-5.1000 I0.0000 J1.4962 F500.00
G2 X1.0580 Y1.0580 Z-5.1000 I0.0000 J-1.4962 F500.00
G1 X1.0580 Y1.0580 Z-5.3000 F200.00
G2 X-0.0000 Y-1.4962 Z-5.3000 I-1.0580 J-1.0580 F500.00
G2 X-0.0000 Y1.4962 Z-5.3000 I0.0000 J1.4962 F500.00
G2 X1.0580 Y1.0580 Z-5.3000 I0.0000 J-1.4962 F500.00
G1 X1.0580 Y1.0580 Z-5.5000 F200.00
G2 X-0.0000 Y-1.4962 Z-5.5000 I-1.0580 J-1.0580 F500.00
G2 X-0.0000 Y1.4962 Z-5.5000 I0.0000 J1.4962 F500.00
G2 X1.0580 Y1.0580 Z-5.5000 I0.0000 J-1.4962 F500.00
G1 X1.0580 Y1.0580 Z-5.7000 F200.00
G2 X-0.0000 Y-1.4962 Z-5.7000 I-1.0580 J-1.0580 F500.00
G2 X-0.0000 Y1.4962 Z-5.7000 I0.0000 J1.4962 F500.00
G2 X1.0580 Y1.0580 Z-5.7000 I0.0000 J-1.4962 F500.00
G1 X1.0580 Y1.0580 Z-5.9000 F200.00
G2 X-0.0000 Y-1.4962 Z-5.9000 I-1.0580 J-1.0580 F500.00
G2 X-0.0000 Y1.4962 Z-5.9000 I0.0000 J1.4962 F500.00
G2 X1.0580 Y1.0580 Z-5.9000 I0.0000 J-1.4962 F500.00
G1 X1.0580 Y1.0580 Z-6.1000 F200.00
G2 X-0.0000 Y-1.4962 Z-6.1000 I-1.0580 J-1.0580 F500.00
G2 X-0.0000 Y1.4962 Z-6.1000 I0.0000 J1.4962 F500.00
G2 X1.0580 Y1.0580 Z-6.1000 I0.0000 J-1.4962 F500.00
G1 X1.0580 Y1.0580 Z-6.3000 F200.00
G2 X-0.0000 Y-1.4962 Z-6.3000 I-1.0580 J-1.0580 F500.00
G2 X-0.0000 Y1.4962 Z-6.3000 I0.0000 J1.4962 F500.00
G2 X1.0580 Y1.0580 Z-6.3000 I0.0000 J-1.4962 F500.00
G1 X1.0580 Y1.0580 Z-6.5000 F200.00
G2 X-0.0000 Y-1.4962 Z-6.5000 I-1.0580 J-1.0580 F500.00
G2 X-0.0000 Y1.4962 Z-6.5000 I0.0000 J1.4962 F500.00
G2 X1.0580 Y1.0580 Z-6.5000 I0.0000 J-1.4962 F500.00
G1 X1.0580 Y1.0580 Z-6.7000 F200.00
G2 X-0.0000 Y-1.4962 Z-6.7000 I-1.0580 J-1.0580 F500.00
G2 X-0.0000 Y1.4962 Z-6.7000 I0.0000 J1.4962 F500.00
G2 X1.0580 Y1.0580 Z-6.7000 I0.0000 J-1.4962 F500.00
G1 X1.0580 Y1.0580 Z-6.9000 F200.00
G2 X-0.0000 Y-1.4962 Z-6.9000 I-1.0580 J-1.0580 F500.00
G2 X-0.0000 Y1.4962 Z-6.9000 I0.0000 J1.4962 F500.00
G2 X1.0580 Y1.0580 Z-6.9000 I0.0000 J-1.4962 F500.00
G1 X1.0580 Y1.0580 Z-7.1000 F200.00
G2 X-0.0000 Y-1.4962 Z-7.1000 I-1.0580 J-1.0580 F500.00
G2 X-0.0000 Y1.4962 Z-7.1000 I0.0000 J1.4962 F500.00
G2 X1.0580 Y1.0580 Z-7.1000 I0.0000 J-1.4962 F500.00
G1 X1.0580 Y1.0580 Z-7.3000 F200.00
G2 X-0.0000 Y-1.4962 Z-7.3000 I-1.0580 J-1.0580 F500.00
G2 X-0.0000 Y1.4962 Z-7.3000 I0.0000 J1.4962 F500.00
G2 X1.0580 Y1.0580 Z-7.3000 I0.0000 J-1.4962 F500.00
G1 X1.0580 Y1.0580 Z-7.5000 F200.00
G2 X-0.0000 Y-1.4962 Z-7.5000 I-1.0580 J-1.0580 F500.00
G2 X-0.0000 Y1.4962 Z-7.5000 I0.0000 J1.4962 F500.00
G2 X1.0580 Y1.0580 Z-7.5000 I0.0000 J-1.4962 F500.00
G1 X1.0580 Y1.0580 Z-7.7000 F200.00
G2 X-0.0000 Y-1.4962 Z-7.7000 I-1.0580 J-1.0580 F500.00
G2 X-0.0000 Y1.4962 Z-7.7000 I0.0000 J1.4962 F500.00
G2 X1.0580 Y1.0580 Z-7.7000 I0.0000 J-1.4962 F500.00
G1 X1.0580 Y1.0580 Z-7.9000 F200.00
G2 X-0.0000 Y-1.4962 Z-7.9000 I-1.0580 J-1.0580 F500.00
G2 X-0.0000 Y1.4962 Z-7.9000 I0.0000 J1.4962 F500.00
G2 X1.0580 Y1.0580 Z-7.9000 I0.0000 J-1.4962 F500.00
G1 X1.0580 Y1.0580 Z-8.1000 F200.00
G2 X-0.0000 Y-1.4962 Z-8.1000 I-1.0580 J-1.0580 F500.00
G2 X-0.0000 Y1.4962 Z-8.1000 I0.0000 J1.4962 F500.00
G2 X1.0580 Y1.0580 Z-8.1000 I0.0000 J-1.4962 F500.00
G1 X1.0580 Y1.0580 Z-8.3000 F200.00
G2 X-0.0000 Y-1.4962 Z-8.3000 I-1.0580 J-1.0580 F500.00
G2 X-0.0000 Y1.4962 Z-8.3000 I0.0000 J1.4962 F500.00
G2 X1.0580 Y1.0580 Z-8.3000 I0.0000 J-1.4962 F500.00
G1 X1.0580 Y1.0580 Z-8.5000 F200.00
G2 X-0.0000 Y-1.4962 Z-8.5000 I-1.0580 J-1.0580 F500.00
G2 X-0.0000 Y1.4962 Z-8.5000 I0.0000 J1.4962 F500.00
G2 X1.0580 Y1.0580 Z-8.5000 I0.0000 J-1.4962 F500.00
G1 X1.0580 Y1.0580 Z-8.7000 F200.00
G2 X-0.0000 Y-1.4962 Z-8.7000 I-1.0580 J-1.0580 F500.00
G2 X-0.0000 Y1.4962 Z-8.7000 I0.0000 J1.4962 F500.00
G2 X1.0580 Y1.0580 Z-8.7000 I0.0000 J-1.4962 F500.00
G1 X1.0580 Y1.0580 Z-8.9000 F200.00
G2 X-0.0000 Y-1.4962 Z-8.9000 I-1.0580 J-1.0580 F500.00
G2 X-0.0000 Y1.4962 Z-8.9000 I0.0000 J1.4962 F500.00
G2 X1.0580 Y1.0580 Z-8.9000 I0.0000 J-1.4962 F500.00
G1 X1.0580 Y1.0580 Z-9.1000 F200.00
G2 X-0.0000 Y-1.4962 Z-9.1000 I-1.0580 J-1.0580 F500.00
G2 X-0.0000 Y1.4962 Z-9.1000 I0.0000 J1.4962 F500.00
G2 X1.0580 Y1.0580 Z-9.1000 I0.0000 J-1.4962 F500.00
G1 X1.0580 Y1.0580 Z-9.3000 F200.00
G2 X-0.0000 Y-1.4962 Z-9.3000 I-1.0580 J-1.0580 F500.00
G2 X-0.0000 Y1.4962 Z-9.3000 I0.0000 J1.4962 F500.00
G2 X1.0580 Y1.0580 Z-9.3000 I0.0000 J-1.4962 F500.00
G1 X1.0580 Y1.0580 Z-9.5000 F200.00
G2 X-0.0000 Y-1.4962 Z-9.5000 I-1.0580 J-1.0580 F500.00
G2 X-0.0000 Y1.4962 Z-9.5000 I0.0000 J1.4962 F500.00
G2 X1.0580 Y1.0580 Z-9.5000 I0.0000 J-1.4962 F500.00
G1 X1.0580 Y1.0580 Z-9.7000 F200.00
G2 X-0.0000 Y-1.4962 Z-9.7000 I-1.0580 J-1.0580 F500.00
G2 X-0.0000 Y1.4962 Z-9.7000 I0.0000 J1.4962 F500.00
G2 X1.0580 Y1.0580 Z-9.7000 I0.0000 J-1.4962 F500.00
G1 X1.0580 Y1.0580 Z-9.9000 F200.00
G2 X-0.0000 Y-1.4962 Z-9.9000 I-1.0580 J-1.0580 F500.00
G2 X-0.0000 Y1.4962 Z-9.9000 I0.0000 J1.4962 F500.00
G2 X1.0580 Y1.0580 Z-9.9000 I0.0000 J-1.4962 F500.00
G1 X1.0580 Y1.0580 Z-10.0000 F200.00
G2 X-0.0000 Y-1.4962 Z-10.0000 I-1.0580 J-1.0580 F500.00
G2 X-0.0000 Y1.4962 Z-10.0000 I0.0000 J1.4962 F500.00
G2 X1.0580 Y1.0580 Z-10.0000 I0.0000 J-1.4962 F500.00
G0 Z5.0000
(finish operation: Pocket_Shape)
(begin postamble)
M5
G17 G90
; M2
