(Exported by FreeCAD)
(Post Processor: grbl_post)
(Output Time:2019-08-18 15:14:51.058879)
(begin preamble)
G17 G90
G21
(begin operation: T6: end mill 1mm)
(Path: T6: end mill 1mm)
(T6: end mill 1mm)
(begin toolchange)
; M6 T6
M3 S10000.0000
(finish operation: T6: end mill 1mm)
(begin operation: Pocket_Shape)
(Path: Pocket_Shape)
(Pocket_Shape)
G0 Z6.5000
G0 X1.4084 Y1.4142
G0 Z4.5000
G1 X1.4084 Y1.4142 Z0.3000 F100.00
G2 X1.9754 Y-0.2598 Z0.3000 I-1.4108 J-1.4108 F500.00
G1 X0.9792 Y-0.1727 Z0.3000 F500.00
G1 X1.9754 Y-0.2598 Z0.3000 F500.00
G1 X1.9677 Y-0.3470 Z0.3000 F500.00
G2 X-1.9677 Y0.3470 Z0.3000 I-1.9677 J0.3470 F500.00
G2 X1.4084 Y1.4142 Z0.3000 I1.9654 J-0.3436 F500.00
G0 X1.4084 Y1.4142 Z6.5000
G0 X0.7016 Y0.7045 Z6.5000
G0 X0.7016 Y0.7045 Z4.8000
G1 X0.7016 Y0.7045 Z0.3000 F100.00
G2 X0.9792 Y-0.1727 Z0.3000 I-0.7016 J-0.7045 F500.00
G2 X-0.1727 Y-0.9792 Z0.3000 I-0.9792 J0.1727 F500.00
G2 X-0.9792 Y0.1727 Z0.3000 I0.1727 J0.9792 F500.00
G2 X0.9792 Y-0.1727 Z0.3000 I0.9792 J-0.1727 F500.00
G2 X-0.1727 Y-0.9792 Z0.3000 I-0.9792 J0.1727 F500.00
G2 X-0.9792 Y0.1727 Z0.3000 I0.1727 J0.9792 F500.00
G2 X0.7016 Y0.7045 Z0.3000 I0.9792 J-0.1727 F500.00
G1 X0.7016 Y0.7045 Z0.1000 F100.00
G2 X0.9792 Y-0.1727 Z0.1000 I-0.7016 J-0.7045 F500.00
G2 X-0.1727 Y-0.9792 Z0.1000 I-0.9792 J0.1727 F500.00
G2 X-0.9792 Y0.1727 Z0.1000 I0.1727 J0.9792 F500.00
G2 X0.9792 Y-0.1727 Z0.1000 I0.9792 J-0.1727 F500.00
G2 X-0.1727 Y-0.9792 Z0.1000 I-0.9792 J0.1727 F500.00
G2 X-0.9792 Y0.1727 Z0.1000 I0.1727 J0.9792 F500.00
G2 X0.7016 Y0.7045 Z0.1000 I0.9792 J-0.1727 F500.00
G0 X0.7016 Y0.7045 Z6.5000
G0 X0.9792 Y-0.1727 Z6.5000
G0 X0.9792 Y-0.1727 Z4.6000
G1 X0.9792 Y-0.1727 Z0.1000 F100.00
G1 X1.9754 Y-0.2598 Z0.1000 F500.00
G1 X1.9677 Y-0.3470 Z0.1000 F500.00
G2 X-1.9677 Y0.3470 Z0.1000 I-1.9677 J0.3470 F500.00
G2 X1.9754 Y-0.2598 Z0.1000 I1.9654 J-0.3436 F500.00
G1 X0.9792 Y-0.1727 Z0.1000 F500.00
G1 X0.9792 Y-0.1727 Z-0.1000 F100.00
G2 X-0.1727 Y-0.9792 Z-0.1000 I-0.9792 J0.1727 F500.00
G2 X-0.9792 Y0.1727 Z-0.1000 I0.1727 J0.9792 F500.00
G2 X0.9792 Y-0.1727 Z-0.1000 I0.9792 J-0.1727 F500.00
G2 X-0.1727 Y-0.9792 Z-0.1000 I-0.9792 J0.1727 F500.00
G2 X-0.9792 Y0.1727 Z-0.1000 I0.1727 J0.9792 F500.00
G2 X0.9792 Y-0.1727 Z-0.1000 I0.9792 J-0.1727 F500.00
G1 X0.9792 Y-0.1727 Z-0.1000 F100.00
G1 X1.9754 Y-0.2598 Z-0.1000 F500.00
G1 X1.9677 Y-0.3470 Z-0.1000 F500.00
G2 X-1.9677 Y0.3470 Z-0.1000 I-1.9677 J0.3470 F500.00
G2 X1.9754 Y-0.2598 Z-0.1000 I1.9654 J-0.3436 F500.00
G1 X0.9792 Y-0.1727 Z-0.1000 F500.00
G1 X0.9792 Y-0.1727 Z-0.3000 F100.00
G2 X-0.1727 Y-0.9792 Z-0.3000 I-0.9792 J0.1727 F500.00
G2 X-0.9792 Y0.1727 Z-0.3000 I0.1727 J0.9792 F500.00
G2 X0.9792 Y-0.1727 Z-0.3000 I0.9792 J-0.1727 F500.00
G2 X-0.1727 Y-0.9792 Z-0.3000 I-0.9792 J0.1727 F500.00
G2 X-0.9792 Y0.1727 Z-0.3000 I0.1727 J0.9792 F500.00
G2 X0.9792 Y-0.1727 Z-0.3000 I0.9792 J-0.1727 F500.00
G1 X0.9792 Y-0.1727 Z-0.3000 F100.00
G1 X1.9754 Y-0.2598 Z-0.3000 F500.00
G1 X1.9677 Y-0.3470 Z-0.3000 F500.00
G2 X-1.9677 Y0.3470 Z-0.3000 I-1.9677 J0.3470 F500.00
G2 X1.9754 Y-0.2598 Z-0.3000 I1.9654 J-0.3436 F500.00
G1 X0.9792 Y-0.1727 Z-0.3000 F500.00
G1 X0.9792 Y-0.1727 Z-0.5000 F100.00
G1 X1.9754 Y-0.2598 Z-0.5000 F500.00
G1 X1.9677 Y-0.3470 Z-0.5000 F500.00
G2 X-1.9677 Y0.3470 Z-0.5000 I-1.9677 J0.3470 F500.00
G2 X1.9754 Y-0.2598 Z-0.5000 I1.9654 J-0.3436 F500.00
G1 X0.9792 Y-0.1727 Z-0.5000 F500.00
G1 X0.9792 Y-0.1727 Z-0.5000 F100.00
G2 X-0.1727 Y-0.9792 Z-0.5000 I-0.9792 J0.1727 F500.00
G2 X-0.9792 Y0.1727 Z-0.5000 I0.1727 J0.9792 F500.00
G2 X0.9792 Y-0.1727 Z-0.5000 I0.9792 J-0.1727 F500.00
G2 X-0.1727 Y-0.9792 Z-0.5000 I-0.9792 J0.1727 F500.00
G2 X-0.9792 Y0.1727 Z-0.5000 I0.1727 J0.9792 F500.00
G2 X0.9792 Y-0.1727 Z-0.5000 I0.9792 J-0.1727 F500.00
G1 X0.9792 Y-0.1727 Z-0.7000 F100.00
G1 X1.9754 Y-0.2598 Z-0.7000 F500.00
G1 X1.9677 Y-0.3470 Z-0.7000 F500.00
G2 X-1.9677 Y0.3470 Z-0.7000 I-1.9677 J0.3470 F500.00
G2 X1.9754 Y-0.2598 Z-0.7000 I1.9654 J-0.3436 F500.00
G1 X0.9792 Y-0.1727 Z-0.7000 F500.00
G1 X0.9792 Y-0.1727 Z-0.7000 F100.00
G2 X-0.1727 Y-0.9792 Z-0.7000 I-0.9792 J0.1727 F500.00
G2 X-0.9792 Y0.1727 Z-0.7000 I0.1727 J0.9792 F500.00
G2 X0.9792 Y-0.1727 Z-0.7000 I0.9792 J-0.1727 F500.00
G2 X-0.1727 Y-0.9792 Z-0.7000 I-0.9792 J0.1727 F500.00
G2 X-0.9792 Y0.1727 Z-0.7000 I0.1727 J0.9792 F500.00
G2 X0.9792 Y-0.1727 Z-0.7000 I0.9792 J-0.1727 F500.00
G1 X0.9792 Y-0.1727 Z-0.9000 F100.00
G1 X1.9754 Y-0.2598 Z-0.9000 F500.00
G1 X1.9677 Y-0.3470 Z-0.9000 F500.00
G2 X-1.9677 Y0.3470 Z-0.9000 I-1.9677 J0.3470 F500.00
G2 X1.9754 Y-0.2598 Z-0.9000 I1.9654 J-0.3436 F500.00
G1 X0.9792 Y-0.1727 Z-0.9000 F500.00
G1 X0.9792 Y-0.1727 Z-0.9000 F100.00
G2 X-0.1727 Y-0.9792 Z-0.9000 I-0.9792 J0.1727 F500.00
G2 X-0.9792 Y0.1727 Z-0.9000 I0.1727 J0.9792 F500.00
G2 X0.9792 Y-0.1727 Z-0.9000 I0.9792 J-0.1727 F500.00
G2 X-0.1727 Y-0.9792 Z-0.9000 I-0.9792 J0.1727 F500.00
G2 X-0.9792 Y0.1727 Z-0.9000 I0.1727 J0.9792 F500.00
G2 X0.9792 Y-0.1727 Z-0.9000 I0.9792 J-0.1727 F500.00
G1 X0.9792 Y-0.1727 Z-1.1000 F100.00
G2 X-0.1727 Y-0.9792 Z-1.1000 I-0.9792 J0.1727 F500.00
G2 X-0.9792 Y0.1727 Z-1.1000 I0.1727 J0.9792 F500.00
G2 X0.9792 Y-0.1727 Z-1.1000 I0.9792 J-0.1727 F500.00
G2 X-0.1727 Y-0.9792 Z-1.1000 I-0.9792 J0.1727 F500.00
G2 X-0.9792 Y0.1727 Z-1.1000 I0.1727 J0.9792 F500.00
G2 X0.9792 Y-0.1727 Z-1.1000 I0.9792 J-0.1727 F500.00
G1 X0.9792 Y-0.1727 Z-1.1000 F100.00
G1 X1.9754 Y-0.2598 Z-1.1000 F500.00
G1 X1.9677 Y-0.3470 Z-1.1000 F500.00
G2 X-1.9677 Y0.3470 Z-1.1000 I-1.9677 J0.3470 F500.00
G2 X1.9754 Y-0.2598 Z-1.1000 I1.9654 J-0.3436 F500.00
G1 X0.9792 Y-0.1727 Z-1.1000 F500.00
G1 X0.9792 Y-0.1727 Z-1.3000 F100.00
G1 X1.9754 Y-0.2598 Z-1.3000 F500.00
G1 X1.9677 Y-0.3470 Z-1.3000 F500.00
G2 X-1.9677 Y0.3470 Z-1.3000 I-1.9677 J0.3470 F500.00
G2 X1.9754 Y-0.2598 Z-1.3000 I1.9654 J-0.3436 F500.00
G1 X0.9792 Y-0.1727 Z-1.3000 F500.00
G1 X0.9792 Y-0.1727 Z-1.3000 F100.00
G2 X-0.1727 Y-0.9792 Z-1.3000 I-0.9792 J0.1727 F500.00
G2 X-0.9792 Y0.1727 Z-1.3000 I0.1727 J0.9792 F500.00
G2 X0.9792 Y-0.1727 Z-1.3000 I0.9792 J-0.1727 F500.00
G2 X-0.1727 Y-0.9792 Z-1.3000 I-0.9792 J0.1727 F500.00
G2 X-0.9792 Y0.1727 Z-1.3000 I0.1727 J0.9792 F500.00
G2 X0.9792 Y-0.1727 Z-1.3000 I0.9792 J-0.1727 F500.00
G1 X0.9792 Y-0.1727 Z-1.5000 F100.00
G1 X1.9754 Y-0.2598 Z-1.5000 F500.00
G1 X1.9677 Y-0.3470 Z-1.5000 F500.00
G2 X-1.9677 Y0.3470 Z-1.5000 I-1.9677 J0.3470 F500.00
G2 X1.9754 Y-0.2598 Z-1.5000 I1.9654 J-0.3436 F500.00
G1 X0.9792 Y-0.1727 Z-1.5000 F500.00
G1 X0.9792 Y-0.1727 Z-1.5000 F100.00
G2 X-0.1727 Y-0.9792 Z-1.5000 I-0.9792 J0.1727 F500.00
G2 X-0.9792 Y0.1727 Z-1.5000 I0.1727 J0.9792 F500.00
G2 X0.9792 Y-0.1727 Z-1.5000 I0.9792 J-0.1727 F500.00
G2 X-0.1727 Y-0.9792 Z-1.5000 I-0.9792 J0.1727 F500.00
G2 X-0.9792 Y0.1727 Z-1.5000 I0.1727 J0.9792 F500.00
G2 X0.9792 Y-0.1727 Z-1.5000 I0.9792 J-0.1727 F500.00
G1 X0.9792 Y-0.1727 Z-1.7000 F100.00
G2 X-0.1727 Y-0.9792 Z-1.7000 I-0.9792 J0.1727 F500.00
G2 X-0.9792 Y0.1727 Z-1.7000 I0.1727 J0.9792 F500.00
G2 X0.9792 Y-0.1727 Z-1.7000 I0.9792 J-0.1727 F500.00
G2 X-0.1727 Y-0.9792 Z-1.7000 I-0.9792 J0.1727 F500.00
G2 X-0.9792 Y0.1727 Z-1.7000 I0.1727 J0.9792 F500.00
G2 X0.9792 Y-0.1727 Z-1.7000 I0.9792 J-0.1727 F500.00
G1 X0.9792 Y-0.1727 Z-1.7000 F100.00
G1 X1.9754 Y-0.2598 Z-1.7000 F500.00
G1 X1.9677 Y-0.3470 Z-1.7000 F500.00
G2 X-1.9677 Y0.3470 Z-1.7000 I-1.9677 J0.3470 F500.00
G2 X1.9754 Y-0.2598 Z-1.7000 I1.9654 J-0.3436 F500.00
G1 X0.9792 Y-0.1727 Z-1.7000 F500.00
G1 X0.9792 Y-0.1727 Z-1.9000 F100.00
G2 X-0.1727 Y-0.9792 Z-1.9000 I-0.9792 J0.1727 F500.00
G2 X-0.9792 Y0.1727 Z-1.9000 I0.1727 J0.9792 F500.00
G2 X0.9792 Y-0.1727 Z-1.9000 I0.9792 J-0.1727 F500.00
G2 X-0.1727 Y-0.9792 Z-1.9000 I-0.9792 J0.1727 F500.00
G2 X-0.9792 Y0.1727 Z-1.9000 I0.1727 J0.9792 F500.00
G2 X0.9792 Y-0.1727 Z-1.9000 I0.9792 J-0.1727 F500.00
G1 X0.9792 Y-0.1727 Z-1.9000 F100.00
G1 X1.9754 Y-0.2598 Z-1.9000 F500.00
G1 X1.9677 Y-0.3470 Z-1.9000 F500.00
G2 X-1.9677 Y0.3470 Z-1.9000 I-1.9677 J0.3470 F500.00
G2 X1.9754 Y-0.2598 Z-1.9000 I1.9654 J-0.3436 F500.00
G1 X0.9792 Y-0.1727 Z-1.9000 F500.00
G1 X0.9792 Y-0.1727 Z-2.1000 F100.00
G1 X1.9754 Y-0.2598 Z-2.1000 F500.00
G1 X1.9677 Y-0.3470 Z-2.1000 F500.00
G2 X-1.9677 Y0.3470 Z-2.1000 I-1.9677 J0.3470 F500.00
G2 X1.9754 Y-0.2598 Z-2.1000 I1.9654 J-0.3436 F500.00
G1 X0.9792 Y-0.1727 Z-2.1000 F500.00
G1 X0.9792 Y-0.1727 Z-2.1000 F100.00
G2 X-0.1727 Y-0.9792 Z-2.1000 I-0.9792 J0.1727 F500.00
G2 X-0.9792 Y0.1727 Z-2.1000 I0.1727 J0.9792 F500.00
G2 X0.9792 Y-0.1727 Z-2.1000 I0.9792 J-0.1727 F500.00
G2 X-0.1727 Y-0.9792 Z-2.1000 I-0.9792 J0.1727 F500.00
G2 X-0.9792 Y0.1727 Z-2.1000 I0.1727 J0.9792 F500.00
G2 X0.9792 Y-0.1727 Z-2.1000 I0.9792 J-0.1727 F500.00
G1 X0.9792 Y-0.1727 Z-2.3000 F100.00
G2 X-0.1727 Y-0.9792 Z-2.3000 I-0.9792 J0.1727 F500.00
G2 X-0.9792 Y0.1727 Z-2.3000 I0.1727 J0.9792 F500.00
G2 X0.9792 Y-0.1727 Z-2.3000 I0.9792 J-0.1727 F500.00
G2 X-0.1727 Y-0.9792 Z-2.3000 I-0.9792 J0.1727 F500.00
G2 X-0.9792 Y0.1727 Z-2.3000 I0.1727 J0.9792 F500.00
G2 X0.9792 Y-0.1727 Z-2.3000 I0.9792 J-0.1727 F500.00
G1 X0.9792 Y-0.1727 Z-2.3000 F100.00
G1 X1.9754 Y-0.2598 Z-2.3000 F500.00
G1 X1.9677 Y-0.3470 Z-2.3000 F500.00
G2 X-1.9677 Y0.3470 Z-2.3000 I-1.9677 J0.3470 F500.00
G2 X1.9754 Y-0.2598 Z-2.3000 I1.9654 J-0.3436 F500.00
G1 X0.9792 Y-0.1727 Z-2.3000 F500.00
G1 X0.9792 Y-0.1727 Z-2.5000 F100.00
G1 X1.9754 Y-0.2598 Z-2.5000 F500.00
G1 X1.9677 Y-0.3470 Z-2.5000 F500.00
G2 X-1.9677 Y0.3470 Z-2.5000 I-1.9677 J0.3470 F500.00
G2 X1.9754 Y-0.2598 Z-2.5000 I1.9654 J-0.3436 F500.00
G1 X0.9792 Y-0.1727 Z-2.5000 F500.00
G1 X0.9792 Y-0.1727 Z-2.5000 F100.00
G2 X-0.1727 Y-0.9792 Z-2.5000 I-0.9792 J0.1727 F500.00
G2 X-0.9792 Y0.1727 Z-2.5000 I0.1727 J0.9792 F500.00
G2 X0.9792 Y-0.1727 Z-2.5000 I0.9792 J-0.1727 F500.00
G2 X-0.1727 Y-0.9792 Z-2.5000 I-0.9792 J0.1727 F500.00
G2 X-0.9792 Y0.1727 Z-2.5000 I0.1727 J0.9792 F500.00
G2 X0.9792 Y-0.1727 Z-2.5000 I0.9792 J-0.1727 F500.00
G1 X0.9792 Y-0.1727 Z-2.7000 F100.00
G1 X1.9754 Y-0.2598 Z-2.7000 F500.00
G1 X1.9677 Y-0.3470 Z-2.7000 F500.00
G2 X-1.9677 Y0.3470 Z-2.7000 I-1.9677 J0.3470 F500.00
G2 X1.9754 Y-0.2598 Z-2.7000 I1.9654 J-0.3436 F500.00
G1 X0.9792 Y-0.1727 Z-2.7000 F500.00
G1 X0.9792 Y-0.1727 Z-2.7000 F100.00
G2 X-0.1727 Y-0.9792 Z-2.7000 I-0.9792 J0.1727 F500.00
G2 X-0.9792 Y0.1727 Z-2.7000 I0.1727 J0.9792 F500.00
G2 X0.9792 Y-0.1727 Z-2.7000 I0.9792 J-0.1727 F500.00
G2 X-0.1727 Y-0.9792 Z-2.7000 I-0.9792 J0.1727 F500.00
G2 X-0.9792 Y0.1727 Z-2.7000 I0.1727 J0.9792 F500.00
G2 X0.9792 Y-0.1727 Z-2.7000 I0.9792 J-0.1727 F500.00
G1 X0.9792 Y-0.1727 Z-2.9000 F100.00
G2 X-0.1727 Y-0.9792 Z-2.9000 I-0.9792 J0.1727 F500.00
G2 X-0.9792 Y0.1727 Z-2.9000 I0.1727 J0.9792 F500.00
G2 X0.9792 Y-0.1727 Z-2.9000 I0.9792 J-0.1727 F500.00
G2 X-0.1727 Y-0.9792 Z-2.9000 I-0.9792 J0.1727 F500.00
G2 X-0.9792 Y0.1727 Z-2.9000 I0.1727 J0.9792 F500.00
G2 X0.9792 Y-0.1727 Z-2.9000 I0.9792 J-0.1727 F500.00
G1 X0.9792 Y-0.1727 Z-2.9000 F100.00
G1 X1.9754 Y-0.2598 Z-2.9000 F500.00
G1 X1.9677 Y-0.3470 Z-2.9000 F500.00
G2 X-1.9677 Y0.3470 Z-2.9000 I-1.9677 J0.3470 F500.00
G2 X1.9754 Y-0.2598 Z-2.9000 I1.9654 J-0.3436 F500.00
G1 X0.9792 Y-0.1727 Z-2.9000 F500.00
G1 X0.9792 Y-0.1727 Z-3.1000 F100.00
G1 X1.9754 Y-0.2598 Z-3.1000 F500.00
G1 X1.9677 Y-0.3470 Z-3.1000 F500.00
G2 X-1.9677 Y0.3470 Z-3.1000 I-1.9677 J0.3470 F500.00
G2 X1.9754 Y-0.2598 Z-3.1000 I1.9654 J-0.3436 F500.00
G1 X0.9792 Y-0.1727 Z-3.1000 F500.00
G1 X0.9792 Y-0.1727 Z-3.1000 F100.00
G2 X-0.1727 Y-0.9792 Z-3.1000 I-0.9792 J0.1727 F500.00
G2 X-0.9792 Y0.1727 Z-3.1000 I0.1727 J0.9792 F500.00
G2 X0.9792 Y-0.1727 Z-3.1000 I0.9792 J-0.1727 F500.00
G2 X-0.1727 Y-0.9792 Z-3.1000 I-0.9792 J0.1727 F500.00
G2 X-0.9792 Y0.1727 Z-3.1000 I0.1727 J0.9792 F500.00
G2 X0.9792 Y-0.1727 Z-3.1000 I0.9792 J-0.1727 F500.00
G1 X0.9792 Y-0.1727 Z-3.3000 F100.00
G2 X-0.1727 Y-0.9792 Z-3.3000 I-0.9792 J0.1727 F500.00
G2 X-0.9792 Y0.1727 Z-3.3000 I0.1727 J0.9792 F500.00
G2 X0.9792 Y-0.1727 Z-3.3000 I0.9792 J-0.1727 F500.00
G2 X-0.1727 Y-0.9792 Z-3.3000 I-0.9792 J0.1727 F500.00
G2 X-0.9792 Y0.1727 Z-3.3000 I0.1727 J0.9792 F500.00
G2 X0.9792 Y-0.1727 Z-3.3000 I0.9792 J-0.1727 F500.00
G1 X0.9792 Y-0.1727 Z-3.3000 F100.00
G1 X1.9754 Y-0.2598 Z-3.3000 F500.00
G1 X1.9677 Y-0.3470 Z-3.3000 F500.00
G2 X-1.9677 Y0.3470 Z-3.3000 I-1.9677 J0.3470 F500.00
G2 X1.9754 Y-0.2598 Z-3.3000 I1.9654 J-0.3436 F500.00
G1 X0.9792 Y-0.1727 Z-3.3000 F500.00
G1 X0.9792 Y-0.1727 Z-3.5000 F100.00
G2 X-0.1727 Y-0.9792 Z-3.5000 I-0.9792 J0.1727 F500.00
G2 X-0.9792 Y0.1727 Z-3.5000 I0.1727 J0.9792 F500.00
G2 X0.9792 Y-0.1727 Z-3.5000 I0.9792 J-0.1727 F500.00
G2 X-0.1727 Y-0.9792 Z-3.5000 I-0.9792 J0.1727 F500.00
G2 X-0.9792 Y0.1727 Z-3.5000 I0.1727 J0.9792 F500.00
G2 X0.9792 Y-0.1727 Z-3.5000 I0.9792 J-0.1727 F500.00
G1 X0.9792 Y-0.1727 Z-3.5000 F100.00
G1 X1.9754 Y-0.2598 Z-3.5000 F500.00
G1 X1.9677 Y-0.3470 Z-3.5000 F500.00
G2 X-1.9677 Y0.3470 Z-3.5000 I-1.9677 J0.3470 F500.00
G2 X1.9754 Y-0.2598 Z-3.5000 I1.9654 J-0.3436 F500.00
G1 X0.9792 Y-0.1727 Z-3.5000 F500.00
G1 X0.9792 Y-0.1727 Z-3.7000 F100.00
G1 X1.9754 Y-0.2598 Z-3.7000 F500.00
G1 X1.9677 Y-0.3470 Z-3.7000 F500.00
G2 X-1.9677 Y0.3470 Z-3.7000 I-1.9677 J0.3470 F500.00
G2 X1.9754 Y-0.2598 Z-3.7000 I1.9654 J-0.3436 F500.00
G1 X0.9792 Y-0.1727 Z-3.7000 F500.00
G1 X0.9792 Y-0.1727 Z-3.7000 F100.00
G2 X-0.1727 Y-0.9792 Z-3.7000 I-0.9792 J0.1727 F500.00
G2 X-0.9792 Y0.1727 Z-3.7000 I0.1727 J0.9792 F500.00
G2 X0.9792 Y-0.1727 Z-3.7000 I0.9792 J-0.1727 F500.00
G2 X-0.1727 Y-0.9792 Z-3.7000 I-0.9792 J0.1727 F500.00
G2 X-0.9792 Y0.1727 Z-3.7000 I0.1727 J0.9792 F500.00
G2 X0.9792 Y-0.1727 Z-3.7000 I0.9792 J-0.1727 F500.00
G1 X0.9792 Y-0.1727 Z-3.9000 F100.00
G1 X1.9754 Y-0.2598 Z-3.9000 F500.00
G1 X1.9677 Y-0.3470 Z-3.9000 F500.00
G2 X-1.9677 Y0.3470 Z-3.9000 I-1.9677 J0.3470 F500.00
G2 X1.9754 Y-0.2598 Z-3.9000 I1.9654 J-0.3436 F500.00
G1 X0.9792 Y-0.1727 Z-3.9000 F500.00
G1 X0.9792 Y-0.1727 Z-3.9000 F100.00
G2 X-0.1727 Y-0.9792 Z-3.9000 I-0.9792 J0.1727 F500.00
G2 X-0.9792 Y0.1727 Z-3.9000 I0.1727 J0.9792 F500.00
G2 X0.9792 Y-0.1727 Z-3.9000 I0.9792 J-0.1727 F500.00
G2 X-0.1727 Y-0.9792 Z-3.9000 I-0.9792 J0.1727 F500.00
G2 X-0.9792 Y0.1727 Z-3.9000 I0.1727 J0.9792 F500.00
G2 X0.9792 Y-0.1727 Z-3.9000 I0.9792 J-0.1727 F500.00
G1 X0.9792 Y-0.1727 Z-4.1000 F100.00
G2 X-0.1727 Y-0.9792 Z-4.1000 I-0.9792 J0.1727 F500.00
G2 X-0.9792 Y0.1727 Z-4.1000 I0.1727 J0.9792 F500.00
G2 X0.9792 Y-0.1727 Z-4.1000 I0.9792 J-0.1727 F500.00
G2 X-0.1727 Y-0.9792 Z-4.1000 I-0.9792 J0.1727 F500.00
G2 X-0.9792 Y0.1727 Z-4.1000 I0.1727 J0.9792 F500.00
G2 X0.9792 Y-0.1727 Z-4.1000 I0.9792 J-0.1727 F500.00
G1 X0.9792 Y-0.1727 Z-4.1000 F100.00
G1 X1.9754 Y-0.2598 Z-4.1000 F500.00
G1 X1.9677 Y-0.3470 Z-4.1000 F500.00
G2 X-1.9677 Y0.3470 Z-4.1000 I-1.9677 J0.3470 F500.00
G2 X1.9754 Y-0.2598 Z-4.1000 I1.9654 J-0.3436 F500.00
G1 X0.9792 Y-0.1727 Z-4.1000 F500.00
G1 X0.9792 Y-0.1727 Z-4.3000 F100.00
G2 X-0.1727 Y-0.9792 Z-4.3000 I-0.9792 J0.1727 F500.00
G2 X-0.9792 Y0.1727 Z-4.3000 I0.1727 J0.9792 F500.00
G2 X0.9792 Y-0.1727 Z-4.3000 I0.9792 J-0.1727 F500.00
G2 X-0.1727 Y-0.9792 Z-4.3000 I-0.9792 J0.1727 F500.00
G2 X-0.9792 Y0.1727 Z-4.3000 I0.1727 J0.9792 F500.00
G2 X0.9792 Y-0.1727 Z-4.3000 I0.9792 J-0.1727 F500.00
G1 X0.9792 Y-0.1727 Z-4.3000 F100.00
G1 X1.9754 Y-0.2598 Z-4.3000 F500.00
G1 X1.9677 Y-0.3470 Z-4.3000 F500.00
G2 X-1.9677 Y0.3470 Z-4.3000 I-1.9677 J0.3470 F500.00
G2 X1.9754 Y-0.2598 Z-4.3000 I1.9654 J-0.3436 F500.00
G1 X0.9792 Y-0.1727 Z-4.3000 F500.00
G1 X0.9792 Y-0.1727 Z-4.5000 F100.00
G1 X1.9754 Y-0.2598 Z-4.5000 F500.00
G1 X1.9677 Y-0.3470 Z-4.5000 F500.00
G2 X-1.9677 Y0.3470 Z-4.5000 I-1.9677 J0.3470 F500.00
G2 X1.9754 Y-0.2598 Z-4.5000 I1.9654 J-0.3436 F500.00
G1 X0.9792 Y-0.1727 Z-4.5000 F500.00
G1 X0.9792 Y-0.1727 Z-4.5000 F100.00
G2 X-0.1727 Y-0.9792 Z-4.5000 I-0.9792 J0.1727 F500.00
G2 X-0.9792 Y0.1727 Z-4.5000 I0.1727 J0.9792 F500.00
G2 X0.9792 Y-0.1727 Z-4.5000 I0.9792 J-0.1727 F500.00
G2 X-0.1727 Y-0.9792 Z-4.5000 I-0.9792 J0.1727 F500.00
G2 X-0.9792 Y0.1727 Z-4.5000 I0.1727 J0.9792 F500.00
G2 X0.9792 Y-0.1727 Z-4.5000 I0.9792 J-0.1727 F500.00
G1 X0.9792 Y-0.1727 Z-4.7000 F100.00
G2 X-0.1727 Y-0.9792 Z-4.7000 I-0.9792 J0.1727 F500.00
G2 X-0.9792 Y0.1727 Z-4.7000 I0.1727 J0.9792 F500.00
G2 X0.9792 Y-0.1727 Z-4.7000 I0.9792 J-0.1727 F500.00
G2 X-0.1727 Y-0.9792 Z-4.7000 I-0.9792 J0.1727 F500.00
G2 X-0.9792 Y0.1727 Z-4.7000 I0.1727 J0.9792 F500.00
G2 X0.9792 Y-0.1727 Z-4.7000 I0.9792 J-0.1727 F500.00
G1 X0.9792 Y-0.1727 Z-4.7000 F100.00
G1 X1.9754 Y-0.2598 Z-4.7000 F500.00
G1 X1.9677 Y-0.3470 Z-4.7000 F500.00
G2 X-1.9677 Y0.3470 Z-4.7000 I-1.9677 J0.3470 F500.00
G2 X1.9754 Y-0.2598 Z-4.7000 I1.9654 J-0.3436 F500.00
G1 X0.9792 Y-0.1727 Z-4.7000 F500.00
G1 X0.9792 Y-0.1727 Z-4.9000 F100.00
G2 X-0.1727 Y-0.9792 Z-4.9000 I-0.9792 J0.1727 F500.00
G2 X-0.9792 Y0.1727 Z-4.9000 I0.1727 J0.9792 F500.00
G2 X0.9792 Y-0.1727 Z-4.9000 I0.9792 J-0.1727 F500.00
G2 X-0.1727 Y-0.9792 Z-4.9000 I-0.9792 J0.1727 F500.00
G2 X-0.9792 Y0.1727 Z-4.9000 I0.1727 J0.9792 F500.00
G2 X0.9792 Y-0.1727 Z-4.9000 I0.9792 J-0.1727 F500.00
G1 X0.9792 Y-0.1727 Z-4.9000 F100.00
G1 X1.9754 Y-0.2598 Z-4.9000 F500.00
G1 X1.9677 Y-0.3470 Z-4.9000 F500.00
G2 X-1.9677 Y0.3470 Z-4.9000 I-1.9677 J0.3470 F500.00
G2 X1.9754 Y-0.2598 Z-4.9000 I1.9654 J-0.3436 F500.00
G1 X0.9792 Y-0.1727 Z-4.9000 F500.00
G1 X0.9792 Y-0.1727 Z-5.1000 F100.00
G2 X-0.1727 Y-0.9792 Z-5.1000 I-0.9792 J0.1727 F500.00
G2 X-0.9792 Y0.1727 Z-5.1000 I0.1727 J0.9792 F500.00
G2 X0.9792 Y-0.1727 Z-5.1000 I0.9792 J-0.1727 F500.00
G2 X-0.1727 Y-0.9792 Z-5.1000 I-0.9792 J0.1727 F500.00
G2 X-0.9792 Y0.1727 Z-5.1000 I0.1727 J0.9792 F500.00
G2 X0.9792 Y-0.1727 Z-5.1000 I0.9792 J-0.1727 F500.00
G1 X0.9792 Y-0.1727 Z-5.1000 F100.00
G1 X1.9754 Y-0.2598 Z-5.1000 F500.00
G1 X1.9677 Y-0.3470 Z-5.1000 F500.00
G2 X-1.9677 Y0.3470 Z-5.1000 I-1.9677 J0.3470 F500.00
G2 X1.9754 Y-0.2598 Z-5.1000 I1.9654 J-0.3436 F500.00
G1 X0.9792 Y-0.1727 Z-5.1000 F500.00
G1 X0.9792 Y-0.1727 Z-5.3000 F100.00
G1 X1.9754 Y-0.2598 Z-5.3000 F500.00
G1 X1.9677 Y-0.3470 Z-5.3000 F500.00
G2 X-1.9677 Y0.3470 Z-5.3000 I-1.9677 J0.3470 F500.00
G2 X1.9754 Y-0.2598 Z-5.3000 I1.9654 J-0.3436 F500.00
G1 X0.9792 Y-0.1727 Z-5.3000 F500.00
G1 X0.9792 Y-0.1727 Z-5.3000 F100.00
G2 X-0.1727 Y-0.9792 Z-5.3000 I-0.9792 J0.1727 F500.00
G2 X-0.9792 Y0.1727 Z-5.3000 I0.1727 J0.9792 F500.00
G2 X0.9792 Y-0.1727 Z-5.3000 I0.9792 J-0.1727 F500.00
G2 X-0.1727 Y-0.9792 Z-5.3000 I-0.9792 J0.1727 F500.00
G2 X-0.9792 Y0.1727 Z-5.3000 I0.1727 J0.9792 F500.00
G2 X0.9792 Y-0.1727 Z-5.3000 I0.9792 J-0.1727 F500.00
G1 X0.9792 Y-0.1727 Z-5.5000 F100.00
G2 X-0.1727 Y-0.9792 Z-5.5000 I-0.9792 J0.1727 F500.00
G2 X-0.9792 Y0.1727 Z-5.5000 I0.1727 J0.9792 F500.00
G2 X0.9792 Y-0.1727 Z-5.5000 I0.9792 J-0.1727 F500.00
G2 X-0.1727 Y-0.9792 Z-5.5000 I-0.9792 J0.1727 F500.00
G2 X-0.9792 Y0.1727 Z-5.5000 I0.1727 J0.9792 F500.00
G2 X0.9792 Y-0.1727 Z-5.5000 I0.9792 J-0.1727 F500.00
G1 X0.9792 Y-0.1727 Z-5.5000 F100.00
G1 X1.9754 Y-0.2598 Z-5.5000 F500.00
G1 X1.9677 Y-0.3470 Z-5.5000 F500.00
G2 X-1.9677 Y0.3470 Z-5.5000 I-1.9677 J0.3470 F500.00
G2 X1.9754 Y-0.2598 Z-5.5000 I1.9654 J-0.3436 F500.00
G1 X0.9792 Y-0.1727 Z-5.5000 F500.00
G1 X0.9792 Y-0.1727 Z-5.7000 F100.00
G1 X1.9754 Y-0.2598 Z-5.7000 F500.00
G1 X1.9677 Y-0.3470 Z-5.7000 F500.00
G2 X-1.9677 Y0.3470 Z-5.7000 I-1.9677 J0.3470 F500.00
G2 X1.9754 Y-0.2598 Z-5.7000 I1.9654 J-0.3436 F500.00
G1 X0.9792 Y-0.1727 Z-5.7000 F500.00
G1 X0.9792 Y-0.1727 Z-5.7000 F100.00
G2 X-0.1727 Y-0.9792 Z-5.7000 I-0.9792 J0.1727 F500.00
G2 X-0.9792 Y0.1727 Z-5.7000 I0.1727 J0.9792 F500.00
G2 X0.9792 Y-0.1727 Z-5.7000 I0.9792 J-0.1727 F500.00
G2 X-0.1727 Y-0.9792 Z-5.7000 I-0.9792 J0.1727 F500.00
G2 X-0.9792 Y0.1727 Z-5.7000 I0.1727 J0.9792 F500.00
G2 X0.9792 Y-0.1727 Z-5.7000 I0.9792 J-0.1727 F500.00
G1 X0.9792 Y-0.1727 Z-5.9000 F100.00
G1 X1.9754 Y-0.2598 Z-5.9000 F500.00
G1 X1.9677 Y-0.3470 Z-5.9000 F500.00
G2 X-1.9677 Y0.3470 Z-5.9000 I-1.9677 J0.3470 F500.00
G2 X1.9754 Y-0.2598 Z-5.9000 I1.9654 J-0.3436 F500.00
G1 X0.9792 Y-0.1727 Z-5.9000 F500.00
G1 X0.9792 Y-0.1727 Z-5.9000 F100.00
G2 X-0.1727 Y-0.9792 Z-5.9000 I-0.9792 J0.1727 F500.00
G2 X-0.9792 Y0.1727 Z-5.9000 I0.1727 J0.9792 F500.00
G2 X0.9792 Y-0.1727 Z-5.9000 I0.9792 J-0.1727 F500.00
G2 X-0.1727 Y-0.9792 Z-5.9000 I-0.9792 J0.1727 F500.00
G2 X-0.9792 Y0.1727 Z-5.9000 I0.1727 J0.9792 F500.00
G2 X0.9792 Y-0.1727 Z-5.9000 I0.9792 J-0.1727 F500.00
G1 X0.9792 Y-0.1727 Z-6.1000 F100.00
G1 X1.9754 Y-0.2598 Z-6.1000 F500.00
G1 X1.9677 Y-0.3470 Z-6.1000 F500.00
G2 X-1.9677 Y0.3470 Z-6.1000 I-1.9677 J0.3470 F500.00
G2 X1.9754 Y-0.2598 Z-6.1000 I1.9654 J-0.3436 F500.00
G1 X0.9792 Y-0.1727 Z-6.1000 F500.00
G1 X0.9792 Y-0.1727 Z-6.1000 F100.00
G2 X-0.1727 Y-0.9792 Z-6.1000 I-0.9792 J0.1727 F500.00
G2 X-0.9792 Y0.1727 Z-6.1000 I0.1727 J0.9792 F500.00
G2 X0.9792 Y-0.1727 Z-6.1000 I0.9792 J-0.1727 F500.00
G2 X-0.1727 Y-0.9792 Z-6.1000 I-0.9792 J0.1727 F500.00
G2 X-0.9792 Y0.1727 Z-6.1000 I0.1727 J0.9792 F500.00
G2 X0.9792 Y-0.1727 Z-6.1000 I0.9792 J-0.1727 F500.00
G1 X0.9792 Y-0.1727 Z-6.3000 F100.00
G1 X1.9754 Y-0.2598 Z-6.3000 F500.00
G1 X1.9677 Y-0.3470 Z-6.3000 F500.00
G2 X-1.9677 Y0.3470 Z-6.3000 I-1.9677 J0.3470 F500.00
G2 X1.9754 Y-0.2598 Z-6.3000 I1.9654 J-0.3436 F500.00
G1 X0.9792 Y-0.1727 Z-6.3000 F500.00
G1 X0.9792 Y-0.1727 Z-6.3000 F100.00
G2 X-0.1727 Y-0.9792 Z-6.3000 I-0.9792 J0.1727 F500.00
G2 X-0.9792 Y0.1727 Z-6.3000 I0.1727 J0.9792 F500.00
G2 X0.9792 Y-0.1727 Z-6.3000 I0.9792 J-0.1727 F500.00
G2 X-0.1727 Y-0.9792 Z-6.3000 I-0.9792 J0.1727 F500.00
G2 X-0.9792 Y0.1727 Z-6.3000 I0.1727 J0.9792 F500.00
G2 X0.9792 Y-0.1727 Z-6.3000 I0.9792 J-0.1727 F500.00
G1 X0.9792 Y-0.1727 Z-6.5000 F100.00
G1 X1.9754 Y-0.2598 Z-6.5000 F500.00
G1 X1.9677 Y-0.3470 Z-6.5000 F500.00
G2 X-1.9677 Y0.3470 Z-6.5000 I-1.9677 J0.3470 F500.00
G2 X1.9754 Y-0.2598 Z-6.5000 I1.9654 J-0.3436 F500.00
G1 X0.9792 Y-0.1727 Z-6.5000 F500.00
G1 X0.9792 Y-0.1727 Z-6.5000 F100.00
G2 X-0.1727 Y-0.9792 Z-6.5000 I-0.9792 J0.1727 F500.00
G2 X-0.9792 Y0.1727 Z-6.5000 I0.1727 J0.9792 F500.00
G2 X0.9792 Y-0.1727 Z-6.5000 I0.9792 J-0.1727 F500.00
G2 X-0.1727 Y-0.9792 Z-6.5000 I-0.9792 J0.1727 F500.00
G2 X-0.9792 Y0.1727 Z-6.5000 I0.1727 J0.9792 F500.00
G2 X0.9792 Y-0.1727 Z-6.5000 I0.9792 J-0.1727 F500.00
G0 Z6.5000
(finish operation: Pocket_Shape)
(begin postamble)
M5
G17 G90
; M2
