(Exported by FreeCAD)
(Post Processor: grbl_post)
(Output Time:2019-08-13 20:32:00.333401)
(begin preamble)
G17 G90
G21
(begin operation: T2: end mill 3mm)
(Path: T2: end mill 3mm)
(T2: end mill 3mm)
(begin toolchange)
; M6 T2
M3 S10000.0000
(finish operation: T2: end mill 3mm)
(begin operation: MillFace)
(Path: MillFace)
(MillFace)
G0 Z5.0000
G0 X97.7264 Y58.7184
G0 Z3.0000
G1 X97.7264 Y58.7184 Z-0.5000 F300.00
G3 X100.3602 Y63.4735 Z-0.5000 I-5.7124 J6.2710 F1000.00
G1 X93.5265 Y56.6398 Z-0.5000 F1000.00
G2 X91.2653 Y56.5000 Z-0.5000 I-1.8938 J12.2755 F1000.00
G1 X100.5000 Y65.7347 Z-0.5000 F1000.00
G1 X100.5000 Y67.8560 Z-0.5000 F1000.00
G1 X89.1440 Y56.5000 Z-0.5000 F1000.00
G1 X87.0227 Y56.5000 Z-0.5000 F1000.00
G1 X100.5000 Y69.9773 Z-0.5000 F1000.00
G3 X100.4637 Y71.7843 Z-0.5000 I-19.5604 J0.5114 F1000.00
G1 X100.4297 Y72.0283 Z-0.5000 F1000.00
G1 X84.9014 Y56.5000 Z-0.5000 F1000.00
G1 X82.7801 Y56.5000 Z-0.5000 F1000.00
G1 X100.0326 Y73.7525 Z-0.5000 F1000.00
G3 X99.3723 Y75.2135 Z-0.5000 I-6.3861 J-2.0065 F1000.00
G1 X80.6587 Y56.5000 Z-0.5000 F1000.00
G1 X78.5374 Y56.5000 Z-0.5000 F1000.00
G1 X98.5004 Y76.4629 Z-0.5000 F1000.00
G3 X97.4375 Y77.5214 Z-0.5000 I-4.9040 J-3.8611 F1000.00
G1 X76.4161 Y56.5000 Z-0.5000 F1000.00
G1 X76.1172 Y56.5000 Z-0.5000 F1000.00
G1 X75.9666 Y56.0505 Z-0.5000 F1000.00
G1 X70.9495 Y51.0334 Z-0.5000 F1000.00
G2 X68.3091 Y50.5143 Z-0.5000 I-2.8381 J7.4610 F1000.00
G1 X96.1837 Y78.3889 Z-0.5000 F1000.00
G3 X94.7177 Y79.0443 Z-0.5000 I-3.3166 J-5.4517 F1000.00
G1 X65.0172 Y49.3437 Z-0.5000 F1000.00
G1 X57.9903 Y44.4382 Z-0.5000 F1000.00
G1 X92.9875 Y79.4354 Z-0.5000 F1000.00
G3 X90.9308 Y79.5000 Z-0.5000 I-1.5221 J-15.6851 F1000.00
G1 X50.9635 Y39.5326 Z-0.5000 F1000.00
G1 X43.9366 Y34.6271 Z-0.5000 F1000.00
G1 X88.8095 Y79.5000 Z-0.5000 F1000.00
G1 X86.6882 Y79.5000 Z-0.5000 F1000.00
G1 X36.9097 Y29.7215 Z-0.5000 F1000.00
G1 X29.8828 Y24.8160 Z-0.5000 F1000.00
G1 X84.5669 Y79.5000 Z-0.5000 F1000.00
G1 X82.4455 Y79.5000 Z-0.5000 F1000.00
G1 X22.8560 Y19.9104 Z-0.5000 F1000.00
G1 X19.5000 Y17.5676 Z-0.5000 F1000.00
G1 X19.5000 Y16.5545 Z-0.5000 F1000.00
G1 X-3.3505 Y-6.2960 Z-0.5000 F1000.00
G2 X-4.5794 Y-5.4036 Z-0.5000 I3.5571 J6.1911 F1000.00
G1 X80.3242 Y79.5000 Z-0.5000 F1000.00
G1 X78.2029 Y79.5000 Z-0.5000 F1000.00
G1 X-5.6182 Y-4.3211 Z-0.5000 F1000.00
G2 X-6.4652 Y-3.0468 Z-0.5000 I5.0801 J4.2953 F1000.00
G1 X76.0816 Y79.5000 Z-0.5000 F1000.00
G1 X73.9603 Y79.5000 Z-0.5000 F1000.00
G1 X-7.0978 Y-1.5580 Z-0.5000 F1000.00
G2 X-7.4615 Y0.1996 Z-0.5000 I7.4709 J2.4624 F1000.00
G1 X71.8389 Y79.5000 Z-0.5000 F1000.00
G1 X69.7176 Y79.5000 Z-0.5000 F1000.00
G1 X-7.5000 Y2.2824 Z-0.5000 F1000.00
G1 X-7.5000 Y4.4037 Z-0.5000 F1000.00
G1 X67.5963 Y79.5000 Z-0.5000 F1000.00
G1 X65.4750 Y79.5000 Z-0.5000 F1000.00
G1 X-7.5000 Y6.5250 Z-0.5000 F1000.00
G1 X-7.5000 Y8.6463 Z-0.5000 F1000.00
G1 X63.3242 Y79.4706 Z-0.5000 F1000.00
G3 X60.4565 Y78.7242 Z-0.5000 I0.6389 J-8.3368 F1000.00
G1 X-7.5000 Y10.7677 Z-0.5000 F1000.00
G1 X-7.5000 Y12.8890 Z-0.5000 F1000.00
G1 X53.9876 Y74.3766 Z-0.5000 F1000.00
G1 X46.9608 Y69.4711 Z-0.5000 F1000.00
G1 X-7.5000 Y15.0103 Z-0.5000 F1000.00
G1 X-7.5000 Y17.1316 Z-0.5000 F1000.00
G1 X39.9339 Y64.5655 Z-0.5000 F1000.00
G1 X32.9070 Y59.6600 Z-0.5000 F1000.00
G1 X-7.5000 Y19.2529 Z-0.5000 F1000.00
G1 X-7.5000 Y21.3743 Z-0.5000 F1000.00
G1 X25.8802 Y54.7544 Z-0.5000 F1000.00
G1 X18.8533 Y49.8489 Z-0.5000 F1000.00
G1 X-7.5000 Y23.4956 Z-0.5000 F1000.00
G1 X-7.5000 Y25.6169 Z-0.5000 F1000.00
G1 X11.8264 Y44.9433 Z-0.5000 F1000.00
G1 X4.7995 Y40.0378 Z-0.5000 F1000.00
G1 X-7.4636 Y27.7746 Z-0.5000 F1000.00
G2 X-6.6452 Y30.7143 Z-0.5000 I8.1210 J-0.6771 F1000.00
G2 X-4.5121 Y33.4893 Z-0.5000 I7.4091 J-3.4880 F1000.00
G2 X-2.2273 Y35.1322 Z-0.5000 I18.2189 J-22.9269 F1000.00
G1 X-6.6452 Y30.7143 Z-0.5000 F1000.00
G0 X-6.6452 Y30.7143 Z5.0000
G0 X-3.3505 Y-6.2960 Z5.0000
G0 X-3.3505 Y-6.2960 Z2.5000
G1 X-3.3505 Y-6.2960 Z-0.5000 F300.00
G1 X19.5000 Y16.5545 Z-0.5000 F1000.00
G1 X19.5000 Y14.4331 Z-0.5000 F1000.00
G1 X-1.9122 Y-6.9791 Z-0.5000 F1000.00
G3 X-0.2154 Y-7.4036 Z-0.5000 I2.5959 J6.7727 F1000.00
G1 X19.5000 Y12.3118 Z-0.5000 F1000.00
G1 X19.5000 Y10.1905 Z-0.5000 F1000.00
G1 X1.8095 Y-7.5000 Z-0.5000 F1000.00
G1 X3.9308 Y-7.5000 Z-0.5000 F1000.00
G1 X19.5000 Y8.0692 Z-0.5000 F1000.00
G1 X19.5000 Y5.9479 Z-0.5000 F1000.00
G1 X6.0521 Y-7.5000 Z-0.5000 F1000.00
G1 X8.1735 Y-7.5000 Z-0.5000 F1000.00
G1 X19.5000 Y3.8265 Z-0.5000 F1000.00
G1 X19.5000 Y1.7052 Z-0.5000 F1000.00
G1 X10.2948 Y-7.5000 Z-0.5000 F1000.00
G3 X12.5607 Y-7.3554 Z-0.5000 I0.3526 J12.3034 F1000.00
G1 X19.3554 Y-0.5607 Z-0.5000 F1000.00
G2 X12.5607 Y-7.3554 Z-0.5000 I-8.3552 J1.5604 F1000.00
G0 X12.5607 Y-7.3554 Z5.0000
G0 X70.9495 Y51.0334 Z5.0000
G0 X70.9495 Y51.0334 Z2.5000
G1 X70.9495 Y51.0334 Z-0.5000 F300.00
G1 X75.9666 Y56.0505 Z-0.5000 F1000.00
G2 X70.9495 Y51.0334 Z-0.5000 I-7.9281 J2.9111 F1000.00
G1 X70.9495 Y51.0334 Z-1.0000 F300.00
G1 X75.9666 Y56.0505 Z-1.0000 F1000.00
G2 X70.9495 Y51.0334 Z-1.0000 I-7.9281 J2.9111 F1000.00
G0 X70.9495 Y51.0334 Z5.0000
G0 X97.7264 Y58.7184 Z5.0000
G0 X97.7264 Y58.7184 Z2.0000
G1 X97.7264 Y58.7184 Z-1.0000 F300.00
G3 X100.3602 Y63.4735 Z-1.0000 I-5.7124 J6.2710 F1000.00
G1 X93.5265 Y56.6398 Z-1.0000 F1000.00
G2 X91.2653 Y56.5000 Z-1.0000 I-1.8938 J12.2755 F1000.00
G1 X100.5000 Y65.7347 Z-1.0000 F1000.00
G1 X100.5000 Y67.8560 Z-1.0000 F1000.00
G1 X89.1440 Y56.5000 Z-1.0000 F1000.00
G1 X87.0227 Y56.5000 Z-1.0000 F1000.00
G1 X100.5000 Y69.9773 Z-1.0000 F1000.00
G3 X100.4637 Y71.7843 Z-1.0000 I-19.5604 J0.5114 F1000.00
G1 X100.4297 Y72.0283 Z-1.0000 F1000.00
G1 X84.9014 Y56.5000 Z-1.0000 F1000.00
G1 X82.7801 Y56.5000 Z-1.0000 F1000.00
G1 X100.0326 Y73.7525 Z-1.0000 F1000.00
G3 X99.3723 Y75.2135 Z-1.0000 I-6.3861 J-2.0065 F1000.00
G1 X80.6587 Y56.5000 Z-1.0000 F1000.00
G1 X78.5374 Y56.5000 Z-1.0000 F1000.00
G1 X98.5004 Y76.4629 Z-1.0000 F1000.00
G3 X97.4375 Y77.5214 Z-1.0000 I-4.9040 J-3.8611 F1000.00
G1 X76.4161 Y56.5000 Z-1.0000 F1000.00
G1 X76.1172 Y56.5000 Z-1.0000 F1000.00
G1 X75.9666 Y56.0505 Z-1.0000 F1000.00
G1 X70.9495 Y51.0334 Z-1.0000 F1000.00
G2 X68.3091 Y50.5143 Z-1.0000 I-2.8381 J7.4610 F1000.00
G1 X96.1837 Y78.3889 Z-1.0000 F1000.00
G3 X94.7177 Y79.0443 Z-1.0000 I-3.3166 J-5.4517 F1000.00
G1 X65.0172 Y49.3437 Z-1.0000 F1000.00
G1 X57.9903 Y44.4382 Z-1.0000 F1000.00
G1 X92.9875 Y79.4354 Z-1.0000 F1000.00
G3 X90.9308 Y79.5000 Z-1.0000 I-1.5221 J-15.6851 F1000.00
G1 X50.9635 Y39.5326 Z-1.0000 F1000.00
G1 X43.9366 Y34.6271 Z-1.0000 F1000.00
G1 X88.8095 Y79.5000 Z-1.0000 F1000.00
G1 X86.6882 Y79.5000 Z-1.0000 F1000.00
G1 X36.9097 Y29.7215 Z-1.0000 F1000.00
G1 X29.8828 Y24.8160 Z-1.0000 F1000.00
G1 X84.5669 Y79.5000 Z-1.0000 F1000.00
G1 X82.4455 Y79.5000 Z-1.0000 F1000.00
G1 X22.8560 Y19.9104 Z-1.0000 F1000.00
G1 X19.5000 Y17.5676 Z-1.0000 F1000.00
G1 X19.5000 Y16.5545 Z-1.0000 F1000.00
G1 X-3.3505 Y-6.2960 Z-1.0000 F1000.00
G2 X-4.5794 Y-5.4036 Z-1.0000 I3.5571 J6.1911 F1000.00
G1 X80.3242 Y79.5000 Z-1.0000 F1000.00
G1 X78.2029 Y79.5000 Z-1.0000 F1000.00
G1 X-5.6182 Y-4.3211 Z-1.0000 F1000.00
G2 X-6.4652 Y-3.0468 Z-1.0000 I5.0801 J4.2953 F1000.00
G1 X76.0816 Y79.5000 Z-1.0000 F1000.00
G1 X73.9603 Y79.5000 Z-1.0000 F1000.00
G1 X-7.0978 Y-1.5580 Z-1.0000 F1000.00
G2 X-7.4615 Y0.1996 Z-1.0000 I7.4709 J2.4624 F1000.00
G1 X71.8389 Y79.5000 Z-1.0000 F1000.00
G1 X69.7176 Y79.5000 Z-1.0000 F1000.00
G1 X-7.5000 Y2.2824 Z-1.0000 F1000.00
G1 X-7.5000 Y4.4037 Z-1.0000 F1000.00
G1 X67.5963 Y79.5000 Z-1.0000 F1000.00
G1 X65.4750 Y79.5000 Z-1.0000 F1000.00
G1 X-7.5000 Y6.5250 Z-1.0000 F1000.00
G1 X-7.5000 Y8.6463 Z-1.0000 F1000.00
G1 X63.3242 Y79.4706 Z-1.0000 F1000.00
G3 X60.4565 Y78.7242 Z-1.0000 I0.6389 J-8.3368 F1000.00
G1 X-7.5000 Y10.7677 Z-1.0000 F1000.00
G1 X-7.5000 Y12.8890 Z-1.0000 F1000.00
G1 X53.9876 Y74.3766 Z-1.0000 F1000.00
G1 X46.9608 Y69.4711 Z-1.0000 F1000.00
G1 X-7.5000 Y15.0103 Z-1.0000 F1000.00
G1 X-7.5000 Y17.1316 Z-1.0000 F1000.00
G1 X39.9339 Y64.5655 Z-1.0000 F1000.00
G1 X32.9070 Y59.6600 Z-1.0000 F1000.00
G1 X-7.5000 Y19.2529 Z-1.0000 F1000.00
G1 X-7.5000 Y21.3743 Z-1.0000 F1000.00
G1 X25.8802 Y54.7544 Z-1.0000 F1000.00
G1 X18.8533 Y49.8489 Z-1.0000 F1000.00
G1 X-7.5000 Y23.4956 Z-1.0000 F1000.00
G1 X-7.5000 Y25.6169 Z-1.0000 F1000.00
G1 X11.8264 Y44.9433 Z-1.0000 F1000.00
G1 X4.7995 Y40.0378 Z-1.0000 F1000.00
G1 X-7.4636 Y27.7746 Z-1.0000 F1000.00
G2 X-6.6452 Y30.7143 Z-1.0000 I8.1210 J-0.6771 F1000.00
G2 X-4.5121 Y33.4893 Z-1.0000 I7.4091 J-3.4880 F1000.00
G2 X-2.2273 Y35.1322 Z-1.0000 I18.2189 J-22.9269 F1000.00
G1 X-6.6452 Y30.7143 Z-1.0000 F1000.00
G0 X-6.6452 Y30.7143 Z5.0000
G0 X-3.3505 Y-6.2960 Z5.0000
G0 X-3.3505 Y-6.2960 Z2.0000
G1 X-3.3505 Y-6.2960 Z-1.0000 F300.00
G1 X19.5000 Y16.5545 Z-1.0000 F1000.00
G1 X19.5000 Y14.4331 Z-1.0000 F1000.00
G1 X-1.9122 Y-6.9791 Z-1.0000 F1000.00
G3 X-0.2154 Y-7.4036 Z-1.0000 I2.5959 J6.7727 F1000.00
G1 X19.5000 Y12.3118 Z-1.0000 F1000.00
G1 X19.5000 Y10.1905 Z-1.0000 F1000.00
G1 X1.8095 Y-7.5000 Z-1.0000 F1000.00
G1 X3.9308 Y-7.5000 Z-1.0000 F1000.00
G1 X19.5000 Y8.0692 Z-1.0000 F1000.00
G1 X19.5000 Y5.9479 Z-1.0000 F1000.00
G1 X6.0521 Y-7.5000 Z-1.0000 F1000.00
G1 X8.1735 Y-7.5000 Z-1.0000 F1000.00
G1 X19.5000 Y3.8265 Z-1.0000 F1000.00
G1 X19.5000 Y1.7052 Z-1.0000 F1000.00
G1 X10.2948 Y-7.5000 Z-1.0000 F1000.00
G3 X12.5607 Y-7.3554 Z-1.0000 I0.3526 J12.3034 F1000.00
G1 X19.3554 Y-0.5607 Z-1.0000 F1000.00
G2 X12.5607 Y-7.3554 Z-1.0000 I-8.3552 J1.5604 F1000.00
G1 X12.5607 Y-7.3554 Z-1.5000 F300.00
G3 X19.3554 Y-0.5607 Z-1.5000 I-1.5604 J8.3552 F1000.00
G1 X12.5607 Y-7.3554 Z-1.5000 F1000.00
G2 X10.2948 Y-7.5000 Z-1.5000 I-1.9133 J12.1589 F1000.00
G1 X19.5000 Y1.7052 Z-1.5000 F1000.00
G1 X19.5000 Y3.8265 Z-1.5000 F1000.00
G1 X8.1735 Y-7.5000 Z-1.5000 F1000.00
G1 X6.0521 Y-7.5000 Z-1.5000 F1000.00
G1 X19.5000 Y5.9479 Z-1.5000 F1000.00
G1 X19.5000 Y8.0692 Z-1.5000 F1000.00
G1 X3.9308 Y-7.5000 Z-1.5000 F1000.00
G1 X1.8095 Y-7.5000 Z-1.5000 F1000.00
G1 X19.5000 Y10.1905 Z-1.5000 F1000.00
G1 X19.5000 Y12.3118 Z-1.5000 F1000.00
G1 X-0.2154 Y-7.4036 Z-1.5000 F1000.00
G2 X-1.9122 Y-6.9791 Z-1.5000 I0.8991 J7.1972 F1000.00
G1 X19.5000 Y14.4331 Z-1.5000 F1000.00
G1 X19.5000 Y16.5545 Z-1.5000 F1000.00
G1 X-3.3505 Y-6.2960 Z-1.5000 F1000.00
G0 X-3.3505 Y-6.2960 Z5.0000
G0 X-6.6452 Y30.7143 Z5.0000
G0 X-6.6452 Y30.7143 Z1.5000
G1 X-6.6452 Y30.7143 Z-1.5000 F300.00
G1 X-2.2273 Y35.1322 Z-1.5000 F1000.00
G3 X-4.5121 Y33.4893 Z-1.5000 I15.9342 J-24.5698 F1000.00
G3 X-6.6452 Y30.7143 Z-1.5000 I5.2760 J-6.2630 F1000.00
G3 X-7.4636 Y27.7746 Z-1.5000 I7.3026 J-3.6169 F1000.00
G1 X4.7995 Y40.0378 Z-1.5000 F1000.00
G1 X11.8264 Y44.9433 Z-1.5000 F1000.00
G1 X-7.5000 Y25.6169 Z-1.5000 F1000.00
G1 X-7.5000 Y23.4956 Z-1.5000 F1000.00
G1 X18.8533 Y49.8489 Z-1.5000 F1000.00
G1 X25.8802 Y54.7544 Z-1.5000 F1000.00
G1 X-7.5000 Y21.3743 Z-1.5000 F1000.00
G1 X-7.5000 Y19.2529 Z-1.5000 F1000.00
G1 X32.9070 Y59.6600 Z-1.5000 F1000.00
G1 X39.9339 Y64.5655 Z-1.5000 F1000.00
G1 X-7.5000 Y17.1316 Z-1.5000 F1000.00
G1 X-7.5000 Y15.0103 Z-1.5000 F1000.00
G1 X46.9608 Y69.4711 Z-1.5000 F1000.00
G1 X53.9876 Y74.3766 Z-1.5000 F1000.00
G1 X-7.5000 Y12.8890 Z-1.5000 F1000.00
G1 X-7.5000 Y10.7677 Z-1.5000 F1000.00
G1 X60.4565 Y78.7242 Z-1.5000 F1000.00
G2 X63.3242 Y79.4706 Z-1.5000 I3.5066 J-7.5904 F1000.00
G1 X-7.5000 Y8.6463 Z-1.5000 F1000.00
G1 X-7.5000 Y6.5250 Z-1.5000 F1000.00
G1 X65.4750 Y79.5000 Z-1.5000 F1000.00
G1 X67.5963 Y79.5000 Z-1.5000 F1000.00
G1 X-7.5000 Y4.4037 Z-1.5000 F1000.00
G1 X-7.5000 Y2.2824 Z-1.5000 F1000.00
G1 X69.7176 Y79.5000 Z-1.5000 F1000.00
G1 X71.8389 Y79.5000 Z-1.5000 F1000.00
G1 X-7.4615 Y0.1996 Z-1.5000 F1000.00
G3 X-7.0978 Y-1.5580 Z-1.5000 I7.8346 J0.7047 F1000.00
G1 X73.9603 Y79.5000 Z-1.5000 F1000.00
G1 X76.0816 Y79.5000 Z-1.5000 F1000.00
G1 X-6.4652 Y-3.0468 Z-1.5000 F1000.00
G3 X-5.6182 Y-4.3211 Z-1.5000 I5.9271 J3.0210 F1000.00
G1 X78.2029 Y79.5000 Z-1.5000 F1000.00
G1 X80.3242 Y79.5000 Z-1.5000 F1000.00
G1 X-4.5794 Y-5.4036 Z-1.5000 F1000.00
G3 X-3.3505 Y-6.2960 Z-1.5000 I4.7861 J5.2987 F1000.00
G1 X19.5000 Y16.5545 Z-1.5000 F1000.00
G1 X19.5000 Y17.5676 Z-1.5000 F1000.00
G1 X22.8560 Y19.9104 Z-1.5000 F1000.00
G1 X82.4455 Y79.5000 Z-1.5000 F1000.00
G1 X84.5669 Y79.5000 Z-1.5000 F1000.00
G1 X29.8828 Y24.8160 Z-1.5000 F1000.00
G1 X36.9097 Y29.7215 Z-1.5000 F1000.00
G1 X86.6882 Y79.5000 Z-1.5000 F1000.00
G1 X88.8095 Y79.5000 Z-1.5000 F1000.00
G1 X43.9366 Y34.6271 Z-1.5000 F1000.00
G1 X50.9635 Y39.5326 Z-1.5000 F1000.00
G1 X90.9308 Y79.5000 Z-1.5000 F1000.00
G2 X92.9875 Y79.4354 Z-1.5000 I0.5346 J-15.7497 F1000.00
G1 X57.9903 Y44.4382 Z-1.5000 F1000.00
G1 X65.0172 Y49.3437 Z-1.5000 F1000.00
G1 X94.7177 Y79.0443 Z-1.5000 F1000.00
G2 X96.1837 Y78.3889 Z-1.5000 I-1.8507 J-6.1071 F1000.00
G1 X68.3091 Y50.5143 Z-1.5000 F1000.00
G3 X70.9495 Y51.0334 Z-1.5000 I-0.1977 J7.9801 F1000.00
G1 X75.9666 Y56.0505 Z-1.5000 F1000.00
G1 X76.1172 Y56.5000 Z-1.5000 F1000.00
G1 X76.4161 Y56.5000 Z-1.5000 F1000.00
G1 X97.4375 Y77.5214 Z-1.5000 F1000.00
G2 X98.5004 Y76.4629 Z-1.5000 I-3.8412 J-4.9196 F1000.00
G1 X78.5374 Y56.5000 Z-1.5000 F1000.00
G1 X80.6587 Y56.5000 Z-1.5000 F1000.00
G1 X99.3723 Y75.2135 Z-1.5000 F1000.00
G2 X100.0326 Y73.7525 Z-1.5000 I-5.7258 J-3.4675 F1000.00
G1 X82.7801 Y56.5000 Z-1.5000 F1000.00
G1 X84.9014 Y56.5000 Z-1.5000 F1000.00
G1 X100.4297 Y72.0283 Z-1.5000 F1000.00
G1 X100.4637 Y71.7843 Z-1.5000 F1000.00
G2 X100.5000 Y69.9773 Z-1.5000 I-19.5241 J-1.2956 F1000.00
G1 X87.0227 Y56.5000 Z-1.5000 F1000.00
G1 X89.1440 Y56.5000 Z-1.5000 F1000.00
G1 X100.5000 Y67.8560 Z-1.5000 F1000.00
G1 X100.5000 Y65.7347 Z-1.5000 F1000.00
G1 X91.2653 Y56.5000 Z-1.5000 F1000.00
G3 X93.5265 Y56.6398 Z-1.5000 I0.3673 J12.4153 F1000.00
G1 X100.3602 Y63.4735 Z-1.5000 F1000.00
G2 X97.7264 Y58.7184 Z-1.5000 I-8.3462 J1.5159 F1000.00
G0 X97.7264 Y58.7184 Z5.0000
G0 X75.9666 Y56.0505 Z5.0000
G0 X75.9666 Y56.0505 Z1.5000
G1 X75.9666 Y56.0505 Z-1.5000 F300.00
G2 X70.9495 Y51.0334 Z-1.5000 I-7.9281 J2.9111 F1000.00
G1 X75.9666 Y56.0505 Z-1.5000 F1000.00
G1 X75.9666 Y56.0505 Z-2.0000 F300.00
G2 X70.9495 Y51.0334 Z-2.0000 I-7.9281 J2.9111 F1000.00
G1 X75.9666 Y56.0505 Z-2.0000 F1000.00
G0 X75.9666 Y56.0505 Z5.0000
G0 X97.7264 Y58.7184 Z5.0000
G0 X97.7264 Y58.7184 Z1.0000
G1 X97.7264 Y58.7184 Z-2.0000 F300.00
G3 X100.3602 Y63.4735 Z-2.0000 I-5.7124 J6.2710 F1000.00
G1 X93.5265 Y56.6398 Z-2.0000 F1000.00
G2 X91.2653 Y56.5000 Z-2.0000 I-1.8938 J12.2755 F1000.00
G1 X100.5000 Y65.7347 Z-2.0000 F1000.00
G1 X100.5000 Y67.8560 Z-2.0000 F1000.00
G1 X89.1440 Y56.5000 Z-2.0000 F1000.00
G1 X87.0227 Y56.5000 Z-2.0000 F1000.00
G1 X100.5000 Y69.9773 Z-2.0000 F1000.00
G3 X100.4637 Y71.7843 Z-2.0000 I-19.5604 J0.5114 F1000.00
G1 X100.4297 Y72.0283 Z-2.0000 F1000.00
G1 X84.9014 Y56.5000 Z-2.0000 F1000.00
G1 X82.7801 Y56.5000 Z-2.0000 F1000.00
G1 X100.0326 Y73.7525 Z-2.0000 F1000.00
G3 X99.3723 Y75.2135 Z-2.0000 I-6.3861 J-2.0065 F1000.00
G1 X80.6587 Y56.5000 Z-2.0000 F1000.00
G1 X78.5374 Y56.5000 Z-2.0000 F1000.00
G1 X98.5004 Y76.4629 Z-2.0000 F1000.00
G3 X97.4375 Y77.5214 Z-2.0000 I-4.9040 J-3.8611 F1000.00
G1 X76.4161 Y56.5000 Z-2.0000 F1000.00
G1 X76.1172 Y56.5000 Z-2.0000 F1000.00
G1 X75.9666 Y56.0505 Z-2.0000 F1000.00
G1 X70.9495 Y51.0334 Z-2.0000 F1000.00
G2 X68.3091 Y50.5143 Z-2.0000 I-2.8381 J7.4610 F1000.00
G1 X96.1837 Y78.3889 Z-2.0000 F1000.00
G3 X94.7177 Y79.0443 Z-2.0000 I-3.3166 J-5.4517 F1000.00
G1 X65.0172 Y49.3437 Z-2.0000 F1000.00
G1 X57.9903 Y44.4382 Z-2.0000 F1000.00
G1 X92.9875 Y79.4354 Z-2.0000 F1000.00
G3 X90.9308 Y79.5000 Z-2.0000 I-1.5221 J-15.6851 F1000.00
G1 X50.9635 Y39.5326 Z-2.0000 F1000.00
G1 X43.9366 Y34.6271 Z-2.0000 F1000.00
G1 X88.8095 Y79.5000 Z-2.0000 F1000.00
G1 X86.6882 Y79.5000 Z-2.0000 F1000.00
G1 X36.9097 Y29.7215 Z-2.0000 F1000.00
G1 X29.8828 Y24.8160 Z-2.0000 F1000.00
G1 X84.5669 Y79.5000 Z-2.0000 F1000.00
G1 X82.4455 Y79.5000 Z-2.0000 F1000.00
G1 X22.8560 Y19.9104 Z-2.0000 F1000.00
G1 X19.5000 Y17.5676 Z-2.0000 F1000.00
G1 X19.5000 Y16.5545 Z-2.0000 F1000.00
G1 X-3.3505 Y-6.2960 Z-2.0000 F1000.00
G2 X-4.5794 Y-5.4036 Z-2.0000 I3.5571 J6.1911 F1000.00
G1 X80.3242 Y79.5000 Z-2.0000 F1000.00
G1 X78.2029 Y79.5000 Z-2.0000 F1000.00
G1 X-5.6182 Y-4.3211 Z-2.0000 F1000.00
G2 X-6.4652 Y-3.0468 Z-2.0000 I5.0801 J4.2953 F1000.00
G1 X76.0816 Y79.5000 Z-2.0000 F1000.00
G1 X73.9603 Y79.5000 Z-2.0000 F1000.00
G1 X-7.0978 Y-1.5580 Z-2.0000 F1000.00
G2 X-7.4615 Y0.1996 Z-2.0000 I7.4709 J2.4624 F1000.00
G1 X71.8389 Y79.5000 Z-2.0000 F1000.00
G1 X69.7176 Y79.5000 Z-2.0000 F1000.00
G1 X-7.5000 Y2.2824 Z-2.0000 F1000.00
G1 X-7.5000 Y4.4037 Z-2.0000 F1000.00
G1 X67.5963 Y79.5000 Z-2.0000 F1000.00
G1 X65.4750 Y79.5000 Z-2.0000 F1000.00
G1 X-7.5000 Y6.5250 Z-2.0000 F1000.00
G1 X-7.5000 Y8.6463 Z-2.0000 F1000.00
G1 X63.3242 Y79.4706 Z-2.0000 F1000.00
G3 X60.4565 Y78.7242 Z-2.0000 I0.6389 J-8.3368 F1000.00
G1 X-7.5000 Y10.7677 Z-2.0000 F1000.00
G1 X-7.5000 Y12.8890 Z-2.0000 F1000.00
G1 X53.9876 Y74.3766 Z-2.0000 F1000.00
G1 X46.9608 Y69.4711 Z-2.0000 F1000.00
G1 X-7.5000 Y15.0103 Z-2.0000 F1000.00
G1 X-7.5000 Y17.1316 Z-2.0000 F1000.00
G1 X39.9339 Y64.5655 Z-2.0000 F1000.00
G1 X32.9070 Y59.6600 Z-2.0000 F1000.00
G1 X-7.5000 Y19.2529 Z-2.0000 F1000.00
G1 X-7.5000 Y21.3743 Z-2.0000 F1000.00
G1 X25.8802 Y54.7544 Z-2.0000 F1000.00
G1 X18.8533 Y49.8489 Z-2.0000 F1000.00
G1 X-7.5000 Y23.4956 Z-2.0000 F1000.00
G1 X-7.5000 Y25.6169 Z-2.0000 F1000.00
G1 X11.8264 Y44.9433 Z-2.0000 F1000.00
G1 X4.7995 Y40.0378 Z-2.0000 F1000.00
G1 X-7.4636 Y27.7746 Z-2.0000 F1000.00
G2 X-6.6452 Y30.7143 Z-2.0000 I8.1210 J-0.6771 F1000.00
G2 X-4.5121 Y33.4893 Z-2.0000 I7.4091 J-3.4880 F1000.00
G2 X-2.2273 Y35.1322 Z-2.0000 I18.2189 J-22.9269 F1000.00
G1 X-6.6452 Y30.7143 Z-2.0000 F1000.00
G0 X-6.6452 Y30.7143 Z5.0000
G0 X-3.3505 Y-6.2960 Z5.0000
G0 X-3.3505 Y-6.2960 Z1.0000
G1 X-3.3505 Y-6.2960 Z-2.0000 F300.00
G1 X19.5000 Y16.5545 Z-2.0000 F1000.00
G1 X19.5000 Y14.4331 Z-2.0000 F1000.00
G1 X-1.9122 Y-6.9791 Z-2.0000 F1000.00
G3 X-0.2154 Y-7.4036 Z-2.0000 I2.5959 J6.7727 F1000.00
G1 X19.5000 Y12.3118 Z-2.0000 F1000.00
G1 X19.5000 Y10.1905 Z-2.0000 F1000.00
G1 X1.8095 Y-7.5000 Z-2.0000 F1000.00
G1 X3.9308 Y-7.5000 Z-2.0000 F1000.00
G1 X19.5000 Y8.0692 Z-2.0000 F1000.00
G1 X19.5000 Y5.9479 Z-2.0000 F1000.00
G1 X6.0521 Y-7.5000 Z-2.0000 F1000.00
G1 X8.1735 Y-7.5000 Z-2.0000 F1000.00
G1 X19.5000 Y3.8265 Z-2.0000 F1000.00
G1 X19.5000 Y1.7052 Z-2.0000 F1000.00
G1 X10.2948 Y-7.5000 Z-2.0000 F1000.00
G3 X12.5607 Y-7.3554 Z-2.0000 I0.3526 J12.3034 F1000.00
G1 X19.3554 Y-0.5607 Z-2.0000 F1000.00
G2 X12.5607 Y-7.3554 Z-2.0000 I-8.3552 J1.5604 F1000.00
G1 X12.5607 Y-7.3554 Z-2.5000 F300.00
G3 X19.3554 Y-0.5607 Z-2.5000 I-1.5604 J8.3552 F1000.00
G1 X12.5607 Y-7.3554 Z-2.5000 F1000.00
G2 X10.2948 Y-7.5000 Z-2.5000 I-1.9133 J12.1589 F1000.00
G1 X19.5000 Y1.7052 Z-2.5000 F1000.00
G1 X19.5000 Y3.8265 Z-2.5000 F1000.00
G1 X8.1735 Y-7.5000 Z-2.5000 F1000.00
G1 X6.0521 Y-7.5000 Z-2.5000 F1000.00
G1 X19.5000 Y5.9479 Z-2.5000 F1000.00
G1 X19.5000 Y8.0692 Z-2.5000 F1000.00
G1 X3.9308 Y-7.5000 Z-2.5000 F1000.00
G1 X1.8095 Y-7.5000 Z-2.5000 F1000.00
G1 X19.5000 Y10.1905 Z-2.5000 F1000.00
G1 X19.5000 Y12.3118 Z-2.5000 F1000.00
G1 X-0.2154 Y-7.4036 Z-2.5000 F1000.00
G2 X-1.9122 Y-6.9791 Z-2.5000 I0.8991 J7.1972 F1000.00
G1 X19.5000 Y14.4331 Z-2.5000 F1000.00
G1 X19.5000 Y16.5545 Z-2.5000 F1000.00
G1 X-3.3505 Y-6.2960 Z-2.5000 F1000.00
G0 X-3.3505 Y-6.2960 Z5.0000
G0 X-6.6452 Y30.7143 Z5.0000
G0 X-6.6452 Y30.7143 Z0.5000
G1 X-6.6452 Y30.7143 Z-2.5000 F300.00
G1 X-2.2273 Y35.1322 Z-2.5000 F1000.00
G3 X-4.5121 Y33.4893 Z-2.5000 I15.9342 J-24.5698 F1000.00
G3 X-6.6452 Y30.7143 Z-2.5000 I5.2760 J-6.2630 F1000.00
G3 X-7.4636 Y27.7746 Z-2.5000 I7.3026 J-3.6169 F1000.00
G1 X4.7995 Y40.0378 Z-2.5000 F1000.00
G1 X11.8264 Y44.9433 Z-2.5000 F1000.00
G1 X-7.5000 Y25.6169 Z-2.5000 F1000.00
G1 X-7.5000 Y23.4956 Z-2.5000 F1000.00
G1 X18.8533 Y49.8489 Z-2.5000 F1000.00
G1 X25.8802 Y54.7544 Z-2.5000 F1000.00
G1 X-7.5000 Y21.3743 Z-2.5000 F1000.00
G1 X-7.5000 Y19.2529 Z-2.5000 F1000.00
G1 X32.9070 Y59.6600 Z-2.5000 F1000.00
G1 X39.9339 Y64.5655 Z-2.5000 F1000.00
G1 X-7.5000 Y17.1316 Z-2.5000 F1000.00
G1 X-7.5000 Y15.0103 Z-2.5000 F1000.00
G1 X46.9608 Y69.4711 Z-2.5000 F1000.00
G1 X53.9876 Y74.3766 Z-2.5000 F1000.00
G1 X-7.5000 Y12.8890 Z-2.5000 F1000.00
G1 X-7.5000 Y10.7677 Z-2.5000 F1000.00
G1 X60.4565 Y78.7242 Z-2.5000 F1000.00
G2 X63.3242 Y79.4706 Z-2.5000 I3.5066 J-7.5904 F1000.00
G1 X-7.5000 Y8.6463 Z-2.5000 F1000.00
G1 X-7.5000 Y6.5250 Z-2.5000 F1000.00
G1 X65.4750 Y79.5000 Z-2.5000 F1000.00
G1 X67.5963 Y79.5000 Z-2.5000 F1000.00
G1 X-7.5000 Y4.4037 Z-2.5000 F1000.00
G1 X-7.5000 Y2.2824 Z-2.5000 F1000.00
G1 X69.7176 Y79.5000 Z-2.5000 F1000.00
G1 X71.8389 Y79.5000 Z-2.5000 F1000.00
G1 X-7.4615 Y0.1996 Z-2.5000 F1000.00
G3 X-7.0978 Y-1.5580 Z-2.5000 I7.8346 J0.7047 F1000.00
G1 X73.9603 Y79.5000 Z-2.5000 F1000.00
G1 X76.0816 Y79.5000 Z-2.5000 F1000.00
G1 X-6.4652 Y-3.0468 Z-2.5000 F1000.00
G3 X-5.6182 Y-4.3211 Z-2.5000 I5.9271 J3.0210 F1000.00
G1 X78.2029 Y79.5000 Z-2.5000 F1000.00
G1 X80.3242 Y79.5000 Z-2.5000 F1000.00
G1 X-4.5794 Y-5.4036 Z-2.5000 F1000.00
G3 X-3.3505 Y-6.2960 Z-2.5000 I4.7861 J5.2987 F1000.00
G1 X19.5000 Y16.5545 Z-2.5000 F1000.00
G1 X19.5000 Y17.5676 Z-2.5000 F1000.00
G1 X22.8560 Y19.9104 Z-2.5000 F1000.00
G1 X82.4455 Y79.5000 Z-2.5000 F1000.00
G1 X84.5669 Y79.5000 Z-2.5000 F1000.00
G1 X29.8828 Y24.8160 Z-2.5000 F1000.00
G1 X36.9097 Y29.7215 Z-2.5000 F1000.00
G1 X86.6882 Y79.5000 Z-2.5000 F1000.00
G1 X88.8095 Y79.5000 Z-2.5000 F1000.00
G1 X43.9366 Y34.6271 Z-2.5000 F1000.00
G1 X50.9635 Y39.5326 Z-2.5000 F1000.00
G1 X90.9308 Y79.5000 Z-2.5000 F1000.00
G2 X92.9875 Y79.4354 Z-2.5000 I0.5346 J-15.7497 F1000.00
G1 X57.9903 Y44.4382 Z-2.5000 F1000.00
G1 X65.0172 Y49.3437 Z-2.5000 F1000.00
G1 X94.7177 Y79.0443 Z-2.5000 F1000.00
G2 X96.1837 Y78.3889 Z-2.5000 I-1.8507 J-6.1071 F1000.00
G1 X68.3091 Y50.5143 Z-2.5000 F1000.00
G3 X70.9495 Y51.0334 Z-2.5000 I-0.1977 J7.9801 F1000.00
G1 X75.9666 Y56.0505 Z-2.5000 F1000.00
G1 X76.1172 Y56.5000 Z-2.5000 F1000.00
G1 X76.4161 Y56.5000 Z-2.5000 F1000.00
G1 X97.4375 Y77.5214 Z-2.5000 F1000.00
G2 X98.5004 Y76.4629 Z-2.5000 I-3.8412 J-4.9196 F1000.00
G1 X78.5374 Y56.5000 Z-2.5000 F1000.00
G1 X80.6587 Y56.5000 Z-2.5000 F1000.00
G1 X99.3723 Y75.2135 Z-2.5000 F1000.00
G2 X100.0326 Y73.7525 Z-2.5000 I-5.7258 J-3.4675 F1000.00
G1 X82.7801 Y56.5000 Z-2.5000 F1000.00
G1 X84.9014 Y56.5000 Z-2.5000 F1000.00
G1 X100.4297 Y72.0283 Z-2.5000 F1000.00
G1 X100.4637 Y71.7843 Z-2.5000 F1000.00
G2 X100.5000 Y69.9773 Z-2.5000 I-19.5241 J-1.2956 F1000.00
G1 X87.0227 Y56.5000 Z-2.5000 F1000.00
G1 X89.1440 Y56.5000 Z-2.5000 F1000.00
G1 X100.5000 Y67.8560 Z-2.5000 F1000.00
G1 X100.5000 Y65.7347 Z-2.5000 F1000.00
G1 X91.2653 Y56.5000 Z-2.5000 F1000.00
G3 X93.5265 Y56.6398 Z-2.5000 I0.3673 J12.4153 F1000.00
G1 X100.3602 Y63.4735 Z-2.5000 F1000.00
G2 X97.7264 Y58.7184 Z-2.5000 I-8.3462 J1.5159 F1000.00
G0 X97.7264 Y58.7184 Z5.0000
G0 X75.9666 Y56.0505 Z5.0000
G0 X75.9666 Y56.0505 Z0.5000
G1 X75.9666 Y56.0505 Z-2.5000 F300.00
G2 X70.9495 Y51.0334 Z-2.5000 I-7.9281 J2.9111 F1000.00
G1 X75.9666 Y56.0505 Z-2.5000 F1000.00
G1 X75.9666 Y56.0505 Z-3.0000 F300.00
G2 X70.9495 Y51.0334 Z-3.0000 I-7.9281 J2.9111 F1000.00
G1 X75.9666 Y56.0505 Z-3.0000 F1000.00
G0 X75.9666 Y56.0505 Z5.0000
G0 X97.7264 Y58.7184 Z5.0000
G0 X97.7264 Y58.7184 Z0.0000
G1 X97.7264 Y58.7184 Z-3.0000 F300.00
G3 X100.3602 Y63.4735 Z-3.0000 I-5.7124 J6.2710 F1000.00
G1 X93.5265 Y56.6398 Z-3.0000 F1000.00
G2 X91.2653 Y56.5000 Z-3.0000 I-1.8938 J12.2755 F1000.00
G1 X100.5000 Y65.7347 Z-3.0000 F1000.00
G1 X100.5000 Y67.8560 Z-3.0000 F1000.00
G1 X89.1440 Y56.5000 Z-3.0000 F1000.00
G1 X87.0227 Y56.5000 Z-3.0000 F1000.00
G1 X100.5000 Y69.9773 Z-3.0000 F1000.00
G3 X100.4637 Y71.7843 Z-3.0000 I-19.5604 J0.5114 F1000.00
G1 X100.4297 Y72.0283 Z-3.0000 F1000.00
G1 X84.9014 Y56.5000 Z-3.0000 F1000.00
G1 X82.7801 Y56.5000 Z-3.0000 F1000.00
G1 X100.0326 Y73.7525 Z-3.0000 F1000.00
G3 X99.3723 Y75.2135 Z-3.0000 I-6.3861 J-2.0065 F1000.00
G1 X80.6587 Y56.5000 Z-3.0000 F1000.00
G1 X78.5374 Y56.5000 Z-3.0000 F1000.00
G1 X98.5004 Y76.4629 Z-3.0000 F1000.00
G3 X97.4375 Y77.5214 Z-3.0000 I-4.9040 J-3.8611 F1000.00
G1 X76.4161 Y56.5000 Z-3.0000 F1000.00
G1 X76.1172 Y56.5000 Z-3.0000 F1000.00
G1 X75.9666 Y56.0505 Z-3.0000 F1000.00
G1 X70.9495 Y51.0334 Z-3.0000 F1000.00
G2 X68.3091 Y50.5143 Z-3.0000 I-2.8381 J7.4610 F1000.00
G1 X96.1837 Y78.3889 Z-3.0000 F1000.00
G3 X94.7177 Y79.0443 Z-3.0000 I-3.3166 J-5.4517 F1000.00
G1 X65.0172 Y49.3437 Z-3.0000 F1000.00
G1 X57.9903 Y44.4382 Z-3.0000 F1000.00
G1 X92.9875 Y79.4354 Z-3.0000 F1000.00
G3 X90.9308 Y79.5000 Z-3.0000 I-1.5221 J-15.6851 F1000.00
G1 X50.9635 Y39.5326 Z-3.0000 F1000.00
G1 X43.9366 Y34.6271 Z-3.0000 F1000.00
G1 X88.8095 Y79.5000 Z-3.0000 F1000.00
G1 X86.6882 Y79.5000 Z-3.0000 F1000.00
G1 X36.9097 Y29.7215 Z-3.0000 F1000.00
G1 X29.8828 Y24.8160 Z-3.0000 F1000.00
G1 X84.5669 Y79.5000 Z-3.0000 F1000.00
G1 X82.4455 Y79.5000 Z-3.0000 F1000.00
G1 X22.8560 Y19.9104 Z-3.0000 F1000.00
G1 X19.5000 Y17.5676 Z-3.0000 F1000.00
G1 X19.5000 Y16.5545 Z-3.0000 F1000.00
G1 X-3.3505 Y-6.2960 Z-3.0000 F1000.00
G2 X-4.5794 Y-5.4036 Z-3.0000 I3.5571 J6.1911 F1000.00
G1 X80.3242 Y79.5000 Z-3.0000 F1000.00
G1 X78.2029 Y79.5000 Z-3.0000 F1000.00
G1 X-5.6182 Y-4.3211 Z-3.0000 F1000.00
G2 X-6.4652 Y-3.0468 Z-3.0000 I5.0801 J4.2953 F1000.00
G1 X76.0816 Y79.5000 Z-3.0000 F1000.00
G1 X73.9603 Y79.5000 Z-3.0000 F1000.00
G1 X-7.0978 Y-1.5580 Z-3.0000 F1000.00
G2 X-7.4615 Y0.1996 Z-3.0000 I7.4709 J2.4624 F1000.00
G1 X71.8389 Y79.5000 Z-3.0000 F1000.00
G1 X69.7176 Y79.5000 Z-3.0000 F1000.00
G1 X-7.5000 Y2.2824 Z-3.0000 F1000.00
G1 X-7.5000 Y4.4037 Z-3.0000 F1000.00
G1 X67.5963 Y79.5000 Z-3.0000 F1000.00
G1 X65.4750 Y79.5000 Z-3.0000 F1000.00
G1 X-7.5000 Y6.5250 Z-3.0000 F1000.00
G1 X-7.5000 Y8.6463 Z-3.0000 F1000.00
G1 X63.3242 Y79.4706 Z-3.0000 F1000.00
G3 X60.4565 Y78.7242 Z-3.0000 I0.6389 J-8.3368 F1000.00
G1 X-7.5000 Y10.7677 Z-3.0000 F1000.00
G1 X-7.5000 Y12.8890 Z-3.0000 F1000.00
G1 X53.9876 Y74.3766 Z-3.0000 F1000.00
G1 X46.9608 Y69.4711 Z-3.0000 F1000.00
G1 X-7.5000 Y15.0103 Z-3.0000 F1000.00
G1 X-7.5000 Y17.1316 Z-3.0000 F1000.00
G1 X39.9339 Y64.5655 Z-3.0000 F1000.00
G1 X32.9070 Y59.6600 Z-3.0000 F1000.00
G1 X-7.5000 Y19.2529 Z-3.0000 F1000.00
G1 X-7.5000 Y21.3743 Z-3.0000 F1000.00
G1 X25.8802 Y54.7544 Z-3.0000 F1000.00
G1 X18.8533 Y49.8489 Z-3.0000 F1000.00
G1 X-7.5000 Y23.4956 Z-3.0000 F1000.00
G1 X-7.5000 Y25.6169 Z-3.0000 F1000.00
G1 X11.8264 Y44.9433 Z-3.0000 F1000.00
G1 X4.7995 Y40.0378 Z-3.0000 F1000.00
G1 X-7.4636 Y27.7746 Z-3.0000 F1000.00
G2 X-6.6452 Y30.7143 Z-3.0000 I8.1210 J-0.6771 F1000.00
G2 X-4.5121 Y33.4893 Z-3.0000 I7.4091 J-3.4880 F1000.00
G2 X-2.2273 Y35.1322 Z-3.0000 I18.2189 J-22.9269 F1000.00
G1 X-6.6452 Y30.7143 Z-3.0000 F1000.00
G0 X-6.6452 Y30.7143 Z5.0000
G0 X-3.3505 Y-6.2960 Z5.0000
G0 X-3.3505 Y-6.2960 Z0.0000
G1 X-3.3505 Y-6.2960 Z-3.0000 F300.00
G1 X19.5000 Y16.5545 Z-3.0000 F1000.00
G1 X19.5000 Y14.4331 Z-3.0000 F1000.00
G1 X-1.9122 Y-6.9791 Z-3.0000 F1000.00
G3 X-0.2154 Y-7.4036 Z-3.0000 I2.5959 J6.7727 F1000.00
G1 X19.5000 Y12.3118 Z-3.0000 F1000.00
G1 X19.5000 Y10.1905 Z-3.0000 F1000.00
G1 X1.8095 Y-7.5000 Z-3.0000 F1000.00
G1 X3.9308 Y-7.5000 Z-3.0000 F1000.00
G1 X19.5000 Y8.0692 Z-3.0000 F1000.00
G1 X19.5000 Y5.9479 Z-3.0000 F1000.00
G1 X6.0521 Y-7.5000 Z-3.0000 F1000.00
G1 X8.1735 Y-7.5000 Z-3.0000 F1000.00
G1 X19.5000 Y3.8265 Z-3.0000 F1000.00
G1 X19.5000 Y1.7052 Z-3.0000 F1000.00
G1 X10.2948 Y-7.5000 Z-3.0000 F1000.00
G3 X12.5607 Y-7.3554 Z-3.0000 I0.3526 J12.3034 F1000.00
G1 X19.3554 Y-0.5607 Z-3.0000 F1000.00
G2 X12.5607 Y-7.3554 Z-3.0000 I-8.3552 J1.5604 F1000.00
G1 X12.5607 Y-7.3554 Z-3.5000 F300.00
G3 X19.3554 Y-0.5607 Z-3.5000 I-1.5604 J8.3552 F1000.00
G1 X12.5607 Y-7.3554 Z-3.5000 F1000.00
G2 X10.2948 Y-7.5000 Z-3.5000 I-1.9133 J12.1589 F1000.00
G1 X19.5000 Y1.7052 Z-3.5000 F1000.00
G1 X19.5000 Y3.8265 Z-3.5000 F1000.00
G1 X8.1735 Y-7.5000 Z-3.5000 F1000.00
G1 X6.0521 Y-7.5000 Z-3.5000 F1000.00
G1 X19.5000 Y5.9479 Z-3.5000 F1000.00
G1 X19.5000 Y8.0692 Z-3.5000 F1000.00
G1 X3.9308 Y-7.5000 Z-3.5000 F1000.00
G1 X1.8095 Y-7.5000 Z-3.5000 F1000.00
G1 X19.5000 Y10.1905 Z-3.5000 F1000.00
G1 X19.5000 Y12.3118 Z-3.5000 F1000.00
G1 X-0.2154 Y-7.4036 Z-3.5000 F1000.00
G2 X-1.9122 Y-6.9791 Z-3.5000 I0.8991 J7.1972 F1000.00
G1 X19.5000 Y14.4331 Z-3.5000 F1000.00
G1 X19.5000 Y16.5545 Z-3.5000 F1000.00
G1 X-3.3505 Y-6.2960 Z-3.5000 F1000.00
G0 X-3.3505 Y-6.2960 Z5.0000
G0 X-6.6452 Y30.7143 Z5.0000
G0 X-6.6452 Y30.7143 Z-0.5000
G1 X-6.6452 Y30.7143 Z-3.5000 F300.00
G1 X-2.2273 Y35.1322 Z-3.5000 F1000.00
G3 X-4.5121 Y33.4893 Z-3.5000 I15.9342 J-24.5698 F1000.00
G3 X-6.6452 Y30.7143 Z-3.5000 I5.2760 J-6.2630 F1000.00
G3 X-7.4636 Y27.7746 Z-3.5000 I7.3026 J-3.6169 F1000.00
G1 X4.7995 Y40.0378 Z-3.5000 F1000.00
G1 X11.8264 Y44.9433 Z-3.5000 F1000.00
G1 X-7.5000 Y25.6169 Z-3.5000 F1000.00
G1 X-7.5000 Y23.4956 Z-3.5000 F1000.00
G1 X18.8533 Y49.8489 Z-3.5000 F1000.00
G1 X25.8802 Y54.7544 Z-3.5000 F1000.00
G1 X-7.5000 Y21.3743 Z-3.5000 F1000.00
G1 X-7.5000 Y19.2529 Z-3.5000 F1000.00
G1 X32.9070 Y59.6600 Z-3.5000 F1000.00
G1 X39.9339 Y64.5655 Z-3.5000 F1000.00
G1 X-7.5000 Y17.1316 Z-3.5000 F1000.00
G1 X-7.5000 Y15.0103 Z-3.5000 F1000.00
G1 X46.9608 Y69.4711 Z-3.5000 F1000.00
G1 X53.9876 Y74.3766 Z-3.5000 F1000.00
G1 X-7.5000 Y12.8890 Z-3.5000 F1000.00
G1 X-7.5000 Y10.7677 Z-3.5000 F1000.00
G1 X60.4565 Y78.7242 Z-3.5000 F1000.00
G2 X63.3242 Y79.4706 Z-3.5000 I3.5066 J-7.5904 F1000.00
G1 X-7.5000 Y8.6463 Z-3.5000 F1000.00
G1 X-7.5000 Y6.5250 Z-3.5000 F1000.00
G1 X65.4750 Y79.5000 Z-3.5000 F1000.00
G1 X67.5963 Y79.5000 Z-3.5000 F1000.00
G1 X-7.5000 Y4.4037 Z-3.5000 F1000.00
G1 X-7.5000 Y2.2824 Z-3.5000 F1000.00
G1 X69.7176 Y79.5000 Z-3.5000 F1000.00
G1 X71.8389 Y79.5000 Z-3.5000 F1000.00
G1 X-7.4615 Y0.1996 Z-3.5000 F1000.00
G3 X-7.0978 Y-1.5580 Z-3.5000 I7.8346 J0.7047 F1000.00
G1 X73.9603 Y79.5000 Z-3.5000 F1000.00
G1 X76.0816 Y79.5000 Z-3.5000 F1000.00
G1 X-6.4652 Y-3.0468 Z-3.5000 F1000.00
G3 X-5.6182 Y-4.3211 Z-3.5000 I5.9271 J3.0210 F1000.00
G1 X78.2029 Y79.5000 Z-3.5000 F1000.00
G1 X80.3242 Y79.5000 Z-3.5000 F1000.00
G1 X-4.5794 Y-5.4036 Z-3.5000 F1000.00
G3 X-3.3505 Y-6.2960 Z-3.5000 I4.7861 J5.2987 F1000.00
G1 X19.5000 Y16.5545 Z-3.5000 F1000.00
G1 X19.5000 Y17.5676 Z-3.5000 F1000.00
G1 X22.8560 Y19.9104 Z-3.5000 F1000.00
G1 X82.4455 Y79.5000 Z-3.5000 F1000.00
G1 X84.5669 Y79.5000 Z-3.5000 F1000.00
G1 X29.8828 Y24.8160 Z-3.5000 F1000.00
G1 X36.9097 Y29.7215 Z-3.5000 F1000.00
G1 X86.6882 Y79.5000 Z-3.5000 F1000.00
G1 X88.8095 Y79.5000 Z-3.5000 F1000.00
G1 X43.9366 Y34.6271 Z-3.5000 F1000.00
G1 X50.9635 Y39.5326 Z-3.5000 F1000.00
G1 X90.9308 Y79.5000 Z-3.5000 F1000.00
G2 X92.9875 Y79.4354 Z-3.5000 I0.5346 J-15.7497 F1000.00
G1 X57.9903 Y44.4382 Z-3.5000 F1000.00
G1 X65.0172 Y49.3437 Z-3.5000 F1000.00
G1 X94.7177 Y79.0443 Z-3.5000 F1000.00
G2 X96.1837 Y78.3889 Z-3.5000 I-1.8507 J-6.1071 F1000.00
G1 X68.3091 Y50.5143 Z-3.5000 F1000.00
G3 X70.9495 Y51.0334 Z-3.5000 I-0.1977 J7.9801 F1000.00
G1 X75.9666 Y56.0505 Z-3.5000 F1000.00
G1 X76.1172 Y56.5000 Z-3.5000 F1000.00
G1 X76.4161 Y56.5000 Z-3.5000 F1000.00
G1 X97.4375 Y77.5214 Z-3.5000 F1000.00
G2 X98.5004 Y76.4629 Z-3.5000 I-3.8412 J-4.9196 F1000.00
G1 X78.5374 Y56.5000 Z-3.5000 F1000.00
G1 X80.6587 Y56.5000 Z-3.5000 F1000.00
G1 X99.3723 Y75.2135 Z-3.5000 F1000.00
G2 X100.0326 Y73.7525 Z-3.5000 I-5.7258 J-3.4675 F1000.00
G1 X82.7801 Y56.5000 Z-3.5000 F1000.00
G1 X84.9014 Y56.5000 Z-3.5000 F1000.00
G1 X100.4297 Y72.0283 Z-3.5000 F1000.00
G1 X100.4637 Y71.7843 Z-3.5000 F1000.00
G2 X100.5000 Y69.9773 Z-3.5000 I-19.5241 J-1.2956 F1000.00
G1 X87.0227 Y56.5000 Z-3.5000 F1000.00
G1 X89.1440 Y56.5000 Z-3.5000 F1000.00
G1 X100.5000 Y67.8560 Z-3.5000 F1000.00
G1 X100.5000 Y65.7347 Z-3.5000 F1000.00
G1 X91.2653 Y56.5000 Z-3.5000 F1000.00
G3 X93.5265 Y56.6398 Z-3.5000 I0.3673 J12.4153 F1000.00
G1 X100.3602 Y63.4735 Z-3.5000 F1000.00
G2 X97.7264 Y58.7184 Z-3.5000 I-8.3462 J1.5159 F1000.00
G0 X97.7264 Y58.7184 Z5.0000
G0 X75.9666 Y56.0505 Z5.0000
G0 X75.9666 Y56.0505 Z-0.5000
G1 X75.9666 Y56.0505 Z-3.5000 F300.00
G2 X70.9495 Y51.0334 Z-3.5000 I-7.9281 J2.9111 F1000.00
G1 X75.9666 Y56.0505 Z-3.5000 F1000.00
G1 X75.9666 Y56.0505 Z-4.0000 F300.00
G2 X70.9495 Y51.0334 Z-4.0000 I-7.9281 J2.9111 F1000.00
G1 X75.9666 Y56.0505 Z-4.0000 F1000.00
G0 X75.9666 Y56.0505 Z5.0000
G0 X97.7264 Y58.7184 Z5.0000
G0 X97.7264 Y58.7184 Z-1.0000
G1 X97.7264 Y58.7184 Z-4.0000 F300.00
G3 X100.3602 Y63.4735 Z-4.0000 I-5.7124 J6.2710 F1000.00
G1 X93.5265 Y56.6398 Z-4.0000 F1000.00
G2 X91.2653 Y56.5000 Z-4.0000 I-1.8938 J12.2755 F1000.00
G1 X100.5000 Y65.7347 Z-4.0000 F1000.00
G1 X100.5000 Y67.8560 Z-4.0000 F1000.00
G1 X89.1440 Y56.5000 Z-4.0000 F1000.00
G1 X87.0227 Y56.5000 Z-4.0000 F1000.00
G1 X100.5000 Y69.9773 Z-4.0000 F1000.00
G3 X100.4637 Y71.7843 Z-4.0000 I-19.5604 J0.5114 F1000.00
G1 X100.4297 Y72.0283 Z-4.0000 F1000.00
G1 X84.9014 Y56.5000 Z-4.0000 F1000.00
G1 X82.7801 Y56.5000 Z-4.0000 F1000.00
G1 X100.0326 Y73.7525 Z-4.0000 F1000.00
G3 X99.3723 Y75.2135 Z-4.0000 I-6.3861 J-2.0065 F1000.00
G1 X80.6587 Y56.5000 Z-4.0000 F1000.00
G1 X78.5374 Y56.5000 Z-4.0000 F1000.00
G1 X98.5004 Y76.4629 Z-4.0000 F1000.00
G3 X97.4375 Y77.5214 Z-4.0000 I-4.9040 J-3.8611 F1000.00
G1 X76.4161 Y56.5000 Z-4.0000 F1000.00
G1 X76.1172 Y56.5000 Z-4.0000 F1000.00
G1 X75.9666 Y56.0505 Z-4.0000 F1000.00
G1 X70.9495 Y51.0334 Z-4.0000 F1000.00
G2 X68.3091 Y50.5143 Z-4.0000 I-2.8381 J7.4610 F1000.00
G1 X96.1837 Y78.3889 Z-4.0000 F1000.00
G3 X94.7177 Y79.0443 Z-4.0000 I-3.3166 J-5.4517 F1000.00
G1 X65.0172 Y49.3437 Z-4.0000 F1000.00
G1 X57.9903 Y44.4382 Z-4.0000 F1000.00
G1 X92.9875 Y79.4354 Z-4.0000 F1000.00
G3 X90.9308 Y79.5000 Z-4.0000 I-1.5221 J-15.6851 F1000.00
G1 X50.9635 Y39.5326 Z-4.0000 F1000.00
G1 X43.9366 Y34.6271 Z-4.0000 F1000.00
G1 X88.8095 Y79.5000 Z-4.0000 F1000.00
G1 X86.6882 Y79.5000 Z-4.0000 F1000.00
G1 X36.9097 Y29.7215 Z-4.0000 F1000.00
G1 X29.8828 Y24.8160 Z-4.0000 F1000.00
G1 X84.5669 Y79.5000 Z-4.0000 F1000.00
G1 X82.4455 Y79.5000 Z-4.0000 F1000.00
G1 X22.8560 Y19.9104 Z-4.0000 F1000.00
G1 X19.5000 Y17.5676 Z-4.0000 F1000.00
G1 X19.5000 Y16.5545 Z-4.0000 F1000.00
G1 X-3.3505 Y-6.2960 Z-4.0000 F1000.00
G2 X-4.5794 Y-5.4036 Z-4.0000 I3.5571 J6.1911 F1000.00
G1 X80.3242 Y79.5000 Z-4.0000 F1000.00
G1 X78.2029 Y79.5000 Z-4.0000 F1000.00
G1 X-5.6182 Y-4.3211 Z-4.0000 F1000.00
G2 X-6.4652 Y-3.0468 Z-4.0000 I5.0801 J4.2953 F1000.00
G1 X76.0816 Y79.5000 Z-4.0000 F1000.00
G1 X73.9603 Y79.5000 Z-4.0000 F1000.00
G1 X-7.0978 Y-1.5580 Z-4.0000 F1000.00
G2 X-7.4615 Y0.1996 Z-4.0000 I7.4709 J2.4624 F1000.00
G1 X71.8389 Y79.5000 Z-4.0000 F1000.00
G1 X69.7176 Y79.5000 Z-4.0000 F1000.00
G1 X-7.5000 Y2.2824 Z-4.0000 F1000.00
G1 X-7.5000 Y4.4037 Z-4.0000 F1000.00
G1 X67.5963 Y79.5000 Z-4.0000 F1000.00
G1 X65.4750 Y79.5000 Z-4.0000 F1000.00
G1 X-7.5000 Y6.5250 Z-4.0000 F1000.00
G1 X-7.5000 Y8.6463 Z-4.0000 F1000.00
G1 X63.3242 Y79.4706 Z-4.0000 F1000.00
G3 X60.4565 Y78.7242 Z-4.0000 I0.6389 J-8.3368 F1000.00
G1 X-7.5000 Y10.7677 Z-4.0000 F1000.00
G1 X-7.5000 Y12.8890 Z-4.0000 F1000.00
G1 X53.9876 Y74.3766 Z-4.0000 F1000.00
G1 X46.9608 Y69.4711 Z-4.0000 F1000.00
G1 X-7.5000 Y15.0103 Z-4.0000 F1000.00
G1 X-7.5000 Y17.1316 Z-4.0000 F1000.00
G1 X39.9339 Y64.5655 Z-4.0000 F1000.00
G1 X32.9070 Y59.6600 Z-4.0000 F1000.00
G1 X-7.5000 Y19.2529 Z-4.0000 F1000.00
G1 X-7.5000 Y21.3743 Z-4.0000 F1000.00
G1 X25.8802 Y54.7544 Z-4.0000 F1000.00
G1 X18.8533 Y49.8489 Z-4.0000 F1000.00
G1 X-7.5000 Y23.4956 Z-4.0000 F1000.00
G1 X-7.5000 Y25.6169 Z-4.0000 F1000.00
G1 X11.8264 Y44.9433 Z-4.0000 F1000.00
G1 X4.7995 Y40.0378 Z-4.0000 F1000.00
G1 X-7.4636 Y27.7746 Z-4.0000 F1000.00
G2 X-6.6452 Y30.7143 Z-4.0000 I8.1210 J-0.6771 F1000.00
G2 X-4.5121 Y33.4893 Z-4.0000 I7.4091 J-3.4880 F1000.00
G2 X-2.2273 Y35.1322 Z-4.0000 I18.2189 J-22.9269 F1000.00
G1 X-6.6452 Y30.7143 Z-4.0000 F1000.00
G0 X-6.6452 Y30.7143 Z5.0000
G0 X-3.3505 Y-6.2960 Z5.0000
G0 X-3.3505 Y-6.2960 Z-1.0000
G1 X-3.3505 Y-6.2960 Z-4.0000 F300.00
G1 X19.5000 Y16.5545 Z-4.0000 F1000.00
G1 X19.5000 Y14.4331 Z-4.0000 F1000.00
G1 X-1.9122 Y-6.9791 Z-4.0000 F1000.00
G3 X-0.2154 Y-7.4036 Z-4.0000 I2.5959 J6.7727 F1000.00
G1 X19.5000 Y12.3118 Z-4.0000 F1000.00
G1 X19.5000 Y10.1905 Z-4.0000 F1000.00
G1 X1.8095 Y-7.5000 Z-4.0000 F1000.00
G1 X3.9308 Y-7.5000 Z-4.0000 F1000.00
G1 X19.5000 Y8.0692 Z-4.0000 F1000.00
G1 X19.5000 Y5.9479 Z-4.0000 F1000.00
G1 X6.0521 Y-7.5000 Z-4.0000 F1000.00
G1 X8.1735 Y-7.5000 Z-4.0000 F1000.00
G1 X19.5000 Y3.8265 Z-4.0000 F1000.00
G1 X19.5000 Y1.7052 Z-4.0000 F1000.00
G1 X10.2948 Y-7.5000 Z-4.0000 F1000.00
G3 X12.5607 Y-7.3554 Z-4.0000 I0.3526 J12.3034 F1000.00
G1 X19.3554 Y-0.5607 Z-4.0000 F1000.00
G2 X12.5607 Y-7.3554 Z-4.0000 I-8.3552 J1.5604 F1000.00
G1 X12.5607 Y-7.3554 Z-4.5000 F300.00
G3 X19.3554 Y-0.5607 Z-4.5000 I-1.5604 J8.3552 F1000.00
G1 X12.5607 Y-7.3554 Z-4.5000 F1000.00
G2 X10.2948 Y-7.5000 Z-4.5000 I-1.9133 J12.1589 F1000.00
G1 X19.5000 Y1.7052 Z-4.5000 F1000.00
G1 X19.5000 Y3.8265 Z-4.5000 F1000.00
G1 X8.1735 Y-7.5000 Z-4.5000 F1000.00
G1 X6.0521 Y-7.5000 Z-4.5000 F1000.00
G1 X19.5000 Y5.9479 Z-4.5000 F1000.00
G1 X19.5000 Y8.0692 Z-4.5000 F1000.00
G1 X3.9308 Y-7.5000 Z-4.5000 F1000.00
G1 X1.8095 Y-7.5000 Z-4.5000 F1000.00
G1 X19.5000 Y10.1905 Z-4.5000 F1000.00
G1 X19.5000 Y12.3118 Z-4.5000 F1000.00
G1 X-0.2154 Y-7.4036 Z-4.5000 F1000.00
G2 X-1.9122 Y-6.9791 Z-4.5000 I0.8991 J7.1972 F1000.00
G1 X19.5000 Y14.4331 Z-4.5000 F1000.00
G1 X19.5000 Y16.5545 Z-4.5000 F1000.00
G1 X-3.3505 Y-6.2960 Z-4.5000 F1000.00
G0 X-3.3505 Y-6.2960 Z5.0000
G0 X-6.6452 Y30.7143 Z5.0000
G0 X-6.6452 Y30.7143 Z-1.5000
G1 X-6.6452 Y30.7143 Z-4.5000 F300.00
G1 X-2.2273 Y35.1322 Z-4.5000 F1000.00
G3 X-4.5121 Y33.4893 Z-4.5000 I15.9342 J-24.5698 F1000.00
G3 X-6.6452 Y30.7143 Z-4.5000 I5.2760 J-6.2630 F1000.00
G3 X-7.4636 Y27.7746 Z-4.5000 I7.3026 J-3.6169 F1000.00
G1 X4.7995 Y40.0378 Z-4.5000 F1000.00
G1 X11.8264 Y44.9433 Z-4.5000 F1000.00
G1 X-7.5000 Y25.6169 Z-4.5000 F1000.00
G1 X-7.5000 Y23.4956 Z-4.5000 F1000.00
G1 X18.8533 Y49.8489 Z-4.5000 F1000.00
G1 X25.8802 Y54.7544 Z-4.5000 F1000.00
G1 X-7.5000 Y21.3743 Z-4.5000 F1000.00
G1 X-7.5000 Y19.2529 Z-4.5000 F1000.00
G1 X32.9070 Y59.6600 Z-4.5000 F1000.00
G1 X39.9339 Y64.5655 Z-4.5000 F1000.00
G1 X-7.5000 Y17.1316 Z-4.5000 F1000.00
G1 X-7.5000 Y15.0103 Z-4.5000 F1000.00
G1 X46.9608 Y69.4711 Z-4.5000 F1000.00
G1 X53.9876 Y74.3766 Z-4.5000 F1000.00
G1 X-7.5000 Y12.8890 Z-4.5000 F1000.00
G1 X-7.5000 Y10.7677 Z-4.5000 F1000.00
G1 X60.4565 Y78.7242 Z-4.5000 F1000.00
G2 X63.3242 Y79.4706 Z-4.5000 I3.5066 J-7.5904 F1000.00
G1 X-7.5000 Y8.6463 Z-4.5000 F1000.00
G1 X-7.5000 Y6.5250 Z-4.5000 F1000.00
G1 X65.4750 Y79.5000 Z-4.5000 F1000.00
G1 X67.5963 Y79.5000 Z-4.5000 F1000.00
G1 X-7.5000 Y4.4037 Z-4.5000 F1000.00
G1 X-7.5000 Y2.2824 Z-4.5000 F1000.00
G1 X69.7176 Y79.5000 Z-4.5000 F1000.00
G1 X71.8389 Y79.5000 Z-4.5000 F1000.00
G1 X-7.4615 Y0.1996 Z-4.5000 F1000.00
G3 X-7.0978 Y-1.5580 Z-4.5000 I7.8346 J0.7047 F1000.00
G1 X73.9603 Y79.5000 Z-4.5000 F1000.00
G1 X76.0816 Y79.5000 Z-4.5000 F1000.00
G1 X-6.4652 Y-3.0468 Z-4.5000 F1000.00
G3 X-5.6182 Y-4.3211 Z-4.5000 I5.9271 J3.0210 F1000.00
G1 X78.2029 Y79.5000 Z-4.5000 F1000.00
G1 X80.3242 Y79.5000 Z-4.5000 F1000.00
G1 X-4.5794 Y-5.4036 Z-4.5000 F1000.00
G3 X-3.3505 Y-6.2960 Z-4.5000 I4.7861 J5.2987 F1000.00
G1 X19.5000 Y16.5545 Z-4.5000 F1000.00
G1 X19.5000 Y17.5676 Z-4.5000 F1000.00
G1 X22.8560 Y19.9104 Z-4.5000 F1000.00
G1 X82.4455 Y79.5000 Z-4.5000 F1000.00
G1 X84.5669 Y79.5000 Z-4.5000 F1000.00
G1 X29.8828 Y24.8160 Z-4.5000 F1000.00
G1 X36.9097 Y29.7215 Z-4.5000 F1000.00
G1 X86.6882 Y79.5000 Z-4.5000 F1000.00
G1 X88.8095 Y79.5000 Z-4.5000 F1000.00
G1 X43.9366 Y34.6271 Z-4.5000 F1000.00
G1 X50.9635 Y39.5326 Z-4.5000 F1000.00
G1 X90.9308 Y79.5000 Z-4.5000 F1000.00
G2 X92.9875 Y79.4354 Z-4.5000 I0.5346 J-15.7497 F1000.00
G1 X57.9903 Y44.4382 Z-4.5000 F1000.00
G1 X65.0172 Y49.3437 Z-4.5000 F1000.00
G1 X94.7177 Y79.0443 Z-4.5000 F1000.00
G2 X96.1837 Y78.3889 Z-4.5000 I-1.8507 J-6.1071 F1000.00
G1 X68.3091 Y50.5143 Z-4.5000 F1000.00
G3 X70.9495 Y51.0334 Z-4.5000 I-0.1977 J7.9801 F1000.00
G1 X75.9666 Y56.0505 Z-4.5000 F1000.00
G1 X76.1172 Y56.5000 Z-4.5000 F1000.00
G1 X76.4161 Y56.5000 Z-4.5000 F1000.00
G1 X97.4375 Y77.5214 Z-4.5000 F1000.00
G2 X98.5004 Y76.4629 Z-4.5000 I-3.8412 J-4.9196 F1000.00
G1 X78.5374 Y56.5000 Z-4.5000 F1000.00
G1 X80.6587 Y56.5000 Z-4.5000 F1000.00
G1 X99.3723 Y75.2135 Z-4.5000 F1000.00
G2 X100.0326 Y73.7525 Z-4.5000 I-5.7258 J-3.4675 F1000.00
G1 X82.7801 Y56.5000 Z-4.5000 F1000.00
G1 X84.9014 Y56.5000 Z-4.5000 F1000.00
G1 X100.4297 Y72.0283 Z-4.5000 F1000.00
G1 X100.4637 Y71.7843 Z-4.5000 F1000.00
G2 X100.5000 Y69.9773 Z-4.5000 I-19.5241 J-1.2956 F1000.00
G1 X87.0227 Y56.5000 Z-4.5000 F1000.00
G1 X89.1440 Y56.5000 Z-4.5000 F1000.00
G1 X100.5000 Y67.8560 Z-4.5000 F1000.00
G1 X100.5000 Y65.7347 Z-4.5000 F1000.00
G1 X91.2653 Y56.5000 Z-4.5000 F1000.00
G3 X93.5265 Y56.6398 Z-4.5000 I0.3673 J12.4153 F1000.00
G1 X100.3602 Y63.4735 Z-4.5000 F1000.00
G2 X97.7264 Y58.7184 Z-4.5000 I-8.3462 J1.5159 F1000.00
G0 X97.7264 Y58.7184 Z5.0000
G0 X75.9666 Y56.0505 Z5.0000
G0 X75.9666 Y56.0505 Z-1.5000
G1 X75.9666 Y56.0505 Z-4.5000 F300.00
G2 X70.9495 Y51.0334 Z-4.5000 I-7.9281 J2.9111 F1000.00
G1 X75.9666 Y56.0505 Z-4.5000 F1000.00
G1 X75.9666 Y56.0505 Z-5.0000 F300.00
G2 X70.9495 Y51.0334 Z-5.0000 I-7.9281 J2.9111 F1000.00
G1 X75.9666 Y56.0505 Z-5.0000 F1000.00
G0 X75.9666 Y56.0505 Z5.0000
G0 X97.7264 Y58.7184 Z5.0000
G0 X97.7264 Y58.7184 Z-2.0000
G1 X97.7264 Y58.7184 Z-5.0000 F300.00
G3 X100.3602 Y63.4735 Z-5.0000 I-5.7124 J6.2710 F1000.00
G1 X93.5265 Y56.6398 Z-5.0000 F1000.00
G2 X91.2653 Y56.5000 Z-5.0000 I-1.8938 J12.2755 F1000.00
G1 X100.5000 Y65.7347 Z-5.0000 F1000.00
G1 X100.5000 Y67.8560 Z-5.0000 F1000.00
G1 X89.1440 Y56.5000 Z-5.0000 F1000.00
G1 X87.0227 Y56.5000 Z-5.0000 F1000.00
G1 X100.5000 Y69.9773 Z-5.0000 F1000.00
G3 X100.4637 Y71.7843 Z-5.0000 I-19.5604 J0.5114 F1000.00
G1 X100.4297 Y72.0283 Z-5.0000 F1000.00
G1 X84.9014 Y56.5000 Z-5.0000 F1000.00
G1 X82.7801 Y56.5000 Z-5.0000 F1000.00
G1 X100.0326 Y73.7525 Z-5.0000 F1000.00
G3 X99.3723 Y75.2135 Z-5.0000 I-6.3861 J-2.0065 F1000.00
G1 X80.6587 Y56.5000 Z-5.0000 F1000.00
G1 X78.5374 Y56.5000 Z-5.0000 F1000.00
G1 X98.5004 Y76.4629 Z-5.0000 F1000.00
G3 X97.4375 Y77.5214 Z-5.0000 I-4.9040 J-3.8611 F1000.00
G1 X76.4161 Y56.5000 Z-5.0000 F1000.00
G1 X76.1172 Y56.5000 Z-5.0000 F1000.00
G1 X75.9666 Y56.0505 Z-5.0000 F1000.00
G1 X70.9495 Y51.0334 Z-5.0000 F1000.00
G2 X68.3091 Y50.5143 Z-5.0000 I-2.8381 J7.4610 F1000.00
G1 X96.1837 Y78.3889 Z-5.0000 F1000.00
G3 X94.7177 Y79.0443 Z-5.0000 I-3.3166 J-5.4517 F1000.00
G1 X65.0172 Y49.3437 Z-5.0000 F1000.00
G1 X57.9903 Y44.4382 Z-5.0000 F1000.00
G1 X92.9875 Y79.4354 Z-5.0000 F1000.00
G3 X90.9308 Y79.5000 Z-5.0000 I-1.5221 J-15.6851 F1000.00
G1 X50.9635 Y39.5326 Z-5.0000 F1000.00
G1 X43.9366 Y34.6271 Z-5.0000 F1000.00
G1 X88.8095 Y79.5000 Z-5.0000 F1000.00
G1 X86.6882 Y79.5000 Z-5.0000 F1000.00
G1 X36.9097 Y29.7215 Z-5.0000 F1000.00
G1 X29.8828 Y24.8160 Z-5.0000 F1000.00
G1 X84.5669 Y79.5000 Z-5.0000 F1000.00
G1 X82.4455 Y79.5000 Z-5.0000 F1000.00
G1 X22.8560 Y19.9104 Z-5.0000 F1000.00
G1 X19.5000 Y17.5676 Z-5.0000 F1000.00
G1 X19.5000 Y16.5545 Z-5.0000 F1000.00
G1 X-3.3505 Y-6.2960 Z-5.0000 F1000.00
G2 X-4.5794 Y-5.4036 Z-5.0000 I3.5571 J6.1911 F1000.00
G1 X80.3242 Y79.5000 Z-5.0000 F1000.00
G1 X78.2029 Y79.5000 Z-5.0000 F1000.00
G1 X-5.6182 Y-4.3211 Z-5.0000 F1000.00
G2 X-6.4652 Y-3.0468 Z-5.0000 I5.0801 J4.2953 F1000.00
G1 X76.0816 Y79.5000 Z-5.0000 F1000.00
G1 X73.9603 Y79.5000 Z-5.0000 F1000.00
G1 X-7.0978 Y-1.5580 Z-5.0000 F1000.00
G2 X-7.4615 Y0.1996 Z-5.0000 I7.4709 J2.4624 F1000.00
G1 X71.8389 Y79.5000 Z-5.0000 F1000.00
G1 X69.7176 Y79.5000 Z-5.0000 F1000.00
G1 X-7.5000 Y2.2824 Z-5.0000 F1000.00
G1 X-7.5000 Y4.4037 Z-5.0000 F1000.00
G1 X67.5963 Y79.5000 Z-5.0000 F1000.00
G1 X65.4750 Y79.5000 Z-5.0000 F1000.00
G1 X-7.5000 Y6.5250 Z-5.0000 F1000.00
G1 X-7.5000 Y8.6463 Z-5.0000 F1000.00
G1 X63.3242 Y79.4706 Z-5.0000 F1000.00
G3 X60.4565 Y78.7242 Z-5.0000 I0.6389 J-8.3368 F1000.00
G1 X-7.5000 Y10.7677 Z-5.0000 F1000.00
G1 X-7.5000 Y12.8890 Z-5.0000 F1000.00
G1 X53.9876 Y74.3766 Z-5.0000 F1000.00
G1 X46.9608 Y69.4711 Z-5.0000 F1000.00
G1 X-7.5000 Y15.0103 Z-5.0000 F1000.00
G1 X-7.5000 Y17.1316 Z-5.0000 F1000.00
G1 X39.9339 Y64.5655 Z-5.0000 F1000.00
G1 X32.9070 Y59.6600 Z-5.0000 F1000.00
G1 X-7.5000 Y19.2529 Z-5.0000 F1000.00
G1 X-7.5000 Y21.3743 Z-5.0000 F1000.00
G1 X25.8802 Y54.7544 Z-5.0000 F1000.00
G1 X18.8533 Y49.8489 Z-5.0000 F1000.00
G1 X-7.5000 Y23.4956 Z-5.0000 F1000.00
G1 X-7.5000 Y25.6169 Z-5.0000 F1000.00
G1 X11.8264 Y44.9433 Z-5.0000 F1000.00
G1 X4.7995 Y40.0378 Z-5.0000 F1000.00
G1 X-7.4636 Y27.7746 Z-5.0000 F1000.00
G2 X-6.6452 Y30.7143 Z-5.0000 I8.1210 J-0.6771 F1000.00
G2 X-4.5121 Y33.4893 Z-5.0000 I7.4091 J-3.4880 F1000.00
G2 X-2.2273 Y35.1322 Z-5.0000 I18.2189 J-22.9269 F1000.00
G1 X-6.6452 Y30.7143 Z-5.0000 F1000.00
G0 X-6.6452 Y30.7143 Z5.0000
G0 X-3.3505 Y-6.2960 Z5.0000
G0 X-3.3505 Y-6.2960 Z-2.0000
G1 X-3.3505 Y-6.2960 Z-5.0000 F300.00
G1 X19.5000 Y16.5545 Z-5.0000 F1000.00
G1 X19.5000 Y14.4331 Z-5.0000 F1000.00
G1 X-1.9122 Y-6.9791 Z-5.0000 F1000.00
G3 X-0.2154 Y-7.4036 Z-5.0000 I2.5959 J6.7727 F1000.00
G1 X19.5000 Y12.3118 Z-5.0000 F1000.00
G1 X19.5000 Y10.1905 Z-5.0000 F1000.00
G1 X1.8095 Y-7.5000 Z-5.0000 F1000.00
G1 X3.9308 Y-7.5000 Z-5.0000 F1000.00
G1 X19.5000 Y8.0692 Z-5.0000 F1000.00
G1 X19.5000 Y5.9479 Z-5.0000 F1000.00
G1 X6.0521 Y-7.5000 Z-5.0000 F1000.00
G1 X8.1735 Y-7.5000 Z-5.0000 F1000.00
G1 X19.5000 Y3.8265 Z-5.0000 F1000.00
G1 X19.5000 Y1.7052 Z-5.0000 F1000.00
G1 X10.2948 Y-7.5000 Z-5.0000 F1000.00
G3 X12.5607 Y-7.3554 Z-5.0000 I0.3526 J12.3034 F1000.00
G1 X19.3554 Y-0.5607 Z-5.0000 F1000.00
G2 X12.5607 Y-7.3554 Z-5.0000 I-8.3552 J1.5604 F1000.00
G1 X12.5607 Y-7.3554 Z-5.5000 F300.00
G3 X19.3554 Y-0.5607 Z-5.5000 I-1.5604 J8.3552 F1000.00
G1 X12.5607 Y-7.3554 Z-5.5000 F1000.00
G2 X10.2948 Y-7.5000 Z-5.5000 I-1.9133 J12.1589 F1000.00
G1 X19.5000 Y1.7052 Z-5.5000 F1000.00
G1 X19.5000 Y3.8265 Z-5.5000 F1000.00
G1 X8.1735 Y-7.5000 Z-5.5000 F1000.00
G1 X6.0521 Y-7.5000 Z-5.5000 F1000.00
G1 X19.5000 Y5.9479 Z-5.5000 F1000.00
G1 X19.5000 Y8.0692 Z-5.5000 F1000.00
G1 X3.9308 Y-7.5000 Z-5.5000 F1000.00
G1 X1.8095 Y-7.5000 Z-5.5000 F1000.00
G1 X19.5000 Y10.1905 Z-5.5000 F1000.00
G1 X19.5000 Y12.3118 Z-5.5000 F1000.00
G1 X-0.2154 Y-7.4036 Z-5.5000 F1000.00
G2 X-1.9122 Y-6.9791 Z-5.5000 I0.8991 J7.1972 F1000.00
G1 X19.5000 Y14.4331 Z-5.5000 F1000.00
G1 X19.5000 Y16.5545 Z-5.5000 F1000.00
G1 X-3.3505 Y-6.2960 Z-5.5000 F1000.00
G0 X-3.3505 Y-6.2960 Z5.0000
G0 X-6.6452 Y30.7143 Z5.0000
G0 X-6.6452 Y30.7143 Z-2.5000
G1 X-6.6452 Y30.7143 Z-5.5000 F300.00
G1 X-2.2273 Y35.1322 Z-5.5000 F1000.00
G3 X-4.5121 Y33.4893 Z-5.5000 I15.9342 J-24.5698 F1000.00
G3 X-6.6452 Y30.7143 Z-5.5000 I5.2760 J-6.2630 F1000.00
G3 X-7.4636 Y27.7746 Z-5.5000 I7.3026 J-3.6169 F1000.00
G1 X4.7995 Y40.0378 Z-5.5000 F1000.00
G1 X11.8264 Y44.9433 Z-5.5000 F1000.00
G1 X-7.5000 Y25.6169 Z-5.5000 F1000.00
G1 X-7.5000 Y23.4956 Z-5.5000 F1000.00
G1 X18.8533 Y49.8489 Z-5.5000 F1000.00
G1 X25.8802 Y54.7544 Z-5.5000 F1000.00
G1 X-7.5000 Y21.3743 Z-5.5000 F1000.00
G1 X-7.5000 Y19.2529 Z-5.5000 F1000.00
G1 X32.9070 Y59.6600 Z-5.5000 F1000.00
G1 X39.9339 Y64.5655 Z-5.5000 F1000.00
G1 X-7.5000 Y17.1316 Z-5.5000 F1000.00
G1 X-7.5000 Y15.0103 Z-5.5000 F1000.00
G1 X46.9608 Y69.4711 Z-5.5000 F1000.00
G1 X53.9876 Y74.3766 Z-5.5000 F1000.00
G1 X-7.5000 Y12.8890 Z-5.5000 F1000.00
G1 X-7.5000 Y10.7677 Z-5.5000 F1000.00
G1 X60.4565 Y78.7242 Z-5.5000 F1000.00
G2 X63.3242 Y79.4706 Z-5.5000 I3.5066 J-7.5904 F1000.00
G1 X-7.5000 Y8.6463 Z-5.5000 F1000.00
G1 X-7.5000 Y6.5250 Z-5.5000 F1000.00
G1 X65.4750 Y79.5000 Z-5.5000 F1000.00
G1 X67.5963 Y79.5000 Z-5.5000 F1000.00
G1 X-7.5000 Y4.4037 Z-5.5000 F1000.00
G1 X-7.5000 Y2.2824 Z-5.5000 F1000.00
G1 X69.7176 Y79.5000 Z-5.5000 F1000.00
G1 X71.8389 Y79.5000 Z-5.5000 F1000.00
G1 X-7.4615 Y0.1996 Z-5.5000 F1000.00
G3 X-7.0978 Y-1.5580 Z-5.5000 I7.8346 J0.7047 F1000.00
G1 X73.9603 Y79.5000 Z-5.5000 F1000.00
G1 X76.0816 Y79.5000 Z-5.5000 F1000.00
G1 X-6.4652 Y-3.0468 Z-5.5000 F1000.00
G3 X-5.6182 Y-4.3211 Z-5.5000 I5.9271 J3.0210 F1000.00
G1 X78.2029 Y79.5000 Z-5.5000 F1000.00
G1 X80.3242 Y79.5000 Z-5.5000 F1000.00
G1 X-4.5794 Y-5.4036 Z-5.5000 F1000.00
G3 X-3.3505 Y-6.2960 Z-5.5000 I4.7861 J5.2987 F1000.00
G1 X19.5000 Y16.5545 Z-5.5000 F1000.00
G1 X19.5000 Y17.5676 Z-5.5000 F1000.00
G1 X22.8560 Y19.9104 Z-5.5000 F1000.00
G1 X82.4455 Y79.5000 Z-5.5000 F1000.00
G1 X84.5669 Y79.5000 Z-5.5000 F1000.00
G1 X29.8828 Y24.8160 Z-5.5000 F1000.00
G1 X36.9097 Y29.7215 Z-5.5000 F1000.00
G1 X86.6882 Y79.5000 Z-5.5000 F1000.00
G1 X88.8095 Y79.5000 Z-5.5000 F1000.00
G1 X43.9366 Y34.6271 Z-5.5000 F1000.00
G1 X50.9635 Y39.5326 Z-5.5000 F1000.00
G1 X90.9308 Y79.5000 Z-5.5000 F1000.00
G2 X92.9875 Y79.4354 Z-5.5000 I0.5346 J-15.7497 F1000.00
G1 X57.9903 Y44.4382 Z-5.5000 F1000.00
G1 X65.0172 Y49.3437 Z-5.5000 F1000.00
G1 X94.7177 Y79.0443 Z-5.5000 F1000.00
G2 X96.1837 Y78.3889 Z-5.5000 I-1.8507 J-6.1071 F1000.00
G1 X68.3091 Y50.5143 Z-5.5000 F1000.00
G3 X70.9495 Y51.0334 Z-5.5000 I-0.1977 J7.9801 F1000.00
G1 X75.9666 Y56.0505 Z-5.5000 F1000.00
G1 X76.1172 Y56.5000 Z-5.5000 F1000.00
G1 X76.4161 Y56.5000 Z-5.5000 F1000.00
G1 X97.4375 Y77.5214 Z-5.5000 F1000.00
G2 X98.5004 Y76.4629 Z-5.5000 I-3.8412 J-4.9196 F1000.00
G1 X78.5374 Y56.5000 Z-5.5000 F1000.00
G1 X80.6587 Y56.5000 Z-5.5000 F1000.00
G1 X99.3723 Y75.2135 Z-5.5000 F1000.00
G2 X100.0326 Y73.7525 Z-5.5000 I-5.7258 J-3.4675 F1000.00
G1 X82.7801 Y56.5000 Z-5.5000 F1000.00
G1 X84.9014 Y56.5000 Z-5.5000 F1000.00
G1 X100.4297 Y72.0283 Z-5.5000 F1000.00
G1 X100.4637 Y71.7843 Z-5.5000 F1000.00
G2 X100.5000 Y69.9773 Z-5.5000 I-19.5241 J-1.2956 F1000.00
G1 X87.0227 Y56.5000 Z-5.5000 F1000.00
G1 X89.1440 Y56.5000 Z-5.5000 F1000.00
G1 X100.5000 Y67.8560 Z-5.5000 F1000.00
G1 X100.5000 Y65.7347 Z-5.5000 F1000.00
G1 X91.2653 Y56.5000 Z-5.5000 F1000.00
G3 X93.5265 Y56.6398 Z-5.5000 I0.3673 J12.4153 F1000.00
G1 X100.3602 Y63.4735 Z-5.5000 F1000.00
G2 X97.7264 Y58.7184 Z-5.5000 I-8.3462 J1.5159 F1000.00
G0 X97.7264 Y58.7184 Z5.0000
G0 X75.9666 Y56.0505 Z5.0000
G0 X75.9666 Y56.0505 Z-2.5000
G1 X75.9666 Y56.0505 Z-5.5000 F300.00
G2 X70.9495 Y51.0334 Z-5.5000 I-7.9281 J2.9111 F1000.00
G1 X75.9666 Y56.0505 Z-5.5000 F1000.00
G1 X75.9666 Y56.0505 Z-6.0000 F300.00
G2 X70.9495 Y51.0334 Z-6.0000 I-7.9281 J2.9111 F1000.00
G1 X75.9666 Y56.0505 Z-6.0000 F1000.00
G0 X75.9666 Y56.0505 Z5.0000
G0 X97.7264 Y58.7184 Z5.0000
G0 X97.7264 Y58.7184 Z-3.0000
G1 X97.7264 Y58.7184 Z-6.0000 F300.00
G3 X100.3602 Y63.4735 Z-6.0000 I-5.7124 J6.2710 F1000.00
G1 X93.5265 Y56.6398 Z-6.0000 F1000.00
G2 X91.2653 Y56.5000 Z-6.0000 I-1.8938 J12.2755 F1000.00
G1 X100.5000 Y65.7347 Z-6.0000 F1000.00
G1 X100.5000 Y67.8560 Z-6.0000 F1000.00
G1 X89.1440 Y56.5000 Z-6.0000 F1000.00
G1 X87.0227 Y56.5000 Z-6.0000 F1000.00
G1 X100.5000 Y69.9773 Z-6.0000 F1000.00
G3 X100.4637 Y71.7843 Z-6.0000 I-19.5604 J0.5114 F1000.00
G1 X100.4297 Y72.0283 Z-6.0000 F1000.00
G1 X84.9014 Y56.5000 Z-6.0000 F1000.00
G1 X82.7801 Y56.5000 Z-6.0000 F1000.00
G1 X100.0326 Y73.7525 Z-6.0000 F1000.00
G3 X99.3723 Y75.2135 Z-6.0000 I-6.3861 J-2.0065 F1000.00
G1 X80.6587 Y56.5000 Z-6.0000 F1000.00
G1 X78.5374 Y56.5000 Z-6.0000 F1000.00
G1 X98.5004 Y76.4629 Z-6.0000 F1000.00
G3 X97.4375 Y77.5214 Z-6.0000 I-4.9040 J-3.8611 F1000.00
G1 X76.4161 Y56.5000 Z-6.0000 F1000.00
G1 X76.1172 Y56.5000 Z-6.0000 F1000.00
G1 X75.9666 Y56.0505 Z-6.0000 F1000.00
G1 X70.9495 Y51.0334 Z-6.0000 F1000.00
G2 X68.3091 Y50.5143 Z-6.0000 I-2.8381 J7.4610 F1000.00
G1 X96.1837 Y78.3889 Z-6.0000 F1000.00
G3 X94.7177 Y79.0443 Z-6.0000 I-3.3166 J-5.4517 F1000.00
G1 X65.0172 Y49.3437 Z-6.0000 F1000.00
G1 X57.9903 Y44.4382 Z-6.0000 F1000.00
G1 X92.9875 Y79.4354 Z-6.0000 F1000.00
G3 X90.9308 Y79.5000 Z-6.0000 I-1.5221 J-15.6851 F1000.00
G1 X50.9635 Y39.5326 Z-6.0000 F1000.00
G1 X43.9366 Y34.6271 Z-6.0000 F1000.00
G1 X88.8095 Y79.5000 Z-6.0000 F1000.00
G1 X86.6882 Y79.5000 Z-6.0000 F1000.00
G1 X36.9097 Y29.7215 Z-6.0000 F1000.00
G1 X29.8828 Y24.8160 Z-6.0000 F1000.00
G1 X84.5669 Y79.5000 Z-6.0000 F1000.00
G1 X82.4455 Y79.5000 Z-6.0000 F1000.00
G1 X22.8560 Y19.9104 Z-6.0000 F1000.00
G1 X19.5000 Y17.5676 Z-6.0000 F1000.00
G1 X19.5000 Y16.5545 Z-6.0000 F1000.00
G1 X-3.3505 Y-6.2960 Z-6.0000 F1000.00
G2 X-4.5794 Y-5.4036 Z-6.0000 I3.5571 J6.1911 F1000.00
G1 X80.3242 Y79.5000 Z-6.0000 F1000.00
G1 X78.2029 Y79.5000 Z-6.0000 F1000.00
G1 X-5.6182 Y-4.3211 Z-6.0000 F1000.00
G2 X-6.4652 Y-3.0468 Z-6.0000 I5.0801 J4.2953 F1000.00
G1 X76.0816 Y79.5000 Z-6.0000 F1000.00
G1 X73.9603 Y79.5000 Z-6.0000 F1000.00
G1 X-7.0978 Y-1.5580 Z-6.0000 F1000.00
G2 X-7.4615 Y0.1996 Z-6.0000 I7.4709 J2.4624 F1000.00
G1 X71.8389 Y79.5000 Z-6.0000 F1000.00
G1 X69.7176 Y79.5000 Z-6.0000 F1000.00
G1 X-7.5000 Y2.2824 Z-6.0000 F1000.00
G1 X-7.5000 Y4.4037 Z-6.0000 F1000.00
G1 X67.5963 Y79.5000 Z-6.0000 F1000.00
G1 X65.4750 Y79.5000 Z-6.0000 F1000.00
G1 X-7.5000 Y6.5250 Z-6.0000 F1000.00
G1 X-7.5000 Y8.6463 Z-6.0000 F1000.00
G1 X63.3242 Y79.4706 Z-6.0000 F1000.00
G3 X60.4565 Y78.7242 Z-6.0000 I0.6389 J-8.3368 F1000.00
G1 X-7.5000 Y10.7677 Z-6.0000 F1000.00
G1 X-7.5000 Y12.8890 Z-6.0000 F1000.00
G1 X53.9876 Y74.3766 Z-6.0000 F1000.00
G1 X46.9608 Y69.4711 Z-6.0000 F1000.00
G1 X-7.5000 Y15.0103 Z-6.0000 F1000.00
G1 X-7.5000 Y17.1316 Z-6.0000 F1000.00
G1 X39.9339 Y64.5655 Z-6.0000 F1000.00
G1 X32.9070 Y59.6600 Z-6.0000 F1000.00
G1 X-7.5000 Y19.2529 Z-6.0000 F1000.00
G1 X-7.5000 Y21.3743 Z-6.0000 F1000.00
G1 X25.8802 Y54.7544 Z-6.0000 F1000.00
G1 X18.8533 Y49.8489 Z-6.0000 F1000.00
G1 X-7.5000 Y23.4956 Z-6.0000 F1000.00
G1 X-7.5000 Y25.6169 Z-6.0000 F1000.00
G1 X11.8264 Y44.9433 Z-6.0000 F1000.00
G1 X4.7995 Y40.0378 Z-6.0000 F1000.00
G1 X-7.4636 Y27.7746 Z-6.0000 F1000.00
G2 X-6.6452 Y30.7143 Z-6.0000 I8.1210 J-0.6771 F1000.00
G2 X-4.5121 Y33.4893 Z-6.0000 I7.4091 J-3.4880 F1000.00
G2 X-2.2273 Y35.1322 Z-6.0000 I18.2189 J-22.9269 F1000.00
G1 X-6.6452 Y30.7143 Z-6.0000 F1000.00
G0 X-6.6452 Y30.7143 Z5.0000
G0 X-3.3505 Y-6.2960 Z5.0000
G0 X-3.3505 Y-6.2960 Z-3.0000
G1 X-3.3505 Y-6.2960 Z-6.0000 F300.00
G1 X19.5000 Y16.5545 Z-6.0000 F1000.00
G1 X19.5000 Y14.4331 Z-6.0000 F1000.00
G1 X-1.9122 Y-6.9791 Z-6.0000 F1000.00
G3 X-0.2154 Y-7.4036 Z-6.0000 I2.5959 J6.7727 F1000.00
G1 X19.5000 Y12.3118 Z-6.0000 F1000.00
G1 X19.5000 Y10.1905 Z-6.0000 F1000.00
G1 X1.8095 Y-7.5000 Z-6.0000 F1000.00
G1 X3.9308 Y-7.5000 Z-6.0000 F1000.00
G1 X19.5000 Y8.0692 Z-6.0000 F1000.00
G1 X19.5000 Y5.9479 Z-6.0000 F1000.00
G1 X6.0521 Y-7.5000 Z-6.0000 F1000.00
G1 X8.1735 Y-7.5000 Z-6.0000 F1000.00
G1 X19.5000 Y3.8265 Z-6.0000 F1000.00
G1 X19.5000 Y1.7052 Z-6.0000 F1000.00
G1 X10.2948 Y-7.5000 Z-6.0000 F1000.00
G3 X12.5607 Y-7.3554 Z-6.0000 I0.3526 J12.3034 F1000.00
G1 X19.3554 Y-0.5607 Z-6.0000 F1000.00
G2 X12.5607 Y-7.3554 Z-6.0000 I-8.3552 J1.5604 F1000.00
G1 X12.5607 Y-7.3554 Z-6.5000 F300.00
G3 X19.3554 Y-0.5607 Z-6.5000 I-1.5604 J8.3552 F1000.00
G1 X12.5607 Y-7.3554 Z-6.5000 F1000.00
G2 X10.2948 Y-7.5000 Z-6.5000 I-1.9133 J12.1589 F1000.00
G1 X19.5000 Y1.7052 Z-6.5000 F1000.00
G1 X19.5000 Y3.8265 Z-6.5000 F1000.00
G1 X8.1735 Y-7.5000 Z-6.5000 F1000.00
G1 X6.0521 Y-7.5000 Z-6.5000 F1000.00
G1 X19.5000 Y5.9479 Z-6.5000 F1000.00
G1 X19.5000 Y8.0692 Z-6.5000 F1000.00
G1 X3.9308 Y-7.5000 Z-6.5000 F1000.00
G1 X1.8095 Y-7.5000 Z-6.5000 F1000.00
G1 X19.5000 Y10.1905 Z-6.5000 F1000.00
G1 X19.5000 Y12.3118 Z-6.5000 F1000.00
G1 X-0.2154 Y-7.4036 Z-6.5000 F1000.00
G2 X-1.9122 Y-6.9791 Z-6.5000 I0.8991 J7.1972 F1000.00
G1 X19.5000 Y14.4331 Z-6.5000 F1000.00
G1 X19.5000 Y16.5545 Z-6.5000 F1000.00
G1 X-3.3505 Y-6.2960 Z-6.5000 F1000.00
G0 X-3.3505 Y-6.2960 Z5.0000
G0 X-6.6452 Y30.7143 Z5.0000
G0 X-6.6452 Y30.7143 Z-3.5000
G1 X-6.6452 Y30.7143 Z-6.5000 F300.00
G1 X-2.2273 Y35.1322 Z-6.5000 F1000.00
G3 X-4.5121 Y33.4893 Z-6.5000 I15.9342 J-24.5698 F1000.00
G3 X-6.6452 Y30.7143 Z-6.5000 I5.2760 J-6.2630 F1000.00
G3 X-7.4636 Y27.7746 Z-6.5000 I7.3026 J-3.6169 F1000.00
G1 X4.7995 Y40.0378 Z-6.5000 F1000.00
G1 X11.8264 Y44.9433 Z-6.5000 F1000.00
G1 X-7.5000 Y25.6169 Z-6.5000 F1000.00
G1 X-7.5000 Y23.4956 Z-6.5000 F1000.00
G1 X18.8533 Y49.8489 Z-6.5000 F1000.00
G1 X25.8802 Y54.7544 Z-6.5000 F1000.00
G1 X-7.5000 Y21.3743 Z-6.5000 F1000.00
G1 X-7.5000 Y19.2529 Z-6.5000 F1000.00
G1 X32.9070 Y59.6600 Z-6.5000 F1000.00
G1 X39.9339 Y64.5655 Z-6.5000 F1000.00
G1 X-7.5000 Y17.1316 Z-6.5000 F1000.00
G1 X-7.5000 Y15.0103 Z-6.5000 F1000.00
G1 X46.9608 Y69.4711 Z-6.5000 F1000.00
G1 X53.9876 Y74.3766 Z-6.5000 F1000.00
G1 X-7.5000 Y12.8890 Z-6.5000 F1000.00
G1 X-7.5000 Y10.7677 Z-6.5000 F1000.00
G1 X60.4565 Y78.7242 Z-6.5000 F1000.00
G2 X63.3242 Y79.4706 Z-6.5000 I3.5066 J-7.5904 F1000.00
G1 X-7.5000 Y8.6463 Z-6.5000 F1000.00
G1 X-7.5000 Y6.5250 Z-6.5000 F1000.00
G1 X65.4750 Y79.5000 Z-6.5000 F1000.00
G1 X67.5963 Y79.5000 Z-6.5000 F1000.00
G1 X-7.5000 Y4.4037 Z-6.5000 F1000.00
G1 X-7.5000 Y2.2824 Z-6.5000 F1000.00
G1 X69.7176 Y79.5000 Z-6.5000 F1000.00
G1 X71.8389 Y79.5000 Z-6.5000 F1000.00
G1 X-7.4615 Y0.1996 Z-6.5000 F1000.00
G3 X-7.0978 Y-1.5580 Z-6.5000 I7.8346 J0.7047 F1000.00
G1 X73.9603 Y79.5000 Z-6.5000 F1000.00
G1 X76.0816 Y79.5000 Z-6.5000 F1000.00
G1 X-6.4652 Y-3.0468 Z-6.5000 F1000.00
G3 X-5.6182 Y-4.3211 Z-6.5000 I5.9271 J3.0210 F1000.00
G1 X78.2029 Y79.5000 Z-6.5000 F1000.00
G1 X80.3242 Y79.5000 Z-6.5000 F1000.00
G1 X-4.5794 Y-5.4036 Z-6.5000 F1000.00
G3 X-3.3505 Y-6.2960 Z-6.5000 I4.7861 J5.2987 F1000.00
G1 X19.5000 Y16.5545 Z-6.5000 F1000.00
G1 X19.5000 Y17.5676 Z-6.5000 F1000.00
G1 X22.8560 Y19.9104 Z-6.5000 F1000.00
G1 X82.4455 Y79.5000 Z-6.5000 F1000.00
G1 X84.5669 Y79.5000 Z-6.5000 F1000.00
G1 X29.8828 Y24.8160 Z-6.5000 F1000.00
G1 X36.9097 Y29.7215 Z-6.5000 F1000.00
G1 X86.6882 Y79.5000 Z-6.5000 F1000.00
G1 X88.8095 Y79.5000 Z-6.5000 F1000.00
G1 X43.9366 Y34.6271 Z-6.5000 F1000.00
G1 X50.9635 Y39.5326 Z-6.5000 F1000.00
G1 X90.9308 Y79.5000 Z-6.5000 F1000.00
G2 X92.9875 Y79.4354 Z-6.5000 I0.5346 J-15.7497 F1000.00
G1 X57.9903 Y44.4382 Z-6.5000 F1000.00
G1 X65.0172 Y49.3437 Z-6.5000 F1000.00
G1 X94.7177 Y79.0443 Z-6.5000 F1000.00
G2 X96.1837 Y78.3889 Z-6.5000 I-1.8507 J-6.1071 F1000.00
G1 X68.3091 Y50.5143 Z-6.5000 F1000.00
G3 X70.9495 Y51.0334 Z-6.5000 I-0.1977 J7.9801 F1000.00
G1 X75.9666 Y56.0505 Z-6.5000 F1000.00
G1 X76.1172 Y56.5000 Z-6.5000 F1000.00
G1 X76.4161 Y56.5000 Z-6.5000 F1000.00
G1 X97.4375 Y77.5214 Z-6.5000 F1000.00
G2 X98.5004 Y76.4629 Z-6.5000 I-3.8412 J-4.9196 F1000.00
G1 X78.5374 Y56.5000 Z-6.5000 F1000.00
G1 X80.6587 Y56.5000 Z-6.5000 F1000.00
G1 X99.3723 Y75.2135 Z-6.5000 F1000.00
G2 X100.0326 Y73.7525 Z-6.5000 I-5.7258 J-3.4675 F1000.00
G1 X82.7801 Y56.5000 Z-6.5000 F1000.00
G1 X84.9014 Y56.5000 Z-6.5000 F1000.00
G1 X100.4297 Y72.0283 Z-6.5000 F1000.00
G1 X100.4637 Y71.7843 Z-6.5000 F1000.00
G2 X100.5000 Y69.9773 Z-6.5000 I-19.5241 J-1.2956 F1000.00
G1 X87.0227 Y56.5000 Z-6.5000 F1000.00
G1 X89.1440 Y56.5000 Z-6.5000 F1000.00
G1 X100.5000 Y67.8560 Z-6.5000 F1000.00
G1 X100.5000 Y65.7347 Z-6.5000 F1000.00
G1 X91.2653 Y56.5000 Z-6.5000 F1000.00
G3 X93.5265 Y56.6398 Z-6.5000 I0.3673 J12.4153 F1000.00
G1 X100.3602 Y63.4735 Z-6.5000 F1000.00
G2 X97.7264 Y58.7184 Z-6.5000 I-8.3462 J1.5159 F1000.00
G0 X97.7264 Y58.7184 Z5.0000
G0 X75.9666 Y56.0505 Z5.0000
G0 X75.9666 Y56.0505 Z-3.5000
G1 X75.9666 Y56.0505 Z-6.5000 F300.00
G2 X70.9495 Y51.0334 Z-6.5000 I-7.9281 J2.9111 F1000.00
G1 X75.9666 Y56.0505 Z-6.5000 F1000.00
G1 X75.9666 Y56.0505 Z-7.0000 F300.00
G2 X70.9495 Y51.0334 Z-7.0000 I-7.9281 J2.9111 F1000.00
G1 X75.9666 Y56.0505 Z-7.0000 F1000.00
G0 X75.9666 Y56.0505 Z5.0000
G0 X97.7264 Y58.7184 Z5.0000
G0 X97.7264 Y58.7184 Z-4.0000
G1 X97.7264 Y58.7184 Z-7.0000 F300.00
G3 X100.3602 Y63.4735 Z-7.0000 I-5.7124 J6.2710 F1000.00
G1 X93.5265 Y56.6398 Z-7.0000 F1000.00
G2 X91.2653 Y56.5000 Z-7.0000 I-1.8938 J12.2755 F1000.00
G1 X100.5000 Y65.7347 Z-7.0000 F1000.00
G1 X100.5000 Y67.8560 Z-7.0000 F1000.00
G1 X89.1440 Y56.5000 Z-7.0000 F1000.00
G1 X87.0227 Y56.5000 Z-7.0000 F1000.00
G1 X100.5000 Y69.9773 Z-7.0000 F1000.00
G3 X100.4637 Y71.7843 Z-7.0000 I-19.5604 J0.5114 F1000.00
G1 X100.4297 Y72.0283 Z-7.0000 F1000.00
G1 X84.9014 Y56.5000 Z-7.0000 F1000.00
G1 X82.7801 Y56.5000 Z-7.0000 F1000.00
G1 X100.0326 Y73.7525 Z-7.0000 F1000.00
G3 X99.3723 Y75.2135 Z-7.0000 I-6.3861 J-2.0065 F1000.00
G1 X80.6587 Y56.5000 Z-7.0000 F1000.00
G1 X78.5374 Y56.5000 Z-7.0000 F1000.00
G1 X98.5004 Y76.4629 Z-7.0000 F1000.00
G3 X97.4375 Y77.5214 Z-7.0000 I-4.9040 J-3.8611 F1000.00
G1 X76.4161 Y56.5000 Z-7.0000 F1000.00
G1 X76.1172 Y56.5000 Z-7.0000 F1000.00
G1 X75.9666 Y56.0505 Z-7.0000 F1000.00
G1 X70.9495 Y51.0334 Z-7.0000 F1000.00
G2 X68.3091 Y50.5143 Z-7.0000 I-2.8381 J7.4610 F1000.00
G1 X96.1837 Y78.3889 Z-7.0000 F1000.00
G3 X94.7177 Y79.0443 Z-7.0000 I-3.3166 J-5.4517 F1000.00
G1 X65.0172 Y49.3437 Z-7.0000 F1000.00
G1 X57.9903 Y44.4382 Z-7.0000 F1000.00
G1 X92.9875 Y79.4354 Z-7.0000 F1000.00
G3 X90.9308 Y79.5000 Z-7.0000 I-1.5221 J-15.6851 F1000.00
G1 X50.9635 Y39.5326 Z-7.0000 F1000.00
G1 X43.9366 Y34.6271 Z-7.0000 F1000.00
G1 X88.8095 Y79.5000 Z-7.0000 F1000.00
G1 X86.6882 Y79.5000 Z-7.0000 F1000.00
G1 X36.9097 Y29.7215 Z-7.0000 F1000.00
G1 X29.8828 Y24.8160 Z-7.0000 F1000.00
G1 X84.5669 Y79.5000 Z-7.0000 F1000.00
G1 X82.4455 Y79.5000 Z-7.0000 F1000.00
G1 X22.8560 Y19.9104 Z-7.0000 F1000.00
G1 X19.5000 Y17.5676 Z-7.0000 F1000.00
G1 X19.5000 Y16.5545 Z-7.0000 F1000.00
G1 X-3.3505 Y-6.2960 Z-7.0000 F1000.00
G2 X-4.5794 Y-5.4036 Z-7.0000 I3.5571 J6.1911 F1000.00
G1 X80.3242 Y79.5000 Z-7.0000 F1000.00
G1 X78.2029 Y79.5000 Z-7.0000 F1000.00
G1 X-5.6182 Y-4.3211 Z-7.0000 F1000.00
G2 X-6.4652 Y-3.0468 Z-7.0000 I5.0801 J4.2953 F1000.00
G1 X76.0816 Y79.5000 Z-7.0000 F1000.00
G1 X73.9603 Y79.5000 Z-7.0000 F1000.00
G1 X-7.0978 Y-1.5580 Z-7.0000 F1000.00
G2 X-7.4615 Y0.1996 Z-7.0000 I7.4709 J2.4624 F1000.00
G1 X71.8389 Y79.5000 Z-7.0000 F1000.00
G1 X69.7176 Y79.5000 Z-7.0000 F1000.00
G1 X-7.5000 Y2.2824 Z-7.0000 F1000.00
G1 X-7.5000 Y4.4037 Z-7.0000 F1000.00
G1 X67.5963 Y79.5000 Z-7.0000 F1000.00
G1 X65.4750 Y79.5000 Z-7.0000 F1000.00
G1 X-7.5000 Y6.5250 Z-7.0000 F1000.00
G1 X-7.5000 Y8.6463 Z-7.0000 F1000.00
G1 X63.3242 Y79.4706 Z-7.0000 F1000.00
G3 X60.4565 Y78.7242 Z-7.0000 I0.6389 J-8.3368 F1000.00
G1 X-7.5000 Y10.7677 Z-7.0000 F1000.00
G1 X-7.5000 Y12.8890 Z-7.0000 F1000.00
G1 X53.9876 Y74.3766 Z-7.0000 F1000.00
G1 X46.9608 Y69.4711 Z-7.0000 F1000.00
G1 X-7.5000 Y15.0103 Z-7.0000 F1000.00
G1 X-7.5000 Y17.1316 Z-7.0000 F1000.00
G1 X39.9339 Y64.5655 Z-7.0000 F1000.00
G1 X32.9070 Y59.6600 Z-7.0000 F1000.00
G1 X-7.5000 Y19.2529 Z-7.0000 F1000.00
G1 X-7.5000 Y21.3743 Z-7.0000 F1000.00
G1 X25.8802 Y54.7544 Z-7.0000 F1000.00
G1 X18.8533 Y49.8489 Z-7.0000 F1000.00
G1 X-7.5000 Y23.4956 Z-7.0000 F1000.00
G1 X-7.5000 Y25.6169 Z-7.0000 F1000.00
G1 X11.8264 Y44.9433 Z-7.0000 F1000.00
G1 X4.7995 Y40.0378 Z-7.0000 F1000.00
G1 X-7.4636 Y27.7746 Z-7.0000 F1000.00
G2 X-6.6452 Y30.7143 Z-7.0000 I8.1210 J-0.6771 F1000.00
G2 X-4.5121 Y33.4893 Z-7.0000 I7.4091 J-3.4880 F1000.00
G2 X-2.2273 Y35.1322 Z-7.0000 I18.2189 J-22.9269 F1000.00
G1 X-6.6452 Y30.7143 Z-7.0000 F1000.00
G0 X-6.6452 Y30.7143 Z5.0000
G0 X-3.3505 Y-6.2960 Z5.0000
G0 X-3.3505 Y-6.2960 Z-4.0000
G1 X-3.3505 Y-6.2960 Z-7.0000 F300.00
G1 X19.5000 Y16.5545 Z-7.0000 F1000.00
G1 X19.5000 Y14.4331 Z-7.0000 F1000.00
G1 X-1.9122 Y-6.9791 Z-7.0000 F1000.00
G3 X-0.2154 Y-7.4036 Z-7.0000 I2.5959 J6.7727 F1000.00
G1 X19.5000 Y12.3118 Z-7.0000 F1000.00
G1 X19.5000 Y10.1905 Z-7.0000 F1000.00
G1 X1.8095 Y-7.5000 Z-7.0000 F1000.00
G1 X3.9308 Y-7.5000 Z-7.0000 F1000.00
G1 X19.5000 Y8.0692 Z-7.0000 F1000.00
G1 X19.5000 Y5.9479 Z-7.0000 F1000.00
G1 X6.0521 Y-7.5000 Z-7.0000 F1000.00
G1 X8.1735 Y-7.5000 Z-7.0000 F1000.00
G1 X19.5000 Y3.8265 Z-7.0000 F1000.00
G1 X19.5000 Y1.7052 Z-7.0000 F1000.00
G1 X10.2948 Y-7.5000 Z-7.0000 F1000.00
G3 X12.5607 Y-7.3554 Z-7.0000 I0.3526 J12.3034 F1000.00
G1 X19.3554 Y-0.5607 Z-7.0000 F1000.00
G2 X12.5607 Y-7.3554 Z-7.0000 I-8.3552 J1.5604 F1000.00
G1 X12.5607 Y-7.3554 Z-7.5000 F300.00
G3 X19.3554 Y-0.5607 Z-7.5000 I-1.5604 J8.3552 F1000.00
G1 X12.5607 Y-7.3554 Z-7.5000 F1000.00
G2 X10.2948 Y-7.5000 Z-7.5000 I-1.9133 J12.1589 F1000.00
G1 X19.5000 Y1.7052 Z-7.5000 F1000.00
G1 X19.5000 Y3.8265 Z-7.5000 F1000.00
G1 X8.1735 Y-7.5000 Z-7.5000 F1000.00
G1 X6.0521 Y-7.5000 Z-7.5000 F1000.00
G1 X19.5000 Y5.9479 Z-7.5000 F1000.00
G1 X19.5000 Y8.0692 Z-7.5000 F1000.00
G1 X3.9308 Y-7.5000 Z-7.5000 F1000.00
G1 X1.8095 Y-7.5000 Z-7.5000 F1000.00
G1 X19.5000 Y10.1905 Z-7.5000 F1000.00
G1 X19.5000 Y12.3118 Z-7.5000 F1000.00
G1 X-0.2154 Y-7.4036 Z-7.5000 F1000.00
G2 X-1.9122 Y-6.9791 Z-7.5000 I0.8991 J7.1972 F1000.00
G1 X19.5000 Y14.4331 Z-7.5000 F1000.00
G1 X19.5000 Y16.5545 Z-7.5000 F1000.00
G1 X-3.3505 Y-6.2960 Z-7.5000 F1000.00
G0 X-3.3505 Y-6.2960 Z5.0000
G0 X-6.6452 Y30.7143 Z5.0000
G0 X-6.6452 Y30.7143 Z-4.5000
G1 X-6.6452 Y30.7143 Z-7.5000 F300.00
G1 X-2.2273 Y35.1322 Z-7.5000 F1000.00
G3 X-4.5121 Y33.4893 Z-7.5000 I15.9342 J-24.5698 F1000.00
G3 X-6.6452 Y30.7143 Z-7.5000 I5.2760 J-6.2630 F1000.00
G3 X-7.4636 Y27.7746 Z-7.5000 I7.3026 J-3.6169 F1000.00
G1 X4.7995 Y40.0378 Z-7.5000 F1000.00
G1 X11.8264 Y44.9433 Z-7.5000 F1000.00
G1 X-7.5000 Y25.6169 Z-7.5000 F1000.00
G1 X-7.5000 Y23.4956 Z-7.5000 F1000.00
G1 X18.8533 Y49.8489 Z-7.5000 F1000.00
G1 X25.8802 Y54.7544 Z-7.5000 F1000.00
G1 X-7.5000 Y21.3743 Z-7.5000 F1000.00
G1 X-7.5000 Y19.2529 Z-7.5000 F1000.00
G1 X32.9070 Y59.6600 Z-7.5000 F1000.00
G1 X39.9339 Y64.5655 Z-7.5000 F1000.00
G1 X-7.5000 Y17.1316 Z-7.5000 F1000.00
G1 X-7.5000 Y15.0103 Z-7.5000 F1000.00
G1 X46.9608 Y69.4711 Z-7.5000 F1000.00
G1 X53.9876 Y74.3766 Z-7.5000 F1000.00
G1 X-7.5000 Y12.8890 Z-7.5000 F1000.00
G1 X-7.5000 Y10.7677 Z-7.5000 F1000.00
G1 X60.4565 Y78.7242 Z-7.5000 F1000.00
G2 X63.3242 Y79.4706 Z-7.5000 I3.5066 J-7.5904 F1000.00
G1 X-7.5000 Y8.6463 Z-7.5000 F1000.00
G1 X-7.5000 Y6.5250 Z-7.5000 F1000.00
G1 X65.4750 Y79.5000 Z-7.5000 F1000.00
G1 X67.5963 Y79.5000 Z-7.5000 F1000.00
G1 X-7.5000 Y4.4037 Z-7.5000 F1000.00
G1 X-7.5000 Y2.2824 Z-7.5000 F1000.00
G1 X69.7176 Y79.5000 Z-7.5000 F1000.00
G1 X71.8389 Y79.5000 Z-7.5000 F1000.00
G1 X-7.4615 Y0.1996 Z-7.5000 F1000.00
G3 X-7.0978 Y-1.5580 Z-7.5000 I7.8346 J0.7047 F1000.00
G1 X73.9603 Y79.5000 Z-7.5000 F1000.00
G1 X76.0816 Y79.5000 Z-7.5000 F1000.00
G1 X-6.4652 Y-3.0468 Z-7.5000 F1000.00
G3 X-5.6182 Y-4.3211 Z-7.5000 I5.9271 J3.0210 F1000.00
G1 X78.2029 Y79.5000 Z-7.5000 F1000.00
G1 X80.3242 Y79.5000 Z-7.5000 F1000.00
G1 X-4.5794 Y-5.4036 Z-7.5000 F1000.00
G3 X-3.3505 Y-6.2960 Z-7.5000 I4.7861 J5.2987 F1000.00
G1 X19.5000 Y16.5545 Z-7.5000 F1000.00
G1 X19.5000 Y17.5676 Z-7.5000 F1000.00
G1 X22.8560 Y19.9104 Z-7.5000 F1000.00
G1 X82.4455 Y79.5000 Z-7.5000 F1000.00
G1 X84.5669 Y79.5000 Z-7.5000 F1000.00
G1 X29.8828 Y24.8160 Z-7.5000 F1000.00
G1 X36.9097 Y29.7215 Z-7.5000 F1000.00
G1 X86.6882 Y79.5000 Z-7.5000 F1000.00
G1 X88.8095 Y79.5000 Z-7.5000 F1000.00
G1 X43.9366 Y34.6271 Z-7.5000 F1000.00
G1 X50.9635 Y39.5326 Z-7.5000 F1000.00
G1 X90.9308 Y79.5000 Z-7.5000 F1000.00
G2 X92.9875 Y79.4354 Z-7.5000 I0.5346 J-15.7497 F1000.00
G1 X57.9903 Y44.4382 Z-7.5000 F1000.00
G1 X65.0172 Y49.3437 Z-7.5000 F1000.00
G1 X94.7177 Y79.0443 Z-7.5000 F1000.00
G2 X96.1837 Y78.3889 Z-7.5000 I-1.8507 J-6.1071 F1000.00
G1 X68.3091 Y50.5143 Z-7.5000 F1000.00
G3 X70.9495 Y51.0334 Z-7.5000 I-0.1977 J7.9801 F1000.00
G1 X75.9666 Y56.0505 Z-7.5000 F1000.00
G1 X76.1172 Y56.5000 Z-7.5000 F1000.00
G1 X76.4161 Y56.5000 Z-7.5000 F1000.00
G1 X97.4375 Y77.5214 Z-7.5000 F1000.00
G2 X98.5004 Y76.4629 Z-7.5000 I-3.8412 J-4.9196 F1000.00
G1 X78.5374 Y56.5000 Z-7.5000 F1000.00
G1 X80.6587 Y56.5000 Z-7.5000 F1000.00
G1 X99.3723 Y75.2135 Z-7.5000 F1000.00
G2 X100.0326 Y73.7525 Z-7.5000 I-5.7258 J-3.4675 F1000.00
G1 X82.7801 Y56.5000 Z-7.5000 F1000.00
G1 X84.9014 Y56.5000 Z-7.5000 F1000.00
G1 X100.4297 Y72.0283 Z-7.5000 F1000.00
G1 X100.4637 Y71.7843 Z-7.5000 F1000.00
G2 X100.5000 Y69.9773 Z-7.5000 I-19.5241 J-1.2956 F1000.00
G1 X87.0227 Y56.5000 Z-7.5000 F1000.00
G1 X89.1440 Y56.5000 Z-7.5000 F1000.00
G1 X100.5000 Y67.8560 Z-7.5000 F1000.00
G1 X100.5000 Y65.7347 Z-7.5000 F1000.00
G1 X91.2653 Y56.5000 Z-7.5000 F1000.00
G3 X93.5265 Y56.6398 Z-7.5000 I0.3673 J12.4153 F1000.00
G1 X100.3602 Y63.4735 Z-7.5000 F1000.00
G2 X97.7264 Y58.7184 Z-7.5000 I-8.3462 J1.5159 F1000.00
G0 X97.7264 Y58.7184 Z5.0000
G0 X75.9666 Y56.0505 Z5.0000
G0 X75.9666 Y56.0505 Z-4.5000
G1 X75.9666 Y56.0505 Z-7.5000 F300.00
G2 X70.9495 Y51.0334 Z-7.5000 I-7.9281 J2.9111 F1000.00
G1 X75.9666 Y56.0505 Z-7.5000 F1000.00
G1 X75.9666 Y56.0505 Z-8.0000 F300.00
G2 X70.9495 Y51.0334 Z-8.0000 I-7.9281 J2.9111 F1000.00
G1 X75.9666 Y56.0505 Z-8.0000 F1000.00
G0 X75.9666 Y56.0505 Z5.0000
G0 X97.7264 Y58.7184 Z5.0000
G0 X97.7264 Y58.7184 Z-5.0000
G1 X97.7264 Y58.7184 Z-8.0000 F300.00
G3 X100.3602 Y63.4735 Z-8.0000 I-5.7124 J6.2710 F1000.00
G1 X93.5265 Y56.6398 Z-8.0000 F1000.00
G2 X91.2653 Y56.5000 Z-8.0000 I-1.8938 J12.2755 F1000.00
G1 X100.5000 Y65.7347 Z-8.0000 F1000.00
G1 X100.5000 Y67.8560 Z-8.0000 F1000.00
G1 X89.1440 Y56.5000 Z-8.0000 F1000.00
G1 X87.0227 Y56.5000 Z-8.0000 F1000.00
G1 X100.5000 Y69.9773 Z-8.0000 F1000.00
G3 X100.4637 Y71.7843 Z-8.0000 I-19.5604 J0.5114 F1000.00
G1 X100.4297 Y72.0283 Z-8.0000 F1000.00
G1 X84.9014 Y56.5000 Z-8.0000 F1000.00
G1 X82.7801 Y56.5000 Z-8.0000 F1000.00
G1 X100.0326 Y73.7525 Z-8.0000 F1000.00
G3 X99.3723 Y75.2135 Z-8.0000 I-6.3861 J-2.0065 F1000.00
G1 X80.6587 Y56.5000 Z-8.0000 F1000.00
G1 X78.5374 Y56.5000 Z-8.0000 F1000.00
G1 X98.5004 Y76.4629 Z-8.0000 F1000.00
G3 X97.4375 Y77.5214 Z-8.0000 I-4.9040 J-3.8611 F1000.00
G1 X76.4161 Y56.5000 Z-8.0000 F1000.00
G1 X76.1172 Y56.5000 Z-8.0000 F1000.00
G1 X75.9666 Y56.0505 Z-8.0000 F1000.00
G1 X70.9495 Y51.0334 Z-8.0000 F1000.00
G2 X68.3091 Y50.5143 Z-8.0000 I-2.8381 J7.4610 F1000.00
G1 X96.1837 Y78.3889 Z-8.0000 F1000.00
G3 X94.7177 Y79.0443 Z-8.0000 I-3.3166 J-5.4517 F1000.00
G1 X65.0172 Y49.3437 Z-8.0000 F1000.00
G1 X57.9903 Y44.4382 Z-8.0000 F1000.00
G1 X92.9875 Y79.4354 Z-8.0000 F1000.00
G3 X90.9308 Y79.5000 Z-8.0000 I-1.5221 J-15.6851 F1000.00
G1 X50.9635 Y39.5326 Z-8.0000 F1000.00
G1 X43.9366 Y34.6271 Z-8.0000 F1000.00
G1 X88.8095 Y79.5000 Z-8.0000 F1000.00
G1 X86.6882 Y79.5000 Z-8.0000 F1000.00
G1 X36.9097 Y29.7215 Z-8.0000 F1000.00
G1 X29.8828 Y24.8160 Z-8.0000 F1000.00
G1 X84.5669 Y79.5000 Z-8.0000 F1000.00
G1 X82.4455 Y79.5000 Z-8.0000 F1000.00
G1 X22.8560 Y19.9104 Z-8.0000 F1000.00
G1 X19.5000 Y17.5676 Z-8.0000 F1000.00
G1 X19.5000 Y16.5545 Z-8.0000 F1000.00
G1 X-3.3505 Y-6.2960 Z-8.0000 F1000.00
G2 X-4.5794 Y-5.4036 Z-8.0000 I3.5571 J6.1911 F1000.00
G1 X80.3242 Y79.5000 Z-8.0000 F1000.00
G1 X78.2029 Y79.5000 Z-8.0000 F1000.00
G1 X-5.6182 Y-4.3211 Z-8.0000 F1000.00
G2 X-6.4652 Y-3.0468 Z-8.0000 I5.0801 J4.2953 F1000.00
G1 X76.0816 Y79.5000 Z-8.0000 F1000.00
G1 X73.9603 Y79.5000 Z-8.0000 F1000.00
G1 X-7.0978 Y-1.5580 Z-8.0000 F1000.00
G2 X-7.4615 Y0.1996 Z-8.0000 I7.4709 J2.4624 F1000.00
G1 X71.8389 Y79.5000 Z-8.0000 F1000.00
G1 X69.7176 Y79.5000 Z-8.0000 F1000.00
G1 X-7.5000 Y2.2824 Z-8.0000 F1000.00
G1 X-7.5000 Y4.4037 Z-8.0000 F1000.00
G1 X67.5963 Y79.5000 Z-8.0000 F1000.00
G1 X65.4750 Y79.5000 Z-8.0000 F1000.00
G1 X-7.5000 Y6.5250 Z-8.0000 F1000.00
G1 X-7.5000 Y8.6463 Z-8.0000 F1000.00
G1 X63.3242 Y79.4706 Z-8.0000 F1000.00
G3 X60.4565 Y78.7242 Z-8.0000 I0.6389 J-8.3368 F1000.00
G1 X-7.5000 Y10.7677 Z-8.0000 F1000.00
G1 X-7.5000 Y12.8890 Z-8.0000 F1000.00
G1 X53.9876 Y74.3766 Z-8.0000 F1000.00
G1 X46.9608 Y69.4711 Z-8.0000 F1000.00
G1 X-7.5000 Y15.0103 Z-8.0000 F1000.00
G1 X-7.5000 Y17.1316 Z-8.0000 F1000.00
G1 X39.9339 Y64.5655 Z-8.0000 F1000.00
G1 X32.9070 Y59.6600 Z-8.0000 F1000.00
G1 X-7.5000 Y19.2529 Z-8.0000 F1000.00
G1 X-7.5000 Y21.3743 Z-8.0000 F1000.00
G1 X25.8802 Y54.7544 Z-8.0000 F1000.00
G1 X18.8533 Y49.8489 Z-8.0000 F1000.00
G1 X-7.5000 Y23.4956 Z-8.0000 F1000.00
G1 X-7.5000 Y25.6169 Z-8.0000 F1000.00
G1 X11.8264 Y44.9433 Z-8.0000 F1000.00
G1 X4.7995 Y40.0378 Z-8.0000 F1000.00
G1 X-7.4636 Y27.7746 Z-8.0000 F1000.00
G2 X-6.6452 Y30.7143 Z-8.0000 I8.1210 J-0.6771 F1000.00
G2 X-4.5121 Y33.4893 Z-8.0000 I7.4091 J-3.4880 F1000.00
G2 X-2.2273 Y35.1322 Z-8.0000 I18.2189 J-22.9269 F1000.00
G1 X-6.6452 Y30.7143 Z-8.0000 F1000.00
G0 X-6.6452 Y30.7143 Z5.0000
G0 X-3.3505 Y-6.2960 Z5.0000
G0 X-3.3505 Y-6.2960 Z-5.0000
G1 X-3.3505 Y-6.2960 Z-8.0000 F300.00
G1 X19.5000 Y16.5545 Z-8.0000 F1000.00
G1 X19.5000 Y14.4331 Z-8.0000 F1000.00
G1 X-1.9122 Y-6.9791 Z-8.0000 F1000.00
G3 X-0.2154 Y-7.4036 Z-8.0000 I2.5959 J6.7727 F1000.00
G1 X19.5000 Y12.3118 Z-8.0000 F1000.00
G1 X19.5000 Y10.1905 Z-8.0000 F1000.00
G1 X1.8095 Y-7.5000 Z-8.0000 F1000.00
G1 X3.9308 Y-7.5000 Z-8.0000 F1000.00
G1 X19.5000 Y8.0692 Z-8.0000 F1000.00
G1 X19.5000 Y5.9479 Z-8.0000 F1000.00
G1 X6.0521 Y-7.5000 Z-8.0000 F1000.00
G1 X8.1735 Y-7.5000 Z-8.0000 F1000.00
G1 X19.5000 Y3.8265 Z-8.0000 F1000.00
G1 X19.5000 Y1.7052 Z-8.0000 F1000.00
G1 X10.2948 Y-7.5000 Z-8.0000 F1000.00
G3 X12.5607 Y-7.3554 Z-8.0000 I0.3526 J12.3034 F1000.00
G1 X19.3554 Y-0.5607 Z-8.0000 F1000.00
G2 X12.5607 Y-7.3554 Z-8.0000 I-8.3552 J1.5604 F1000.00
G1 X12.5607 Y-7.3554 Z-8.5000 F300.00
G3 X19.3554 Y-0.5607 Z-8.5000 I-1.5604 J8.3552 F1000.00
G1 X12.5607 Y-7.3554 Z-8.5000 F1000.00
G2 X10.2948 Y-7.5000 Z-8.5000 I-1.9133 J12.1589 F1000.00
G1 X19.5000 Y1.7052 Z-8.5000 F1000.00
G1 X19.5000 Y3.8265 Z-8.5000 F1000.00
G1 X8.1735 Y-7.5000 Z-8.5000 F1000.00
G1 X6.0521 Y-7.5000 Z-8.5000 F1000.00
G1 X19.5000 Y5.9479 Z-8.5000 F1000.00
G1 X19.5000 Y8.0692 Z-8.5000 F1000.00
G1 X3.9308 Y-7.5000 Z-8.5000 F1000.00
G1 X1.8095 Y-7.5000 Z-8.5000 F1000.00
G1 X19.5000 Y10.1905 Z-8.5000 F1000.00
G1 X19.5000 Y12.3118 Z-8.5000 F1000.00
G1 X-0.2154 Y-7.4036 Z-8.5000 F1000.00
G2 X-1.9122 Y-6.9791 Z-8.5000 I0.8991 J7.1972 F1000.00
G1 X19.5000 Y14.4331 Z-8.5000 F1000.00
G1 X19.5000 Y16.5545 Z-8.5000 F1000.00
G1 X-3.3505 Y-6.2960 Z-8.5000 F1000.00
G0 X-3.3505 Y-6.2960 Z5.0000
G0 X-6.6452 Y30.7143 Z5.0000
G0 X-6.6452 Y30.7143 Z-5.5000
G1 X-6.6452 Y30.7143 Z-8.5000 F300.00
G1 X-2.2273 Y35.1322 Z-8.5000 F1000.00
G3 X-4.5121 Y33.4893 Z-8.5000 I15.9342 J-24.5698 F1000.00
G3 X-6.6452 Y30.7143 Z-8.5000 I5.2760 J-6.2630 F1000.00
G3 X-7.4636 Y27.7746 Z-8.5000 I7.3026 J-3.6169 F1000.00
G1 X4.7995 Y40.0378 Z-8.5000 F1000.00
G1 X11.8264 Y44.9433 Z-8.5000 F1000.00
G1 X-7.5000 Y25.6169 Z-8.5000 F1000.00
G1 X-7.5000 Y23.4956 Z-8.5000 F1000.00
G1 X18.8533 Y49.8489 Z-8.5000 F1000.00
G1 X25.8802 Y54.7544 Z-8.5000 F1000.00
G1 X-7.5000 Y21.3743 Z-8.5000 F1000.00
G1 X-7.5000 Y19.2529 Z-8.5000 F1000.00
G1 X32.9070 Y59.6600 Z-8.5000 F1000.00
G1 X39.9339 Y64.5655 Z-8.5000 F1000.00
G1 X-7.5000 Y17.1316 Z-8.5000 F1000.00
G1 X-7.5000 Y15.0103 Z-8.5000 F1000.00
G1 X46.9608 Y69.4711 Z-8.5000 F1000.00
G1 X53.9876 Y74.3766 Z-8.5000 F1000.00
G1 X-7.5000 Y12.8890 Z-8.5000 F1000.00
G1 X-7.5000 Y10.7677 Z-8.5000 F1000.00
G1 X60.4565 Y78.7242 Z-8.5000 F1000.00
G2 X63.3242 Y79.4706 Z-8.5000 I3.5066 J-7.5904 F1000.00
G1 X-7.5000 Y8.6463 Z-8.5000 F1000.00
G1 X-7.5000 Y6.5250 Z-8.5000 F1000.00
G1 X65.4750 Y79.5000 Z-8.5000 F1000.00
G1 X67.5963 Y79.5000 Z-8.5000 F1000.00
G1 X-7.5000 Y4.4037 Z-8.5000 F1000.00
G1 X-7.5000 Y2.2824 Z-8.5000 F1000.00
G1 X69.7176 Y79.5000 Z-8.5000 F1000.00
G1 X71.8389 Y79.5000 Z-8.5000 F1000.00
G1 X-7.4615 Y0.1996 Z-8.5000 F1000.00
G3 X-7.0978 Y-1.5580 Z-8.5000 I7.8346 J0.7047 F1000.00
G1 X73.9603 Y79.5000 Z-8.5000 F1000.00
G1 X76.0816 Y79.5000 Z-8.5000 F1000.00
G1 X-6.4652 Y-3.0468 Z-8.5000 F1000.00
G3 X-5.6182 Y-4.3211 Z-8.5000 I5.9271 J3.0210 F1000.00
G1 X78.2029 Y79.5000 Z-8.5000 F1000.00
G1 X80.3242 Y79.5000 Z-8.5000 F1000.00
G1 X-4.5794 Y-5.4036 Z-8.5000 F1000.00
G3 X-3.3505 Y-6.2960 Z-8.5000 I4.7861 J5.2987 F1000.00
G1 X19.5000 Y16.5545 Z-8.5000 F1000.00
G1 X19.5000 Y17.5676 Z-8.5000 F1000.00
G1 X22.8560 Y19.9104 Z-8.5000 F1000.00
G1 X82.4455 Y79.5000 Z-8.5000 F1000.00
G1 X84.5669 Y79.5000 Z-8.5000 F1000.00
G1 X29.8828 Y24.8160 Z-8.5000 F1000.00
G1 X36.9097 Y29.7215 Z-8.5000 F1000.00
G1 X86.6882 Y79.5000 Z-8.5000 F1000.00
G1 X88.8095 Y79.5000 Z-8.5000 F1000.00
G1 X43.9366 Y34.6271 Z-8.5000 F1000.00
G1 X50.9635 Y39.5326 Z-8.5000 F1000.00
G1 X90.9308 Y79.5000 Z-8.5000 F1000.00
G2 X92.9875 Y79.4354 Z-8.5000 I0.5346 J-15.7497 F1000.00
G1 X57.9903 Y44.4382 Z-8.5000 F1000.00
G1 X65.0172 Y49.3437 Z-8.5000 F1000.00
G1 X94.7177 Y79.0443 Z-8.5000 F1000.00
G2 X96.1837 Y78.3889 Z-8.5000 I-1.8507 J-6.1071 F1000.00
G1 X68.3091 Y50.5143 Z-8.5000 F1000.00
G3 X70.9495 Y51.0334 Z-8.5000 I-0.1977 J7.9801 F1000.00
G1 X75.9666 Y56.0505 Z-8.5000 F1000.00
G1 X76.1172 Y56.5000 Z-8.5000 F1000.00
G1 X76.4161 Y56.5000 Z-8.5000 F1000.00
G1 X97.4375 Y77.5214 Z-8.5000 F1000.00
G2 X98.5004 Y76.4629 Z-8.5000 I-3.8412 J-4.9196 F1000.00
G1 X78.5374 Y56.5000 Z-8.5000 F1000.00
G1 X80.6587 Y56.5000 Z-8.5000 F1000.00
G1 X99.3723 Y75.2135 Z-8.5000 F1000.00
G2 X100.0326 Y73.7525 Z-8.5000 I-5.7258 J-3.4675 F1000.00
G1 X82.7801 Y56.5000 Z-8.5000 F1000.00
G1 X84.9014 Y56.5000 Z-8.5000 F1000.00
G1 X100.4297 Y72.0283 Z-8.5000 F1000.00
G1 X100.4637 Y71.7843 Z-8.5000 F1000.00
G2 X100.5000 Y69.9773 Z-8.5000 I-19.5241 J-1.2956 F1000.00
G1 X87.0227 Y56.5000 Z-8.5000 F1000.00
G1 X89.1440 Y56.5000 Z-8.5000 F1000.00
G1 X100.5000 Y67.8560 Z-8.5000 F1000.00
G1 X100.5000 Y65.7347 Z-8.5000 F1000.00
G1 X91.2653 Y56.5000 Z-8.5000 F1000.00
G3 X93.5265 Y56.6398 Z-8.5000 I0.3673 J12.4153 F1000.00
G1 X100.3602 Y63.4735 Z-8.5000 F1000.00
G2 X97.7264 Y58.7184 Z-8.5000 I-8.3462 J1.5159 F1000.00
G0 X97.7264 Y58.7184 Z5.0000
G0 X75.9666 Y56.0505 Z5.0000
G0 X75.9666 Y56.0505 Z-5.5000
G1 X75.9666 Y56.0505 Z-8.5000 F300.00
G2 X70.9495 Y51.0334 Z-8.5000 I-7.9281 J2.9111 F1000.00
G1 X75.9666 Y56.0505 Z-8.5000 F1000.00
G1 X75.9666 Y56.0505 Z-9.0000 F300.00
G2 X70.9495 Y51.0334 Z-9.0000 I-7.9281 J2.9111 F1000.00
G1 X75.9666 Y56.0505 Z-9.0000 F1000.00
G0 X75.9666 Y56.0505 Z5.0000
G0 X97.7264 Y58.7184 Z5.0000
G0 X97.7264 Y58.7184 Z-6.0000
G1 X97.7264 Y58.7184 Z-9.0000 F300.00
G3 X100.3602 Y63.4735 Z-9.0000 I-5.7124 J6.2710 F1000.00
G1 X93.5265 Y56.6398 Z-9.0000 F1000.00
G2 X91.2653 Y56.5000 Z-9.0000 I-1.8938 J12.2755 F1000.00
G1 X100.5000 Y65.7347 Z-9.0000 F1000.00
G1 X100.5000 Y67.8560 Z-9.0000 F1000.00
G1 X89.1440 Y56.5000 Z-9.0000 F1000.00
G1 X87.0227 Y56.5000 Z-9.0000 F1000.00
G1 X100.5000 Y69.9773 Z-9.0000 F1000.00
G3 X100.4637 Y71.7843 Z-9.0000 I-19.5604 J0.5114 F1000.00
G1 X100.4297 Y72.0283 Z-9.0000 F1000.00
G1 X84.9014 Y56.5000 Z-9.0000 F1000.00
G1 X82.7801 Y56.5000 Z-9.0000 F1000.00
G1 X100.0326 Y73.7525 Z-9.0000 F1000.00
G3 X99.3723 Y75.2135 Z-9.0000 I-6.3861 J-2.0065 F1000.00
G1 X80.6587 Y56.5000 Z-9.0000 F1000.00
G1 X78.5374 Y56.5000 Z-9.0000 F1000.00
G1 X98.5004 Y76.4629 Z-9.0000 F1000.00
G3 X97.4375 Y77.5214 Z-9.0000 I-4.9040 J-3.8611 F1000.00
G1 X76.4161 Y56.5000 Z-9.0000 F1000.00
G1 X76.1172 Y56.5000 Z-9.0000 F1000.00
G1 X75.9666 Y56.0505 Z-9.0000 F1000.00
G1 X70.9495 Y51.0334 Z-9.0000 F1000.00
G2 X68.3091 Y50.5143 Z-9.0000 I-2.8381 J7.4610 F1000.00
G1 X96.1837 Y78.3889 Z-9.0000 F1000.00
G3 X94.7177 Y79.0443 Z-9.0000 I-3.3166 J-5.4517 F1000.00
G1 X65.0172 Y49.3437 Z-9.0000 F1000.00
G1 X57.9903 Y44.4382 Z-9.0000 F1000.00
G1 X92.9875 Y79.4354 Z-9.0000 F1000.00
G3 X90.9308 Y79.5000 Z-9.0000 I-1.5221 J-15.6851 F1000.00
G1 X50.9635 Y39.5326 Z-9.0000 F1000.00
G1 X43.9366 Y34.6271 Z-9.0000 F1000.00
G1 X88.8095 Y79.5000 Z-9.0000 F1000.00
G1 X86.6882 Y79.5000 Z-9.0000 F1000.00
G1 X36.9097 Y29.7215 Z-9.0000 F1000.00
G1 X29.8828 Y24.8160 Z-9.0000 F1000.00
G1 X84.5669 Y79.5000 Z-9.0000 F1000.00
G1 X82.4455 Y79.5000 Z-9.0000 F1000.00
G1 X22.8560 Y19.9104 Z-9.0000 F1000.00
G1 X19.5000 Y17.5676 Z-9.0000 F1000.00
G1 X19.5000 Y16.5545 Z-9.0000 F1000.00
G1 X-3.3505 Y-6.2960 Z-9.0000 F1000.00
G2 X-4.5794 Y-5.4036 Z-9.0000 I3.5571 J6.1911 F1000.00
G1 X80.3242 Y79.5000 Z-9.0000 F1000.00
G1 X78.2029 Y79.5000 Z-9.0000 F1000.00
G1 X-5.6182 Y-4.3211 Z-9.0000 F1000.00
G2 X-6.4652 Y-3.0468 Z-9.0000 I5.0801 J4.2953 F1000.00
G1 X76.0816 Y79.5000 Z-9.0000 F1000.00
G1 X73.9603 Y79.5000 Z-9.0000 F1000.00
G1 X-7.0978 Y-1.5580 Z-9.0000 F1000.00
G2 X-7.4615 Y0.1996 Z-9.0000 I7.4709 J2.4624 F1000.00
G1 X71.8389 Y79.5000 Z-9.0000 F1000.00
G1 X69.7176 Y79.5000 Z-9.0000 F1000.00
G1 X-7.5000 Y2.2824 Z-9.0000 F1000.00
G1 X-7.5000 Y4.4037 Z-9.0000 F1000.00
G1 X67.5963 Y79.5000 Z-9.0000 F1000.00
G1 X65.4750 Y79.5000 Z-9.0000 F1000.00
G1 X-7.5000 Y6.5250 Z-9.0000 F1000.00
G1 X-7.5000 Y8.6463 Z-9.0000 F1000.00
G1 X63.3242 Y79.4706 Z-9.0000 F1000.00
G3 X60.4565 Y78.7242 Z-9.0000 I0.6389 J-8.3368 F1000.00
G1 X-7.5000 Y10.7677 Z-9.0000 F1000.00
G1 X-7.5000 Y12.8890 Z-9.0000 F1000.00
G1 X53.9876 Y74.3766 Z-9.0000 F1000.00
G1 X46.9608 Y69.4711 Z-9.0000 F1000.00
G1 X-7.5000 Y15.0103 Z-9.0000 F1000.00
G1 X-7.5000 Y17.1316 Z-9.0000 F1000.00
G1 X39.9339 Y64.5655 Z-9.0000 F1000.00
G1 X32.9070 Y59.6600 Z-9.0000 F1000.00
G1 X-7.5000 Y19.2529 Z-9.0000 F1000.00
G1 X-7.5000 Y21.3743 Z-9.0000 F1000.00
G1 X25.8802 Y54.7544 Z-9.0000 F1000.00
G1 X18.8533 Y49.8489 Z-9.0000 F1000.00
G1 X-7.5000 Y23.4956 Z-9.0000 F1000.00
G1 X-7.5000 Y25.6169 Z-9.0000 F1000.00
G1 X11.8264 Y44.9433 Z-9.0000 F1000.00
G1 X4.7995 Y40.0378 Z-9.0000 F1000.00
G1 X-7.4636 Y27.7746 Z-9.0000 F1000.00
G2 X-6.6452 Y30.7143 Z-9.0000 I8.1210 J-0.6771 F1000.00
G2 X-4.5121 Y33.4893 Z-9.0000 I7.4091 J-3.4880 F1000.00
G2 X-2.2273 Y35.1322 Z-9.0000 I18.2189 J-22.9269 F1000.00
G1 X-6.6452 Y30.7143 Z-9.0000 F1000.00
G0 X-6.6452 Y30.7143 Z5.0000
G0 X-3.3505 Y-6.2960 Z5.0000
G0 X-3.3505 Y-6.2960 Z-6.0000
G1 X-3.3505 Y-6.2960 Z-9.0000 F300.00
G1 X19.5000 Y16.5545 Z-9.0000 F1000.00
G1 X19.5000 Y14.4331 Z-9.0000 F1000.00
G1 X-1.9122 Y-6.9791 Z-9.0000 F1000.00
G3 X-0.2154 Y-7.4036 Z-9.0000 I2.5959 J6.7727 F1000.00
G1 X19.5000 Y12.3118 Z-9.0000 F1000.00
G1 X19.5000 Y10.1905 Z-9.0000 F1000.00
G1 X1.8095 Y-7.5000 Z-9.0000 F1000.00
G1 X3.9308 Y-7.5000 Z-9.0000 F1000.00
G1 X19.5000 Y8.0692 Z-9.0000 F1000.00
G1 X19.5000 Y5.9479 Z-9.0000 F1000.00
G1 X6.0521 Y-7.5000 Z-9.0000 F1000.00
G1 X8.1735 Y-7.5000 Z-9.0000 F1000.00
G1 X19.5000 Y3.8265 Z-9.0000 F1000.00
G1 X19.5000 Y1.7052 Z-9.0000 F1000.00
G1 X10.2948 Y-7.5000 Z-9.0000 F1000.00
G3 X12.5607 Y-7.3554 Z-9.0000 I0.3526 J12.3034 F1000.00
G1 X19.3554 Y-0.5607 Z-9.0000 F1000.00
G2 X12.5607 Y-7.3554 Z-9.0000 I-8.3552 J1.5604 F1000.00
G1 X12.5607 Y-7.3554 Z-9.3700 F300.00
G3 X19.3554 Y-0.5607 Z-9.3700 I-1.5604 J8.3552 F1000.00
G1 X12.5607 Y-7.3554 Z-9.3700 F1000.00
G2 X10.2948 Y-7.5000 Z-9.3700 I-1.9133 J12.1589 F1000.00
G1 X19.5000 Y1.7052 Z-9.3700 F1000.00
G1 X19.5000 Y3.8265 Z-9.3700 F1000.00
G1 X8.1735 Y-7.5000 Z-9.3700 F1000.00
G1 X6.0521 Y-7.5000 Z-9.3700 F1000.00
G1 X19.5000 Y5.9479 Z-9.3700 F1000.00
G1 X19.5000 Y8.0692 Z-9.3700 F1000.00
G1 X3.9308 Y-7.5000 Z-9.3700 F1000.00
G1 X1.8095 Y-7.5000 Z-9.3700 F1000.00
G1 X19.5000 Y10.1905 Z-9.3700 F1000.00
G1 X19.5000 Y12.3118 Z-9.3700 F1000.00
G1 X-0.2154 Y-7.4036 Z-9.3700 F1000.00
G2 X-1.9122 Y-6.9791 Z-9.3700 I0.8991 J7.1972 F1000.00
G1 X19.5000 Y14.4331 Z-9.3700 F1000.00
G1 X19.5000 Y16.5545 Z-9.3700 F1000.00
G1 X-3.3505 Y-6.2960 Z-9.3700 F1000.00
G0 X-3.3505 Y-6.2960 Z5.0000
G0 X-6.6452 Y30.7143 Z5.0000
G0 X-6.6452 Y30.7143 Z-6.3700
G1 X-6.6452 Y30.7143 Z-9.3700 F300.00
G1 X-2.2273 Y35.1322 Z-9.3700 F1000.00
G3 X-4.5121 Y33.4893 Z-9.3700 I15.9342 J-24.5698 F1000.00
G3 X-6.6452 Y30.7143 Z-9.3700 I5.2760 J-6.2630 F1000.00
G3 X-7.4636 Y27.7746 Z-9.3700 I7.3026 J-3.6169 F1000.00
G1 X4.7995 Y40.0378 Z-9.3700 F1000.00
G1 X11.8264 Y44.9433 Z-9.3700 F1000.00
G1 X-7.5000 Y25.6169 Z-9.3700 F1000.00
G1 X-7.5000 Y23.4956 Z-9.3700 F1000.00
G1 X18.8533 Y49.8489 Z-9.3700 F1000.00
G1 X25.8802 Y54.7544 Z-9.3700 F1000.00
G1 X-7.5000 Y21.3743 Z-9.3700 F1000.00
G1 X-7.5000 Y19.2529 Z-9.3700 F1000.00
G1 X32.9070 Y59.6600 Z-9.3700 F1000.00
G1 X39.9339 Y64.5655 Z-9.3700 F1000.00
G1 X-7.5000 Y17.1316 Z-9.3700 F1000.00
G1 X-7.5000 Y15.0103 Z-9.3700 F1000.00
G1 X46.9608 Y69.4711 Z-9.3700 F1000.00
G1 X53.9876 Y74.3766 Z-9.3700 F1000.00
G1 X-7.5000 Y12.8890 Z-9.3700 F1000.00
G1 X-7.5000 Y10.7677 Z-9.3700 F1000.00
G1 X60.4565 Y78.7242 Z-9.3700 F1000.00
G2 X63.3242 Y79.4706 Z-9.3700 I3.5066 J-7.5904 F1000.00
G1 X-7.5000 Y8.6463 Z-9.3700 F1000.00
G1 X-7.5000 Y6.5250 Z-9.3700 F1000.00
G1 X65.4750 Y79.5000 Z-9.3700 F1000.00
G1 X67.5963 Y79.5000 Z-9.3700 F1000.00
G1 X-7.5000 Y4.4037 Z-9.3700 F1000.00
G1 X-7.5000 Y2.2824 Z-9.3700 F1000.00
G1 X69.7176 Y79.5000 Z-9.3700 F1000.00
G1 X71.8389 Y79.5000 Z-9.3700 F1000.00
G1 X-7.4615 Y0.1996 Z-9.3700 F1000.00
G3 X-7.0978 Y-1.5580 Z-9.3700 I7.8346 J0.7047 F1000.00
G1 X73.9603 Y79.5000 Z-9.3700 F1000.00
G1 X76.0816 Y79.5000 Z-9.3700 F1000.00
G1 X-6.4652 Y-3.0468 Z-9.3700 F1000.00
G3 X-5.6182 Y-4.3211 Z-9.3700 I5.9271 J3.0210 F1000.00
G1 X78.2029 Y79.5000 Z-9.3700 F1000.00
G1 X80.3242 Y79.5000 Z-9.3700 F1000.00
G1 X-4.5794 Y-5.4036 Z-9.3700 F1000.00
G3 X-3.3505 Y-6.2960 Z-9.3700 I4.7861 J5.2987 F1000.00
G1 X19.5000 Y16.5545 Z-9.3700 F1000.00
G1 X19.5000 Y17.5676 Z-9.3700 F1000.00
G1 X22.8560 Y19.9104 Z-9.3700 F1000.00
G1 X82.4455 Y79.5000 Z-9.3700 F1000.00
G1 X84.5669 Y79.5000 Z-9.3700 F1000.00
G1 X29.8828 Y24.8160 Z-9.3700 F1000.00
G1 X36.9097 Y29.7215 Z-9.3700 F1000.00
G1 X86.6882 Y79.5000 Z-9.3700 F1000.00
G1 X88.8095 Y79.5000 Z-9.3700 F1000.00
G1 X43.9366 Y34.6271 Z-9.3700 F1000.00
G1 X50.9635 Y39.5326 Z-9.3700 F1000.00
G1 X90.9308 Y79.5000 Z-9.3700 F1000.00
G2 X92.9875 Y79.4354 Z-9.3700 I0.5346 J-15.7497 F1000.00
G1 X57.9903 Y44.4382 Z-9.3700 F1000.00
G1 X65.0172 Y49.3437 Z-9.3700 F1000.00
G1 X94.7177 Y79.0443 Z-9.3700 F1000.00
G2 X96.1837 Y78.3889 Z-9.3700 I-1.8507 J-6.1071 F1000.00
G1 X68.3091 Y50.5143 Z-9.3700 F1000.00
G3 X70.9495 Y51.0334 Z-9.3700 I-0.1977 J7.9801 F1000.00
G1 X75.9666 Y56.0505 Z-9.3700 F1000.00
G1 X76.1172 Y56.5000 Z-9.3700 F1000.00
G1 X76.4161 Y56.5000 Z-9.3700 F1000.00
G1 X97.4375 Y77.5214 Z-9.3700 F1000.00
G2 X98.5004 Y76.4629 Z-9.3700 I-3.8412 J-4.9196 F1000.00
G1 X78.5374 Y56.5000 Z-9.3700 F1000.00
G1 X80.6587 Y56.5000 Z-9.3700 F1000.00
G1 X99.3723 Y75.2135 Z-9.3700 F1000.00
G2 X100.0326 Y73.7525 Z-9.3700 I-5.7258 J-3.4675 F1000.00
G1 X82.7801 Y56.5000 Z-9.3700 F1000.00
G1 X84.9014 Y56.5000 Z-9.3700 F1000.00
G1 X100.4297 Y72.0283 Z-9.3700 F1000.00
G1 X100.4637 Y71.7843 Z-9.3700 F1000.00
G2 X100.5000 Y69.9773 Z-9.3700 I-19.5241 J-1.2956 F1000.00
G1 X87.0227 Y56.5000 Z-9.3700 F1000.00
G1 X89.1440 Y56.5000 Z-9.3700 F1000.00
G1 X100.5000 Y67.8560 Z-9.3700 F1000.00
G1 X100.5000 Y65.7347 Z-9.3700 F1000.00
G1 X91.2653 Y56.5000 Z-9.3700 F1000.00
G3 X93.5265 Y56.6398 Z-9.3700 I0.3673 J12.4153 F1000.00
G1 X100.3602 Y63.4735 Z-9.3700 F1000.00
G2 X97.7264 Y58.7184 Z-9.3700 I-8.3462 J1.5159 F1000.00
G0 X97.7264 Y58.7184 Z5.0000
G0 X75.9666 Y56.0505 Z5.0000
G0 X75.9666 Y56.0505 Z-6.3700
G1 X75.9666 Y56.0505 Z-9.3700 F300.00
G2 X70.9495 Y51.0334 Z-9.3700 I-7.9281 J2.9111 F1000.00
G1 X75.9666 Y56.0505 Z-9.3700 F1000.00
G0 Z5.0000
(finish operation: MillFace)
(begin operation: TagDressup)
(Path: TagDressup)
G0 Z5.0000
G0 X93.0607 Y72.0607 Z5.0000
G0 X93.0607 Y72.0607 Z3.0000
G1 X93.0607 Y72.0607 Z-9.8700 F300.00
G2 X93.5000 Y71.0000 Z-9.8700 I-1.0607 J-1.0607 F1000.00
G1 X93.5000 Y65.0000 Z-9.8700 F1000.00
G2 X92.0000 Y63.5000 Z-9.8700 I-1.5000 J0.0000 F1000.00
G1 X69.5000 Y63.5000 Z-9.8700 F1000.00
G1 X69.5000 Y59.0000 Z-9.8700 F1000.00
G2 X68.0000 Y57.5000 Z-9.8700 I-1.5000 J0.0000 F1000.00
G1 X64.4718 Y57.5000 Z-9.8700 F1000.00
G1 X12.5000 Y21.2178 Z-9.8700 F1000.00
G1 X12.5000 Y1.0000 Z-9.8700 F1000.00
G2 X11.0000 Y-0.5000 Z-9.8700 I-1.5000 J0.0000 F1000.00
G1 X1.0000 Y-0.5000 Z-9.8700 F1000.00
G2 X-0.5000 Y1.0000 Z-9.8700 I0.0000 J1.5000 F1000.00
G1 X-0.5000 Y27.0189 Z-9.8700 F1000.00
G2 X0.1414 Y28.2488 Z-9.8700 I1.5000 J-0.0000 F1000.00
G1 X63.1414 Y72.2299 Z-9.8700 F1000.00
G2 X64.0000 Y72.5000 Z-9.8700 I0.8586 J-1.2299 F1000.00
G1 X92.0000 Y72.5000 Z-9.8700 F1000.00
G2 X93.0607 Y72.0607 Z-9.8700 I-0.0000 J-1.5000 F1000.00
G1 X93.0607 Y72.0607 Z-10.3700 F300.00
G2 X93.5000 Y71.0000 Z-10.3700 I-1.0607 J-1.0607 F1000.00
G1 X93.5000 Y65.0000 Z-10.3700 F1000.00
G2 X92.0000 Y63.5000 Z-10.3700 I-1.5000 J0.0000 F1000.00
G1 X69.5000 Y63.5000 Z-10.3700 F1000.00
G1 X69.5000 Y59.0000 Z-10.3700 F1000.00
G2 X68.0000 Y57.5000 Z-10.3700 I-1.5000 J0.0000 F1000.00
G1 X64.4718 Y57.5000 Z-10.3700 F1000.00
G1 X12.5000 Y21.2178 Z-10.3700 F1000.00
G1 X12.5000 Y1.0000 Z-10.3700 F1000.00
G2 X11.0000 Y-0.5000 Z-10.3700 I-1.5000 J0.0000 F1000.00
G1 X1.0000 Y-0.5000 Z-10.3700 F1000.00
G2 X-0.5000 Y1.0000 Z-10.3700 I0.0000 J1.5000 F1000.00
G1 X-0.5000 Y27.0189 Z-10.3700 F1000.00
G2 X0.1414 Y28.2488 Z-10.3700 I1.5000 J-0.0000 F1000.00
G1 X63.1414 Y72.2299 Z-10.3700 F1000.00
G2 X64.0000 Y72.5000 Z-10.3700 I0.8586 J-1.2299 F1000.00
G1 X92.0000 Y72.5000 Z-10.3700 F1000.00
G2 X93.0607 Y72.0607 Z-10.3700 I-0.0000 J-1.5000 F1000.00
G1 X93.0607 Y72.0607 Z-10.8700 F300.00
G2 X93.5000 Y71.0000 Z-10.8700 I-1.0607 J-1.0607 F1000.00
G1 X93.5000 Y65.0000 Z-10.8700 F1000.00
G2 X92.0000 Y63.5000 Z-10.8700 I-1.5000 J0.0000 F1000.00
G1 X69.5000 Y63.5000 Z-10.8700 F1000.00
G1 X69.5000 Y59.0000 Z-10.8700 F1000.00
G2 X68.0000 Y57.5000 Z-10.8700 I-1.5000 J0.0000 F1000.00
G1 X64.4718 Y57.5000 Z-10.8700 F1000.00
G1 X12.5000 Y21.2178 Z-10.8700 F1000.00
G1 X12.5000 Y1.0000 Z-10.8700 F1000.00
G2 X11.0000 Y-0.5000 Z-10.8700 I-1.5000 J0.0000 F1000.00
G1 X1.0000 Y-0.5000 Z-10.8700 F1000.00
G2 X-0.5000 Y1.0000 Z-10.8700 I0.0000 J1.5000 F1000.00
G1 X-0.5000 Y27.0189 Z-10.8700 F1000.00
G2 X0.1414 Y28.2488 Z-10.8700 I1.5000 J-0.0000 F1000.00
G1 X63.1414 Y72.2299 Z-10.8700 F1000.00
G2 X64.0000 Y72.5000 Z-10.8700 I0.8586 J-1.2299 F1000.00
G1 X92.0000 Y72.5000 Z-10.8700 F1000.00
G2 X93.0607 Y72.0607 Z-10.8700 I-0.0000 J-1.5000 F1000.00
G1 X93.0607 Y72.0607 Z-11.3700 F300.00
G2 X93.5000 Y71.0000 Z-11.3700 I-1.0607 J-1.0607 F1000.00
G1 X93.5000 Y65.0000 Z-11.3700 F1000.00
G2 X92.0000 Y63.5000 Z-11.3700 I-1.5000 J0.0000 F1000.00
G1 X69.5000 Y63.5000 Z-11.3700 F1000.00
G1 X69.5000 Y59.0000 Z-11.3700 F1000.00
G2 X68.0000 Y57.5000 Z-11.3700 I-1.5000 J0.0000 F1000.00
G1 X64.4718 Y57.5000 Z-11.3700 F1000.00
G1 X12.5000 Y21.2178 Z-11.3700 F1000.00
G1 X12.5000 Y1.0000 Z-11.3700 F1000.00
G2 X11.0000 Y-0.5000 Z-11.3700 I-1.5000 J0.0000 F1000.00
G1 X1.0000 Y-0.5000 Z-11.3700 F1000.00
G2 X-0.5000 Y1.0000 Z-11.3700 I0.0000 J1.5000 F1000.00
G1 X-0.5000 Y27.0189 Z-11.3700 F1000.00
G2 X0.1414 Y28.2488 Z-11.3700 I1.5000 J-0.0000 F1000.00
G1 X63.1414 Y72.2299 Z-11.3700 F1000.00
G2 X64.0000 Y72.5000 Z-11.3700 I0.8586 J-1.2299 F1000.00
G1 X92.0000 Y72.5000 Z-11.3700 F1000.00
G2 X93.0607 Y72.0607 Z-11.3700 I-0.0000 J-1.5000 F1000.00
G1 X93.0607 Y72.0607 Z-11.8700 F300.00
G2 X93.5000 Y71.0000 Z-11.8700 I-1.0607 J-1.0607 F1000.00
G1 X93.5000 Y65.0000 Z-11.8700 F1000.00
G2 X92.0000 Y63.5000 Z-11.8700 I-1.5000 J0.0000 F1000.00
G1 X69.5000 Y63.5000 Z-11.8700 F1000.00
G1 X69.5000 Y59.0000 Z-11.8700 F1000.00
G2 X68.0000 Y57.5000 Z-11.8700 I-1.5000 J0.0000 F1000.00
G1 X64.4718 Y57.5000 Z-11.8700 F1000.00
G1 X12.5000 Y21.2178 Z-11.8700 F1000.00
G1 X12.5000 Y1.0000 Z-11.8700 F1000.00
G2 X11.0000 Y-0.5000 Z-11.8700 I-1.5000 J0.0000 F1000.00
G1 X1.0000 Y-0.5000 Z-11.8700 F1000.00
G2 X-0.5000 Y1.0000 Z-11.8700 I0.0000 J1.5000 F1000.00
G1 X-0.5000 Y27.0189 Z-11.8700 F1000.00
G2 X0.1414 Y28.2488 Z-11.8700 I1.5000 J-0.0000 F1000.00
G1 X63.1414 Y72.2299 Z-11.8700 F1000.00
G2 X64.0000 Y72.5000 Z-11.8700 I0.8586 J-1.2299 F1000.00
G1 X92.0000 Y72.5000 Z-11.8700 F1000.00
G2 X93.0607 Y72.0607 Z-11.8700 I-0.0000 J-1.5000 F1000.00
G1 X93.0607 Y72.0607 Z-12.3700 F300.00
G2 X93.5000 Y71.0000 Z-12.3700 I-1.0607 J-1.0607 F1000.00
G1 X93.5000 Y65.0000 Z-12.3700 F1000.00
G2 X92.0000 Y63.5000 Z-12.3700 I-1.5000 J0.0000 F1000.00
G1 X69.5000 Y63.5000 Z-12.3700 F1000.00
G1 X69.5000 Y59.0000 Z-12.3700 F1000.00
G2 X68.0000 Y57.5000 Z-12.3700 I-1.5000 J0.0000 F1000.00
G1 X64.4718 Y57.5000 Z-12.3700 F1000.00
G1 X12.5000 Y21.2178 Z-12.3700 F1000.00
G1 X12.5000 Y1.0000 Z-12.3700 F1000.00
G2 X11.0000 Y-0.5000 Z-12.3700 I-1.5000 J0.0000 F1000.00
G1 X1.0000 Y-0.5000 Z-12.3700 F1000.00
G2 X-0.5000 Y1.0000 Z-12.3700 I0.0000 J1.5000 F1000.00
G1 X-0.5000 Y27.0189 Z-12.3700 F1000.00
G2 X0.1414 Y28.2488 Z-12.3700 I1.5000 J-0.0000 F1000.00
G1 X63.1414 Y72.2299 Z-12.3700 F1000.00
G2 X64.0000 Y72.5000 Z-12.3700 I0.8586 J-1.2299 F1000.00
G1 X92.0000 Y72.5000 Z-12.3700 F1000.00
G2 X93.0607 Y72.0607 Z-12.3700 I-0.0000 J-1.5000 F1000.00
G1 X93.0607 Y72.0607 Z-12.8700 F300.00
G2 X93.5000 Y71.0000 Z-12.8700 I-1.0607 J-1.0607 F1000.00
G1 X93.5000 Y65.0000 Z-12.8700 F1000.00
G2 X92.0000 Y63.5000 Z-12.8700 I-1.5000 J0.0000 F1000.00
G1 X69.5000 Y63.5000 Z-12.8700 F1000.00
G1 X69.5000 Y59.0000 Z-12.8700 F1000.00
G2 X68.0000 Y57.5000 Z-12.8700 I-1.5000 J0.0000 F1000.00
G1 X64.4718 Y57.5000 Z-12.8700 F1000.00
G1 X12.5000 Y21.2178 Z-12.8700 F1000.00
G1 X12.5000 Y1.0000 Z-12.8700 F1000.00
G2 X11.0000 Y-0.5000 Z-12.8700 I-1.5000 J0.0000 F1000.00
G1 X1.0000 Y-0.5000 Z-12.8700 F1000.00
G2 X-0.5000 Y1.0000 Z-12.8700 I0.0000 J1.5000 F1000.00
G1 X-0.5000 Y27.0189 Z-12.8700 F1000.00
G2 X0.1414 Y28.2488 Z-12.8700 I1.5000 J-0.0000 F1000.00
G1 X63.1414 Y72.2299 Z-12.8700 F1000.00
G2 X64.0000 Y72.5000 Z-12.8700 I0.8586 J-1.2299 F1000.00
G1 X92.0000 Y72.5000 Z-12.8700 F1000.00
G2 X93.0607 Y72.0607 Z-12.8700 I-0.0000 J-1.5000 F1000.00
G1 X93.0607 Y72.0607 Z-13.3700 F300.00
G2 X93.5000 Y71.0000 Z-13.3700 I-1.0607 J-1.0607 F1000.00
G1 X93.5000 Y65.0000 Z-13.3700 F1000.00
G2 X92.0000 Y63.5000 Z-13.3700 I-1.5000 J0.0000 F1000.00
G1 X69.5000 Y63.5000 Z-13.3700 F1000.00
G1 X69.5000 Y59.0000 Z-13.3700 F1000.00
G2 X68.0000 Y57.5000 Z-13.3700 I-1.5000 J0.0000 F1000.00
G1 X64.4718 Y57.5000 Z-13.3700 F1000.00
G1 X12.5000 Y21.2178 Z-13.3700 F1000.00
G1 X12.5000 Y1.0000 Z-13.3700 F1000.00
G2 X11.0000 Y-0.5000 Z-13.3700 I-1.5000 J0.0000 F1000.00
G1 X1.0000 Y-0.5000 Z-13.3700 F1000.00
G2 X-0.5000 Y1.0000 Z-13.3700 I0.0000 J1.5000 F1000.00
G1 X-0.5000 Y27.0189 Z-13.3700 F1000.00
G2 X0.1414 Y28.2488 Z-13.3700 I1.5000 J-0.0000 F1000.00
G1 X63.1414 Y72.2299 Z-13.3700 F1000.00
G2 X64.0000 Y72.5000 Z-13.3700 I0.8586 J-1.2299 F1000.00
G1 X92.0000 Y72.5000 Z-13.3700 F1000.00
G2 X93.0607 Y72.0607 Z-13.3700 I-0.0000 J-1.5000 F1000.00
G1 X93.0607 Y72.0607 Z-13.8700 F300.00
G2 X93.5000 Y71.0000 Z-13.8700 I-1.0607 J-1.0607 F1000.00
G1 X93.5000 Y65.0000 Z-13.8700 F1000.00
G2 X92.0000 Y63.5000 Z-13.8700 I-1.5000 J0.0000 F1000.00
G1 X69.5000 Y63.5000 Z-13.8700 F1000.00
G1 X69.5000 Y59.0000 Z-13.8700 F1000.00
G2 X68.0000 Y57.5000 Z-13.8700 I-1.5000 J0.0000 F1000.00
G1 X64.4718 Y57.5000 Z-13.8700 F1000.00
G1 X12.5000 Y21.2178 Z-13.8700 F1000.00
G1 X12.5000 Y1.0000 Z-13.8700 F1000.00
G2 X11.0000 Y-0.5000 Z-13.8700 I-1.5000 J0.0000 F1000.00
G1 X1.0000 Y-0.5000 Z-13.8700 F1000.00
G2 X-0.5000 Y1.0000 Z-13.8700 I0.0000 J1.5000 F1000.00
G1 X-0.5000 Y27.0189 Z-13.8700 F1000.00
G2 X0.1414 Y28.2488 Z-13.8700 I1.5000 J-0.0000 F1000.00
G1 X63.1414 Y72.2299 Z-13.8700 F1000.00
G2 X64.0000 Y72.5000 Z-13.8700 I0.8586 J-1.2299 F1000.00
G1 X92.0000 Y72.5000 Z-13.8700 F1000.00
G2 X93.0607 Y72.0607 Z-13.8700 I-0.0000 J-1.5000 F1000.00
G1 X93.0607 Y72.0607 Z-14.3700 F300.00
G2 X93.5000 Y71.0000 Z-14.3700 I-1.0607 J-1.0607 F1000.00
G1 X93.5000 Y65.0000 Z-14.3700 F1000.00
G2 X92.0000 Y63.5000 Z-14.3700 I-1.5000 J0.0000 F1000.00
G1 X69.5000 Y63.5000 Z-14.3700 F1000.00
G1 X69.5000 Y59.0000 Z-14.3700 F1000.00
G2 X68.0000 Y57.5000 Z-14.3700 I-1.5000 J0.0000 F1000.00
G1 X64.4718 Y57.5000 Z-14.3700 F1000.00
G1 X12.5000 Y21.2178 Z-14.3700 F1000.00
G1 X12.5000 Y1.0000 Z-14.3700 F1000.00
G2 X11.0000 Y-0.5000 Z-14.3700 I-1.5000 J0.0000 F1000.00
G1 X1.0000 Y-0.5000 Z-14.3700 F1000.00
G2 X-0.5000 Y1.0000 Z-14.3700 I0.0000 J1.5000 F1000.00
G1 X-0.5000 Y27.0189 Z-14.3700 F1000.00
G2 X0.1414 Y28.2488 Z-14.3700 I1.5000 J-0.0000 F1000.00
G1 X63.1414 Y72.2299 Z-14.3700 F1000.00
G2 X64.0000 Y72.5000 Z-14.3700 I0.8586 J-1.2299 F1000.00
G1 X92.0000 Y72.5000 Z-14.3700 F1000.00
G2 X93.0607 Y72.0607 Z-14.3700 I-0.0000 J-1.5000 F1000.00
G1 X93.0607 Y72.0607 Z-14.8700 F300.00
G2 X93.5000 Y71.0000 Z-14.8700 I-1.0607 J-1.0607 F1000.00
G1 X93.5000 Y65.0000 Z-14.8700 F1000.00
G2 X92.0000 Y63.5000 Z-14.8700 I-1.5000 J0.0000 F1000.00
G1 X69.5000 Y63.5000 Z-14.8700 F1000.00
G1 X69.5000 Y59.0000 Z-14.8700 F1000.00
G2 X68.0000 Y57.5000 Z-14.8700 I-1.5000 J0.0000 F1000.00
G1 X64.4718 Y57.5000 Z-14.8700 F1000.00
G1 X12.5000 Y21.2178 Z-14.8700 F1000.00
G1 X12.5000 Y1.0000 Z-14.8700 F1000.00
G2 X11.0000 Y-0.5000 Z-14.8700 I-1.5000 J0.0000 F1000.00
G1 X1.0000 Y-0.5000 Z-14.8700 F1000.00
G2 X-0.5000 Y1.0000 Z-14.8700 I0.0000 J1.5000 F1000.00
G1 X-0.5000 Y27.0189 Z-14.8700 F1000.00
G2 X0.1414 Y28.2488 Z-14.8700 I1.5000 J-0.0000 F1000.00
G1 X63.1414 Y72.2299 Z-14.8700 F1000.00
G2 X64.0000 Y72.5000 Z-14.8700 I0.8586 J-1.2299 F1000.00
G1 X92.0000 Y72.5000 Z-14.8700 F1000.00
G2 X93.0607 Y72.0607 Z-14.8700 I-0.0000 J-1.5000 F1000.00
G1 X93.0607 Y72.0607 Z-15.3700 F300.00
G2 X93.5000 Y71.0000 Z-15.3700 I-1.0607 J-1.0607 F1000.00
G1 X93.5000 Y65.0000 Z-15.3700 F1000.00
G2 X92.0000 Y63.5000 Z-15.3700 I-1.5000 J0.0000 F1000.00
G1 X69.5000 Y63.5000 Z-15.3700 F1000.00
G1 X69.5000 Y59.0000 Z-15.3700 F1000.00
G2 X68.0000 Y57.5000 Z-15.3700 I-1.5000 J0.0000 F1000.00
G1 X64.4718 Y57.5000 Z-15.3700 F1000.00
G1 X12.5000 Y21.2178 Z-15.3700 F1000.00
G1 X12.5000 Y1.0000 Z-15.3700 F1000.00
G2 X11.0000 Y-0.5000 Z-15.3700 I-1.5000 J0.0000 F1000.00
G1 X1.0000 Y-0.5000 Z-15.3700 F1000.00
G2 X-0.5000 Y1.0000 Z-15.3700 I0.0000 J1.5000 F1000.00
G1 X-0.5000 Y27.0189 Z-15.3700 F1000.00
G2 X0.1414 Y28.2488 Z-15.3700 I1.5000 J-0.0000 F1000.00
G1 X63.1414 Y72.2299 Z-15.3700 F1000.00
G2 X64.0000 Y72.5000 Z-15.3700 I0.8586 J-1.2299 F1000.00
G1 X92.0000 Y72.5000 Z-15.3700 F1000.00
G2 X93.0607 Y72.0607 Z-15.3700 I-0.0000 J-1.5000 F1000.00
G1 X93.0607 Y72.0607 Z-15.8700 F300.00
G2 X93.5000 Y71.0000 Z-15.8700 I-1.0607 J-1.0607 F1000.00
G1 X93.5000 Y65.0000 Z-15.8700 F1000.00
G2 X92.0000 Y63.5000 Z-15.8700 I-1.5000 J0.0000 F1000.00
G1 X69.5000 Y63.5000 Z-15.8700 F1000.00
G1 X69.5000 Y59.0000 Z-15.8700 F1000.00
G2 X68.0000 Y57.5000 Z-15.8700 I-1.5000 J0.0000 F1000.00
G1 X64.4718 Y57.5000 Z-15.8700 F1000.00
G1 X12.5000 Y21.2178 Z-15.8700 F1000.00
G1 X12.5000 Y1.0000 Z-15.8700 F1000.00
G2 X11.0000 Y-0.5000 Z-15.8700 I-1.5000 J0.0000 F1000.00
G1 X1.0000 Y-0.5000 Z-15.8700 F1000.00
G2 X-0.5000 Y1.0000 Z-15.8700 I0.0000 J1.5000 F1000.00
G1 X-0.5000 Y27.0189 Z-15.8700 F1000.00
G2 X0.1414 Y28.2488 Z-15.8700 I1.5000 J-0.0000 F1000.00
G1 X63.1414 Y72.2299 Z-15.8700 F1000.00
G2 X64.0000 Y72.5000 Z-15.8700 I0.8586 J-1.2299 F1000.00
G1 X92.0000 Y72.5000 Z-15.8700 F1000.00
G2 X93.0607 Y72.0607 Z-15.8700 I-0.0000 J-1.5000 F1000.00
G1 X93.0607 Y72.0607 Z-16.3700 F300.00
G2 X93.5000 Y71.0000 Z-16.3700 I-1.0607 J-1.0607 F1000.00
G1 X93.5000 Y65.0000 Z-16.3700 F1000.00
G2 X92.0000 Y63.5000 Z-16.3700 I-1.5000 J0.0000 F1000.00
G1 X69.5000 Y63.5000 Z-16.3700 F1000.00
G1 X69.5000 Y59.0000 Z-16.3700 F1000.00
G2 X68.0000 Y57.5000 Z-16.3700 I-1.5000 J0.0000 F1000.00
G1 X64.4718 Y57.5000 Z-16.3700 F1000.00
G1 X12.5000 Y21.2178 Z-16.3700 F1000.00
G1 X12.5000 Y1.0000 Z-16.3700 F1000.00
G2 X11.0000 Y-0.5000 Z-16.3700 I-1.5000 J0.0000 F1000.00
G1 X1.0000 Y-0.5000 Z-16.3700 F1000.00
G2 X-0.5000 Y1.0000 Z-16.3700 I0.0000 J1.5000 F1000.00
G1 X-0.5000 Y27.0189 Z-16.3700 F1000.00
G2 X0.1414 Y28.2488 Z-16.3700 I1.5000 J-0.0000 F1000.00
G1 X63.1414 Y72.2299 Z-16.3700 F1000.00
G2 X64.0000 Y72.5000 Z-16.3700 I0.8586 J-1.2299 F1000.00
G1 X92.0000 Y72.5000 Z-16.3700 F1000.00
G2 X93.0607 Y72.0607 Z-16.3700 I-0.0000 J-1.5000 F1000.00
G1 X93.0607 Y72.0607 Z-16.8700 F300.00
G2 X93.5000 Y71.0000 Z-16.8700 I-1.0607 J-1.0607 F1000.00
G1 X93.5000 Y65.0000 Z-16.8700 F1000.00
G2 X92.0000 Y63.5000 Z-16.8700 I-1.5000 J0.0000 F1000.00
G1 X69.5000 Y63.5000 Z-16.8700 F1000.00
G1 X69.5000 Y59.0000 Z-16.8700 F1000.00
G2 X68.0000 Y57.5000 Z-16.8700 I-1.5000 J0.0000 F1000.00
G1 X64.4718 Y57.5000 Z-16.8700 F1000.00
G1 X12.5000 Y21.2178 Z-16.8700 F1000.00
G1 X12.5000 Y1.0000 Z-16.8700 F1000.00
G2 X11.0000 Y-0.5000 Z-16.8700 I-1.5000 J0.0000 F1000.00
G1 X1.0000 Y-0.5000 Z-16.8700 F1000.00
