(Exported by FreeCAD)
(Post Processor: grbl_post)
(Output Time:2019-08-13 22:15:08.094607)
(begin preamble)
G17 G90
G21
(begin operation: T2: end mill 3mm)
(Path: T2: end mill 3mm)
(T2: end mill 3mm)
(begin toolchange)
; M6 T2
M3 S10000.0000
(finish operation: T2: end mill 3mm)
(begin operation: Profile_Faces)
(Path: Profile_Faces)
(Profile_Faces)
(Compensated Tool Path. Diameter: 3.0)
G0 Z5.0000
G0 X99.4246 Y78.4246
G0 Z3.0000
G1 X99.4246 Y78.4246 Z-0.0000 F300.00
G2 X102.5000 Y71.0000 Z-0.0000 I-7.4246 J-7.4246 F1000.00
G1 X102.5000 Y65.0000 Z-0.0000 F1000.00
G2 X92.0000 Y54.5000 Z-0.0000 I-10.5000 J0.0000 F1000.00
G1 X77.4837 Y54.5000 Z-0.0000 F1000.00
G2 X74.0226 Y50.3989 Z-0.0000 I-9.4543 J4.4679 F1000.00
G2 X67.3025 Y48.5000 Z-0.0000 I-6.1144 J8.7981 F1000.00
G1 X21.5000 Y16.5247 Z0.0000 F1000.00
G1 X21.5000 Y1.0000 Z0.0000 F1000.00
G2 X11.0000 Y-9.5000 Z0.0000 I-10.5000 J0.0000 F1000.00
G1 X1.0000 Y-9.5000 Z0.0000 F1000.00
G2 X-9.5000 Y1.0000 Z0.0000 I0.0000 J10.5000 F1000.00
G1 X-9.5000 Y27.0189 Z0.0000 F1000.00
G2 X-5.0104 Y35.6284 Z0.0000 I10.5000 J-0.0000 F1000.00
G1 X57.9896 Y79.6096 Z-0.0000 F1000.00
G2 X64.0000 Y81.5000 Z-0.0000 I6.0104 J-8.6096 F1000.00
G1 X92.0000 Y81.5000 Z-0.0000 F1000.00
G2 X99.4246 Y78.4246 Z-0.0000 I-0.0000 J-10.5000 F1000.00
G1 X99.4246 Y78.4246 Z-0.5000 F300.00
G2 X102.5000 Y71.0000 Z-0.5000 I-7.4246 J-7.4246 F1000.00
G1 X102.5000 Y65.0000 Z-0.5000 F1000.00
G2 X92.0000 Y54.5000 Z-0.5000 I-10.5000 J0.0000 F1000.00
G1 X77.4837 Y54.5000 Z-0.5000 F1000.00
G2 X74.0226 Y50.3989 Z-0.5000 I-9.4543 J4.4679 F1000.00
G2 X67.3025 Y48.5000 Z-0.5000 I-6.1144 J8.7981 F1000.00
G1 X21.5000 Y16.5247 Z-0.5000 F1000.00
G1 X21.5000 Y1.0000 Z-0.5000 F1000.00
G2 X11.0000 Y-9.5000 Z-0.5000 I-10.5000 J0.0000 F1000.00
G1 X1.0000 Y-9.5000 Z-0.5000 F1000.00
G2 X-9.5000 Y1.0000 Z-0.5000 I0.0000 J10.5000 F1000.00
G1 X-9.5000 Y27.0189 Z-0.5000 F1000.00
G2 X-5.0104 Y35.6284 Z-0.5000 I10.5000 J-0.0000 F1000.00
G1 X57.9896 Y79.6096 Z-0.5000 F1000.00
G2 X64.0000 Y81.5000 Z-0.5000 I6.0104 J-8.6096 F1000.00
G1 X92.0000 Y81.5000 Z-0.5000 F1000.00
G2 X99.4246 Y78.4246 Z-0.5000 I-0.0000 J-10.5000 F1000.00
G1 X99.4246 Y78.4246 Z-1.0000 F300.00
G2 X102.5000 Y71.0000 Z-1.0000 I-7.4246 J-7.4246 F1000.00
G1 X102.5000 Y65.0000 Z-1.0000 F1000.00
G2 X92.0000 Y54.5000 Z-1.0000 I-10.5000 J0.0000 F1000.00
G1 X77.4837 Y54.5000 Z-1.0000 F1000.00
G2 X74.0226 Y50.3989 Z-1.0000 I-9.4543 J4.4679 F1000.00
G2 X67.3025 Y48.5000 Z-1.0000 I-6.1144 J8.7981 F1000.00
G1 X21.5000 Y16.5247 Z-1.0000 F1000.00
G1 X21.5000 Y1.0000 Z-1.0000 F1000.00
G2 X11.0000 Y-9.5000 Z-1.0000 I-10.5000 J0.0000 F1000.00
G1 X1.0000 Y-9.5000 Z-1.0000 F1000.00
G2 X-9.5000 Y1.0000 Z-1.0000 I0.0000 J10.5000 F1000.00
G1 X-9.5000 Y27.0189 Z-1.0000 F1000.00
G2 X-5.0104 Y35.6284 Z-1.0000 I10.5000 J-0.0000 F1000.00
G1 X57.9896 Y79.6096 Z-1.0000 F1000.00
G2 X64.0000 Y81.5000 Z-1.0000 I6.0104 J-8.6096 F1000.00
G1 X92.0000 Y81.5000 Z-1.0000 F1000.00
G2 X99.4246 Y78.4246 Z-1.0000 I-0.0000 J-10.5000 F1000.00
G1 X99.4246 Y78.4246 Z-1.5000 F300.00
G2 X102.5000 Y71.0000 Z-1.5000 I-7.4246 J-7.4246 F1000.00
G1 X102.5000 Y65.0000 Z-1.5000 F1000.00
G2 X92.0000 Y54.5000 Z-1.5000 I-10.5000 J0.0000 F1000.00
G1 X77.4837 Y54.5000 Z-1.5000 F1000.00
G2 X74.0226 Y50.3989 Z-1.5000 I-9.4543 J4.4679 F1000.00
G2 X67.3025 Y48.5000 Z-1.5000 I-6.1144 J8.7981 F1000.00
G1 X21.5000 Y16.5247 Z-1.5000 F1000.00
G1 X21.5000 Y1.0000 Z-1.5000 F1000.00
G2 X11.0000 Y-9.5000 Z-1.5000 I-10.5000 J0.0000 F1000.00
G1 X1.0000 Y-9.5000 Z-1.5000 F1000.00
G2 X-9.5000 Y1.0000 Z-1.5000 I0.0000 J10.5000 F1000.00
G1 X-9.5000 Y27.0189 Z-1.5000 F1000.00
G2 X-5.0104 Y35.6284 Z-1.5000 I10.5000 J-0.0000 F1000.00
G1 X57.9896 Y79.6096 Z-1.5000 F1000.00
G2 X64.0000 Y81.5000 Z-1.5000 I6.0104 J-8.6096 F1000.00
G1 X92.0000 Y81.5000 Z-1.5000 F1000.00
G2 X99.4246 Y78.4246 Z-1.5000 I-0.0000 J-10.5000 F1000.00
G1 X99.4246 Y78.4246 Z-2.0000 F300.00
G2 X102.5000 Y71.0000 Z-2.0000 I-7.4246 J-7.4246 F1000.00
G1 X102.5000 Y65.0000 Z-2.0000 F1000.00
G2 X92.0000 Y54.5000 Z-2.0000 I-10.5000 J0.0000 F1000.00
G1 X77.4837 Y54.5000 Z-2.0000 F1000.00
G2 X74.0226 Y50.3989 Z-2.0000 I-9.4543 J4.4679 F1000.00
G2 X67.3025 Y48.5000 Z-2.0000 I-6.1144 J8.7981 F1000.00
G1 X21.5000 Y16.5247 Z-2.0000 F1000.00
G1 X21.5000 Y1.0000 Z-2.0000 F1000.00
G2 X11.0000 Y-9.5000 Z-2.0000 I-10.5000 J0.0000 F1000.00
G1 X1.0000 Y-9.5000 Z-2.0000 F1000.00
G2 X-9.5000 Y1.0000 Z-2.0000 I0.0000 J10.5000 F1000.00
G1 X-9.5000 Y27.0189 Z-2.0000 F1000.00
G2 X-5.0104 Y35.6284 Z-2.0000 I10.5000 J-0.0000 F1000.00
G1 X57.9896 Y79.6096 Z-2.0000 F1000.00
G2 X64.0000 Y81.5000 Z-2.0000 I6.0104 J-8.6096 F1000.00
G1 X92.0000 Y81.5000 Z-2.0000 F1000.00
G2 X99.4246 Y78.4246 Z-2.0000 I-0.0000 J-10.5000 F1000.00
G1 X99.4246 Y78.4246 Z-2.5000 F300.00
G2 X102.5000 Y71.0000 Z-2.5000 I-7.4246 J-7.4246 F1000.00
G1 X102.5000 Y65.0000 Z-2.5000 F1000.00
G2 X92.0000 Y54.5000 Z-2.5000 I-10.5000 J0.0000 F1000.00
G1 X77.4837 Y54.5000 Z-2.5000 F1000.00
G2 X74.0226 Y50.3989 Z-2.5000 I-9.4543 J4.4679 F1000.00
G2 X67.3025 Y48.5000 Z-2.5000 I-6.1144 J8.7981 F1000.00
G1 X21.5000 Y16.5247 Z-2.5000 F1000.00
G1 X21.5000 Y1.0000 Z-2.5000 F1000.00
G2 X11.0000 Y-9.5000 Z-2.5000 I-10.5000 J0.0000 F1000.00
G1 X1.0000 Y-9.5000 Z-2.5000 F1000.00
G2 X-9.5000 Y1.0000 Z-2.5000 I0.0000 J10.5000 F1000.00
G1 X-9.5000 Y27.0189 Z-2.5000 F1000.00
G2 X-5.0104 Y35.6284 Z-2.5000 I10.5000 J-0.0000 F1000.00
G1 X57.9896 Y79.6096 Z-2.5000 F1000.00
G2 X64.0000 Y81.5000 Z-2.5000 I6.0104 J-8.6096 F1000.00
G1 X92.0000 Y81.5000 Z-2.5000 F1000.00
G2 X99.4246 Y78.4246 Z-2.5000 I-0.0000 J-10.5000 F1000.00
G1 X99.4246 Y78.4246 Z-3.0000 F300.00
G2 X102.5000 Y71.0000 Z-3.0000 I-7.4246 J-7.4246 F1000.00
G1 X102.5000 Y65.0000 Z-3.0000 F1000.00
G2 X92.0000 Y54.5000 Z-3.0000 I-10.5000 J0.0000 F1000.00
G1 X77.4837 Y54.5000 Z-3.0000 F1000.00
G2 X74.0226 Y50.3989 Z-3.0000 I-9.4543 J4.4679 F1000.00
G2 X67.3025 Y48.5000 Z-3.0000 I-6.1144 J8.7981 F1000.00
G1 X21.5000 Y16.5247 Z-3.0000 F1000.00
G1 X21.5000 Y1.0000 Z-3.0000 F1000.00
G2 X11.0000 Y-9.5000 Z-3.0000 I-10.5000 J0.0000 F1000.00
G1 X1.0000 Y-9.5000 Z-3.0000 F1000.00
G2 X-9.5000 Y1.0000 Z-3.0000 I0.0000 J10.5000 F1000.00
G1 X-9.5000 Y27.0189 Z-3.0000 F1000.00
G2 X-5.0104 Y35.6284 Z-3.0000 I10.5000 J-0.0000 F1000.00
G1 X57.9896 Y79.6096 Z-3.0000 F1000.00
G2 X64.0000 Y81.5000 Z-3.0000 I6.0104 J-8.6096 F1000.00
G1 X92.0000 Y81.5000 Z-3.0000 F1000.00
G2 X99.4246 Y78.4246 Z-3.0000 I-0.0000 J-10.5000 F1000.00
G1 X99.4246 Y78.4246 Z-3.5000 F300.00
G2 X102.5000 Y71.0000 Z-3.5000 I-7.4246 J-7.4246 F1000.00
G1 X102.5000 Y65.0000 Z-3.5000 F1000.00
G2 X92.0000 Y54.5000 Z-3.5000 I-10.5000 J0.0000 F1000.00
G1 X77.4837 Y54.5000 Z-3.5000 F1000.00
G2 X74.0226 Y50.3989 Z-3.5000 I-9.4543 J4.4679 F1000.00
G2 X67.3025 Y48.5000 Z-3.5000 I-6.1144 J8.7981 F1000.00
G1 X21.5000 Y16.5247 Z-3.5000 F1000.00
G1 X21.5000 Y1.0000 Z-3.5000 F1000.00
G2 X11.0000 Y-9.5000 Z-3.5000 I-10.5000 J0.0000 F1000.00
G1 X1.0000 Y-9.5000 Z-3.5000 F1000.00
G2 X-9.5000 Y1.0000 Z-3.5000 I0.0000 J10.5000 F1000.00
G1 X-9.5000 Y27.0189 Z-3.5000 F1000.00
G2 X-5.0104 Y35.6284 Z-3.5000 I10.5000 J-0.0000 F1000.00
G1 X57.9896 Y79.6096 Z-3.5000 F1000.00
G2 X64.0000 Y81.5000 Z-3.5000 I6.0104 J-8.6096 F1000.00
G1 X92.0000 Y81.5000 Z-3.5000 F1000.00
G2 X99.4246 Y78.4246 Z-3.5000 I-0.0000 J-10.5000 F1000.00
G1 X99.4246 Y78.4246 Z-4.0000 F300.00
G2 X102.5000 Y71.0000 Z-4.0000 I-7.4246 J-7.4246 F1000.00
G1 X102.5000 Y65.0000 Z-4.0000 F1000.00
G2 X92.0000 Y54.5000 Z-4.0000 I-10.5000 J0.0000 F1000.00
G1 X77.4837 Y54.5000 Z-4.0000 F1000.00
G2 X74.0226 Y50.3989 Z-4.0000 I-9.4543 J4.4679 F1000.00
G2 X67.3025 Y48.5000 Z-4.0000 I-6.1144 J8.7981 F1000.00
G1 X21.5000 Y16.5247 Z-4.0000 F1000.00
G1 X21.5000 Y1.0000 Z-4.0000 F1000.00
G2 X11.0000 Y-9.5000 Z-4.0000 I-10.5000 J0.0000 F1000.00
G1 X1.0000 Y-9.5000 Z-4.0000 F1000.00
G2 X-9.5000 Y1.0000 Z-4.0000 I0.0000 J10.5000 F1000.00
G1 X-9.5000 Y27.0189 Z-4.0000 F1000.00
G2 X-5.0104 Y35.6284 Z-4.0000 I10.5000 J-0.0000 F1000.00
G1 X57.9896 Y79.6096 Z-4.0000 F1000.00
G2 X64.0000 Y81.5000 Z-4.0000 I6.0104 J-8.6096 F1000.00
G1 X92.0000 Y81.5000 Z-4.0000 F1000.00
G2 X99.4246 Y78.4246 Z-4.0000 I-0.0000 J-10.5000 F1000.00
G1 X99.4246 Y78.4246 Z-4.5000 F300.00
G2 X102.5000 Y71.0000 Z-4.5000 I-7.4246 J-7.4246 F1000.00
G1 X102.5000 Y65.0000 Z-4.5000 F1000.00
G2 X92.0000 Y54.5000 Z-4.5000 I-10.5000 J0.0000 F1000.00
G1 X77.4837 Y54.5000 Z-4.5000 F1000.00
G2 X74.0226 Y50.3989 Z-4.5000 I-9.4543 J4.4679 F1000.00
G2 X67.3025 Y48.5000 Z-4.5000 I-6.1144 J8.7981 F1000.00
G1 X21.5000 Y16.5247 Z-4.5000 F1000.00
G1 X21.5000 Y1.0000 Z-4.5000 F1000.00
G2 X11.0000 Y-9.5000 Z-4.5000 I-10.5000 J0.0000 F1000.00
G1 X1.0000 Y-9.5000 Z-4.5000 F1000.00
G2 X-9.5000 Y1.0000 Z-4.5000 I0.0000 J10.5000 F1000.00
G1 X-9.5000 Y27.0189 Z-4.5000 F1000.00
G2 X-5.0104 Y35.6284 Z-4.5000 I10.5000 J-0.0000 F1000.00
G1 X57.9896 Y79.6096 Z-4.5000 F1000.00
G2 X64.0000 Y81.5000 Z-4.5000 I6.0104 J-8.6096 F1000.00
G1 X92.0000 Y81.5000 Z-4.5000 F1000.00
G2 X99.4246 Y78.4246 Z-4.5000 I-0.0000 J-10.5000 F1000.00
G1 X99.4246 Y78.4246 Z-5.0000 F300.00
G2 X102.5000 Y71.0000 Z-5.0000 I-7.4246 J-7.4246 F1000.00
G1 X102.5000 Y65.0000 Z-5.0000 F1000.00
G2 X92.0000 Y54.5000 Z-5.0000 I-10.5000 J0.0000 F1000.00
G1 X77.4837 Y54.5000 Z-5.0000 F1000.00
G2 X74.0226 Y50.3989 Z-5.0000 I-9.4543 J4.4679 F1000.00
G2 X67.3025 Y48.5000 Z-5.0000 I-6.1144 J8.7981 F1000.00
G1 X21.5000 Y16.5247 Z-5.0000 F1000.00
G1 X21.5000 Y1.0000 Z-5.0000 F1000.00
G2 X11.0000 Y-9.5000 Z-5.0000 I-10.5000 J0.0000 F1000.00
G1 X1.0000 Y-9.5000 Z-5.0000 F1000.00
G2 X-9.5000 Y1.0000 Z-5.0000 I0.0000 J10.5000 F1000.00
G1 X-9.5000 Y27.0189 Z-5.0000 F1000.00
G2 X-5.0104 Y35.6284 Z-5.0000 I10.5000 J-0.0000 F1000.00
G1 X57.9896 Y79.6096 Z-5.0000 F1000.00
G2 X64.0000 Y81.5000 Z-5.0000 I6.0104 J-8.6096 F1000.00
G1 X92.0000 Y81.5000 Z-5.0000 F1000.00
G2 X99.4246 Y78.4246 Z-5.0000 I-0.0000 J-10.5000 F1000.00
G1 X99.4246 Y78.4246 Z-5.5000 F300.00
G2 X102.5000 Y71.0000 Z-5.5000 I-7.4246 J-7.4246 F1000.00
G1 X102.5000 Y65.0000 Z-5.5000 F1000.00
G2 X92.0000 Y54.5000 Z-5.5000 I-10.5000 J0.0000 F1000.00
G1 X77.4837 Y54.5000 Z-5.5000 F1000.00
G2 X74.0226 Y50.3989 Z-5.5000 I-9.4543 J4.4679 F1000.00
G2 X67.3025 Y48.5000 Z-5.5000 I-6.1144 J8.7981 F1000.00
G1 X21.5000 Y16.5247 Z-5.5000 F1000.00
G1 X21.5000 Y1.0000 Z-5.5000 F1000.00
G2 X11.0000 Y-9.5000 Z-5.5000 I-10.5000 J0.0000 F1000.00
G1 X1.0000 Y-9.5000 Z-5.5000 F1000.00
G2 X-9.5000 Y1.0000 Z-5.5000 I0.0000 J10.5000 F1000.00
G1 X-9.5000 Y27.0189 Z-5.5000 F1000.00
G2 X-5.0104 Y35.6284 Z-5.5000 I10.5000 J-0.0000 F1000.00
G1 X57.9896 Y79.6096 Z-5.5000 F1000.00
G2 X64.0000 Y81.5000 Z-5.5000 I6.0104 J-8.6096 F1000.00
G1 X92.0000 Y81.5000 Z-5.5000 F1000.00
G2 X99.4246 Y78.4246 Z-5.5000 I-0.0000 J-10.5000 F1000.00
G1 X99.4246 Y78.4246 Z-6.0000 F300.00
G2 X102.5000 Y71.0000 Z-6.0000 I-7.4246 J-7.4246 F1000.00
G1 X102.5000 Y65.0000 Z-6.0000 F1000.00
G2 X92.0000 Y54.5000 Z-6.0000 I-10.5000 J0.0000 F1000.00
G1 X77.4837 Y54.5000 Z-6.0000 F1000.00
G2 X74.0226 Y50.3989 Z-6.0000 I-9.4543 J4.4679 F1000.00
G2 X67.3025 Y48.5000 Z-6.0000 I-6.1144 J8.7981 F1000.00
G1 X21.5000 Y16.5247 Z-6.0000 F1000.00
G1 X21.5000 Y1.0000 Z-6.0000 F1000.00
G2 X11.0000 Y-9.5000 Z-6.0000 I-10.5000 J0.0000 F1000.00
G1 X1.0000 Y-9.5000 Z-6.0000 F1000.00
G2 X-9.5000 Y1.0000 Z-6.0000 I0.0000 J10.5000 F1000.00
G1 X-9.5000 Y27.0189 Z-6.0000 F1000.00
G2 X-5.0104 Y35.6284 Z-6.0000 I10.5000 J-0.0000 F1000.00
G1 X57.9896 Y79.6096 Z-6.0000 F1000.00
G2 X64.0000 Y81.5000 Z-6.0000 I6.0104 J-8.6096 F1000.00
G1 X92.0000 Y81.5000 Z-6.0000 F1000.00
G2 X99.4246 Y78.4246 Z-6.0000 I-0.0000 J-10.5000 F1000.00
G1 X99.4246 Y78.4246 Z-6.5000 F300.00
G2 X102.5000 Y71.0000 Z-6.5000 I-7.4246 J-7.4246 F1000.00
G1 X102.5000 Y65.0000 Z-6.5000 F1000.00
G2 X92.0000 Y54.5000 Z-6.5000 I-10.5000 J0.0000 F1000.00
G1 X77.4837 Y54.5000 Z-6.5000 F1000.00
G2 X74.0226 Y50.3989 Z-6.5000 I-9.4543 J4.4679 F1000.00
G2 X67.3025 Y48.5000 Z-6.5000 I-6.1144 J8.7981 F1000.00
G1 X21.5000 Y16.5247 Z-6.5000 F1000.00
G1 X21.5000 Y1.0000 Z-6.5000 F1000.00
G2 X11.0000 Y-9.5000 Z-6.5000 I-10.5000 J0.0000 F1000.00
G1 X1.0000 Y-9.5000 Z-6.5000 F1000.00
G2 X-9.5000 Y1.0000 Z-6.5000 I0.0000 J10.5000 F1000.00
G1 X-9.5000 Y27.0189 Z-6.5000 F1000.00
G2 X-5.0104 Y35.6284 Z-6.5000 I10.5000 J-0.0000 F1000.00
G1 X57.9896 Y79.6096 Z-6.5000 F1000.00
G2 X64.0000 Y81.5000 Z-6.5000 I6.0104 J-8.6096 F1000.00
G1 X92.0000 Y81.5000 Z-6.5000 F1000.00
G2 X99.4246 Y78.4246 Z-6.5000 I-0.0000 J-10.5000 F1000.00
G1 X99.4246 Y78.4246 Z-7.0000 F300.00
G2 X102.5000 Y71.0000 Z-7.0000 I-7.4246 J-7.4246 F1000.00
G1 X102.5000 Y65.0000 Z-7.0000 F1000.00
G2 X92.0000 Y54.5000 Z-7.0000 I-10.5000 J0.0000 F1000.00
G1 X77.4837 Y54.5000 Z-7.0000 F1000.00
G2 X74.0226 Y50.3989 Z-7.0000 I-9.4543 J4.4679 F1000.00
G2 X67.3025 Y48.5000 Z-7.0000 I-6.1144 J8.7981 F1000.00
G1 X21.5000 Y16.5247 Z-7.0000 F1000.00
G1 X21.5000 Y1.0000 Z-7.0000 F1000.00
G2 X11.0000 Y-9.5000 Z-7.0000 I-10.5000 J0.0000 F1000.00
G1 X1.0000 Y-9.5000 Z-7.0000 F1000.00
G2 X-9.5000 Y1.0000 Z-7.0000 I0.0000 J10.5000 F1000.00
G1 X-9.5000 Y27.0189 Z-7.0000 F1000.00
G2 X-5.0104 Y35.6284 Z-7.0000 I10.5000 J-0.0000 F1000.00
G1 X57.9896 Y79.6096 Z-7.0000 F1000.00
G2 X64.0000 Y81.5000 Z-7.0000 I6.0104 J-8.6096 F1000.00
G1 X92.0000 Y81.5000 Z-7.0000 F1000.00
G2 X99.4246 Y78.4246 Z-7.0000 I-0.0000 J-10.5000 F1000.00
G1 X99.4246 Y78.4246 Z-7.5000 F300.00
G2 X102.5000 Y71.0000 Z-7.5000 I-7.4246 J-7.4246 F1000.00
G1 X102.5000 Y65.0000 Z-7.5000 F1000.00
G2 X92.0000 Y54.5000 Z-7.5000 I-10.5000 J0.0000 F1000.00
G1 X77.4837 Y54.5000 Z-7.5000 F1000.00
G2 X74.0226 Y50.3989 Z-7.5000 I-9.4543 J4.4679 F1000.00
G2 X67.3025 Y48.5000 Z-7.5000 I-6.1144 J8.7981 F1000.00
G1 X21.5000 Y16.5247 Z-7.5000 F1000.00
G1 X21.5000 Y1.0000 Z-7.5000 F1000.00
G2 X11.0000 Y-9.5000 Z-7.5000 I-10.5000 J0.0000 F1000.00
G1 X1.0000 Y-9.5000 Z-7.5000 F1000.00
G2 X-9.5000 Y1.0000 Z-7.5000 I0.0000 J10.5000 F1000.00
G1 X-9.5000 Y27.0189 Z-7.5000 F1000.00
G2 X-5.0104 Y35.6284 Z-7.5000 I10.5000 J-0.0000 F1000.00
G1 X57.9896 Y79.6096 Z-7.5000 F1000.00
G2 X64.0000 Y81.5000 Z-7.5000 I6.0104 J-8.6096 F1000.00
G1 X92.0000 Y81.5000 Z-7.5000 F1000.00
G2 X99.4246 Y78.4246 Z-7.5000 I-0.0000 J-10.5000 F1000.00
G1 X99.4246 Y78.4246 Z-8.0000 F300.00
G2 X102.5000 Y71.0000 Z-8.0000 I-7.4246 J-7.4246 F1000.00
G1 X102.5000 Y65.0000 Z-8.0000 F1000.00
G2 X92.0000 Y54.5000 Z-8.0000 I-10.5000 J0.0000 F1000.00
G1 X77.4837 Y54.5000 Z-8.0000 F1000.00
G2 X74.0226 Y50.3989 Z-8.0000 I-9.4543 J4.4679 F1000.00
G2 X67.3025 Y48.5000 Z-8.0000 I-6.1144 J8.7981 F1000.00
G1 X21.5000 Y16.5247 Z-8.0000 F1000.00
G1 X21.5000 Y1.0000 Z-8.0000 F1000.00
G2 X11.0000 Y-9.5000 Z-8.0000 I-10.5000 J0.0000 F1000.00
G1 X1.0000 Y-9.5000 Z-8.0000 F1000.00
G2 X-9.5000 Y1.0000 Z-8.0000 I0.0000 J10.5000 F1000.00
G1 X-9.5000 Y27.0189 Z-8.0000 F1000.00
G2 X-5.0104 Y35.6284 Z-8.0000 I10.5000 J-0.0000 F1000.00
G1 X57.9896 Y79.6096 Z-8.0000 F1000.00
G2 X64.0000 Y81.5000 Z-8.0000 I6.0104 J-8.6096 F1000.00
G1 X92.0000 Y81.5000 Z-8.0000 F1000.00
G2 X99.4246 Y78.4246 Z-8.0000 I-0.0000 J-10.5000 F1000.00
G1 X99.4246 Y78.4246 Z-8.5000 F300.00
G2 X102.5000 Y71.0000 Z-8.5000 I-7.4246 J-7.4246 F1000.00
G1 X102.5000 Y65.0000 Z-8.5000 F1000.00
G2 X92.0000 Y54.5000 Z-8.5000 I-10.5000 J0.0000 F1000.00
G1 X77.4837 Y54.5000 Z-8.5000 F1000.00
G2 X74.0226 Y50.3989 Z-8.5000 I-9.4543 J4.4679 F1000.00
G2 X67.3025 Y48.5000 Z-8.5000 I-6.1144 J8.7981 F1000.00
G1 X21.5000 Y16.5247 Z-8.5000 F1000.00
G1 X21.5000 Y1.0000 Z-8.5000 F1000.00
G2 X11.0000 Y-9.5000 Z-8.5000 I-10.5000 J0.0000 F1000.00
G1 X1.0000 Y-9.5000 Z-8.5000 F1000.00
G2 X-9.5000 Y1.0000 Z-8.5000 I0.0000 J10.5000 F1000.00
G1 X-9.5000 Y27.0189 Z-8.5000 F1000.00
G2 X-5.0104 Y35.6284 Z-8.5000 I10.5000 J-0.0000 F1000.00
G1 X57.9896 Y79.6096 Z-8.5000 F1000.00
G2 X64.0000 Y81.5000 Z-8.5000 I6.0104 J-8.6096 F1000.00
G1 X92.0000 Y81.5000 Z-8.5000 F1000.00
G2 X99.4246 Y78.4246 Z-8.5000 I-0.0000 J-10.5000 F1000.00
G1 X99.4246 Y78.4246 Z-9.0000 F300.00
G2 X102.5000 Y71.0000 Z-9.0000 I-7.4246 J-7.4246 F1000.00
G1 X102.5000 Y65.0000 Z-9.0000 F1000.00
G2 X92.0000 Y54.5000 Z-9.0000 I-10.5000 J0.0000 F1000.00
G1 X77.4837 Y54.5000 Z-9.0000 F1000.00
G2 X74.0226 Y50.3989 Z-9.0000 I-9.4543 J4.4679 F1000.00
G2 X67.3025 Y48.5000 Z-9.0000 I-6.1144 J8.7981 F1000.00
G1 X21.5000 Y16.5247 Z-9.0000 F1000.00
G1 X21.5000 Y1.0000 Z-9.0000 F1000.00
G2 X11.0000 Y-9.5000 Z-9.0000 I-10.5000 J0.0000 F1000.00
G1 X1.0000 Y-9.5000 Z-9.0000 F1000.00
G2 X-9.5000 Y1.0000 Z-9.0000 I0.0000 J10.5000 F1000.00
G1 X-9.5000 Y27.0189 Z-9.0000 F1000.00
G2 X-5.0104 Y35.6284 Z-9.0000 I10.5000 J-0.0000 F1000.00
G1 X57.9896 Y79.6096 Z-9.0000 F1000.00
G2 X64.0000 Y81.5000 Z-9.0000 I6.0104 J-8.6096 F1000.00
G1 X92.0000 Y81.5000 Z-9.0000 F1000.00
G2 X99.4246 Y78.4246 Z-9.0000 I-0.0000 J-10.5000 F1000.00
G1 X99.4246 Y78.4246 Z-9.3700 F300.00
G2 X102.5000 Y71.0000 Z-9.3700 I-7.4246 J-7.4246 F1000.00
G1 X102.5000 Y65.0000 Z-9.3700 F1000.00
G2 X92.0000 Y54.5000 Z-9.3700 I-10.5000 J0.0000 F1000.00
G1 X77.4837 Y54.5000 Z-9.3700 F1000.00
G2 X74.0226 Y50.3989 Z-9.3700 I-9.4543 J4.4679 F1000.00
G2 X67.3025 Y48.5000 Z-9.3700 I-6.1144 J8.7981 F1000.00
G1 X21.5000 Y16.5247 Z-9.3700 F1000.00
G1 X21.5000 Y1.0000 Z-9.3700 F1000.00
G2 X11.0000 Y-9.5000 Z-9.3700 I-10.5000 J0.0000 F1000.00
G1 X1.0000 Y-9.5000 Z-9.3700 F1000.00
G2 X-9.5000 Y1.0000 Z-9.3700 I0.0000 J10.5000 F1000.00
G1 X-9.5000 Y27.0189 Z-9.3700 F1000.00
G2 X-5.0104 Y35.6284 Z-9.3700 I10.5000 J-0.0000 F1000.00
G1 X57.9896 Y79.6096 Z-9.3700 F1000.00
G2 X64.0000 Y81.5000 Z-9.3700 I6.0104 J-8.6096 F1000.00
G1 X92.0000 Y81.5000 Z-9.3700 F1000.00
G2 X99.4246 Y78.4246 Z-9.3700 I-0.0000 J-10.5000 F1000.00
G0 Z5.0000
(finish operation: Profile_Faces)
(begin operation: TagDressup)
(Path: TagDressup)
G0 Z5.0000
G0 X93.0607 Y72.0607 Z5.0000
G0 X93.0607 Y72.0607 Z3.0000
G1 X93.0607 Y72.0607 Z-9.8700 F300.00
G2 X93.5000 Y71.0000 Z-9.8700 I-1.0607 J-1.0607 F1000.00
G1 X93.5000 Y65.0000 Z-9.8700 F1000.00
G2 X92.0000 Y63.5000 Z-9.8700 I-1.5000 J0.0000 F1000.00
G1 X69.5000 Y63.5000 Z-9.8700 F1000.00
G1 X69.5000 Y59.0000 Z-9.8700 F1000.00
G2 X68.0000 Y57.5000 Z-9.8700 I-1.5000 J0.0000 F1000.00
G1 X64.4718 Y57.5000 Z-9.8700 F1000.00
G1 X12.5000 Y21.2178 Z-9.8700 F1000.00
G1 X12.5000 Y1.0000 Z-9.8700 F1000.00
G2 X11.0000 Y-0.5000 Z-9.8700 I-1.5000 J0.0000 F1000.00
G1 X1.0000 Y-0.5000 Z-9.8700 F1000.00
G2 X-0.5000 Y1.0000 Z-9.8700 I0.0000 J1.5000 F1000.00
G1 X-0.5000 Y27.0189 Z-9.8700 F1000.00
G2 X0.1414 Y28.2488 Z-9.8700 I1.5000 J0.0000 F1000.00
G1 X63.1414 Y72.2299 Z-9.8700 F1000.00
G2 X64.0000 Y72.5000 Z-9.8700 I0.8586 J-1.2299 F1000.00
G1 X92.0000 Y72.5000 Z-9.8700 F1000.00
G2 X93.0607 Y72.0607 Z-9.8700 I0.0000 J-1.5000 F1000.00
G1 X93.0607 Y72.0607 Z-10.3700 F300.00
G2 X93.5000 Y71.0000 Z-10.3700 I-1.0607 J-1.0607 F1000.00
G1 X93.5000 Y65.0000 Z-10.3700 F1000.00
G2 X92.0000 Y63.5000 Z-10.3700 I-1.5000 J0.0000 F1000.00
G1 X69.5000 Y63.5000 Z-10.3700 F1000.00
G1 X69.5000 Y59.0000 Z-10.3700 F1000.00
G2 X68.0000 Y57.5000 Z-10.3700 I-1.5000 J0.0000 F1000.00
G1 X64.4718 Y57.5000 Z-10.3700 F1000.00
G1 X12.5000 Y21.2178 Z-10.3700 F1000.00
G1 X12.5000 Y1.0000 Z-10.3700 F1000.00
G2 X11.0000 Y-0.5000 Z-10.3700 I-1.5000 J0.0000 F1000.00
G1 X1.0000 Y-0.5000 Z-10.3700 F1000.00
G2 X-0.5000 Y1.0000 Z-10.3700 I0.0000 J1.5000 F1000.00
G1 X-0.5000 Y27.0189 Z-10.3700 F1000.00
G2 X0.1414 Y28.2488 Z-10.3700 I1.5000 J0.0000 F1000.00
G1 X63.1414 Y72.2299 Z-10.3700 F1000.00
G2 X64.0000 Y72.5000 Z-10.3700 I0.8586 J-1.2299 F1000.00
G1 X92.0000 Y72.5000 Z-10.3700 F1000.00
G2 X93.0607 Y72.0607 Z-10.3700 I0.0000 J-1.5000 F1000.00
G1 X93.0607 Y72.0607 Z-10.8700 F300.00
G2 X93.5000 Y71.0000 Z-10.8700 I-1.0607 J-1.0607 F1000.00
G1 X93.5000 Y65.0000 Z-10.8700 F1000.00
G2 X92.0000 Y63.5000 Z-10.8700 I-1.5000 J0.0000 F1000.00
G1 X69.5000 Y63.5000 Z-10.8700 F1000.00
G1 X69.5000 Y59.0000 Z-10.8700 F1000.00
G2 X68.0000 Y57.5000 Z-10.8700 I-1.5000 J0.0000 F1000.00
G1 X64.4718 Y57.5000 Z-10.8700 F1000.00
G1 X12.5000 Y21.2178 Z-10.8700 F1000.00
G1 X12.5000 Y1.0000 Z-10.8700 F1000.00
G2 X11.0000 Y-0.5000 Z-10.8700 I-1.5000 J0.0000 F1000.00
G1 X1.0000 Y-0.5000 Z-10.8700 F1000.00
G2 X-0.5000 Y1.0000 Z-10.8700 I0.0000 J1.5000 F1000.00
G1 X-0.5000 Y27.0189 Z-10.8700 F1000.00
G2 X0.1414 Y28.2488 Z-10.8700 I1.5000 J0.0000 F1000.00
G1 X63.1414 Y72.2299 Z-10.8700 F1000.00
G2 X64.0000 Y72.5000 Z-10.8700 I0.8586 J-1.2299 F1000.00
G1 X92.0000 Y72.5000 Z-10.8700 F1000.00
G2 X93.0607 Y72.0607 Z-10.8700 I0.0000 J-1.5000 F1000.00
G1 X93.0607 Y72.0607 Z-11.3700 F300.00
G2 X93.5000 Y71.0000 Z-11.3700 I-1.0607 J-1.0607 F1000.00
G1 X93.5000 Y65.0000 Z-11.3700 F1000.00
G2 X92.0000 Y63.5000 Z-11.3700 I-1.5000 J0.0000 F1000.00
G1 X69.5000 Y63.5000 Z-11.3700 F1000.00
G1 X69.5000 Y59.0000 Z-11.3700 F1000.00
G2 X68.0000 Y57.5000 Z-11.3700 I-1.5000 J0.0000 F1000.00
G1 X64.4718 Y57.5000 Z-11.3700 F1000.00
G1 X12.5000 Y21.2178 Z-11.3700 F1000.00
G1 X12.5000 Y1.0000 Z-11.3700 F1000.00
G2 X11.0000 Y-0.5000 Z-11.3700 I-1.5000 J0.0000 F1000.00
G1 X1.0000 Y-0.5000 Z-11.3700 F1000.00
G2 X-0.5000 Y1.0000 Z-11.3700 I0.0000 J1.5000 F1000.00
G1 X-0.5000 Y27.0189 Z-11.3700 F1000.00
G2 X0.1414 Y28.2488 Z-11.3700 I1.5000 J0.0000 F1000.00
G1 X63.1414 Y72.2299 Z-11.3700 F1000.00
G2 X64.0000 Y72.5000 Z-11.3700 I0.8586 J-1.2299 F1000.00
G1 X92.0000 Y72.5000 Z-11.3700 F1000.00
G2 X93.0607 Y72.0607 Z-11.3700 I0.0000 J-1.5000 F1000.00
G1 X93.0607 Y72.0607 Z-11.8700 F300.00
G2 X93.5000 Y71.0000 Z-11.8700 I-1.0607 J-1.0607 F1000.00
G1 X93.5000 Y65.0000 Z-11.8700 F1000.00
G2 X92.0000 Y63.5000 Z-11.8700 I-1.5000 J0.0000 F1000.00
G1 X69.5000 Y63.5000 Z-11.8700 F1000.00
G1 X69.5000 Y59.0000 Z-11.8700 F1000.00
G2 X68.0000 Y57.5000 Z-11.8700 I-1.5000 J0.0000 F1000.00
G1 X64.4718 Y57.5000 Z-11.8700 F1000.00
G1 X12.5000 Y21.2178 Z-11.8700 F1000.00
G1 X12.5000 Y1.0000 Z-11.8700 F1000.00
G2 X11.0000 Y-0.5000 Z-11.8700 I-1.5000 J0.0000 F1000.00
G1 X1.0000 Y-0.5000 Z-11.8700 F1000.00
G2 X-0.5000 Y1.0000 Z-11.8700 I0.0000 J1.5000 F1000.00
G1 X-0.5000 Y27.0189 Z-11.8700 F1000.00
G2 X0.1414 Y28.2488 Z-11.8700 I1.5000 J0.0000 F1000.00
G1 X63.1414 Y72.2299 Z-11.8700 F1000.00
G2 X64.0000 Y72.5000 Z-11.8700 I0.8586 J-1.2299 F1000.00
G1 X92.0000 Y72.5000 Z-11.8700 F1000.00
G2 X93.0607 Y72.0607 Z-11.8700 I0.0000 J-1.5000 F1000.00
G1 X93.0607 Y72.0607 Z-12.3700 F300.00
G2 X93.5000 Y71.0000 Z-12.3700 I-1.0607 J-1.0607 F1000.00
G1 X93.5000 Y65.0000 Z-12.3700 F1000.00
G2 X92.0000 Y63.5000 Z-12.3700 I-1.5000 J0.0000 F1000.00
G1 X69.5000 Y63.5000 Z-12.3700 F1000.00
G1 X69.5000 Y59.0000 Z-12.3700 F1000.00
G2 X68.0000 Y57.5000 Z-12.3700 I-1.5000 J0.0000 F1000.00
G1 X64.4718 Y57.5000 Z-12.3700 F1000.00
G1 X12.5000 Y21.2178 Z-12.3700 F1000.00
G1 X12.5000 Y1.0000 Z-12.3700 F1000.00
G2 X11.0000 Y-0.5000 Z-12.3700 I-1.5000 J0.0000 F1000.00
G1 X1.0000 Y-0.5000 Z-12.3700 F1000.00
G2 X-0.5000 Y1.0000 Z-12.3700 I0.0000 J1.5000 F1000.00
G1 X-0.5000 Y27.0189 Z-12.3700 F1000.00
G2 X0.1414 Y28.2488 Z-12.3700 I1.5000 J0.0000 F1000.00
G1 X63.1414 Y72.2299 Z-12.3700 F1000.00
G2 X64.0000 Y72.5000 Z-12.3700 I0.8586 J-1.2299 F1000.00
G1 X92.0000 Y72.5000 Z-12.3700 F1000.00
G2 X93.0607 Y72.0607 Z-12.3700 I0.0000 J-1.5000 F1000.00
G1 X93.0607 Y72.0607 Z-12.8700 F300.00
G2 X93.5000 Y71.0000 Z-12.8700 I-1.0607 J-1.0607 F1000.00
G1 X93.5000 Y65.0000 Z-12.8700 F1000.00
G2 X92.0000 Y63.5000 Z-12.8700 I-1.5000 J0.0000 F1000.00
G1 X69.5000 Y63.5000 Z-12.8700 F1000.00
G1 X69.5000 Y59.0000 Z-12.8700 F1000.00
G2 X68.0000 Y57.5000 Z-12.8700 I-1.5000 J0.0000 F1000.00
G1 X64.4718 Y57.5000 Z-12.8700 F1000.00
G1 X12.5000 Y21.2178 Z-12.8700 F1000.00
G1 X12.5000 Y1.0000 Z-12.8700 F1000.00
G2 X11.0000 Y-0.5000 Z-12.8700 I-1.5000 J0.0000 F1000.00
G1 X1.0000 Y-0.5000 Z-12.8700 F1000.00
G2 X-0.5000 Y1.0000 Z-12.8700 I0.0000 J1.5000 F1000.00
G1 X-0.5000 Y27.0189 Z-12.8700 F1000.00
G2 X0.1414 Y28.2488 Z-12.8700 I1.5000 J0.0000 F1000.00
G1 X63.1414 Y72.2299 Z-12.8700 F1000.00
G2 X64.0000 Y72.5000 Z-12.8700 I0.8586 J-1.2299 F1000.00
G1 X92.0000 Y72.5000 Z-12.8700 F1000.00
G2 X93.0607 Y72.0607 Z-12.8700 I0.0000 J-1.5000 F1000.00
G1 X93.0607 Y72.0607 Z-13.3700 F300.00
G2 X93.5000 Y71.0000 Z-13.3700 I-1.0607 J-1.0607 F1000.00
G1 X93.5000 Y65.0000 Z-13.3700 F1000.00
G2 X92.0000 Y63.5000 Z-13.3700 I-1.5000 J0.0000 F1000.00
G1 X69.5000 Y63.5000 Z-13.3700 F1000.00
G1 X69.5000 Y59.0000 Z-13.3700 F1000.00
G2 X68.0000 Y57.5000 Z-13.3700 I-1.5000 J0.0000 F1000.00
G1 X64.4718 Y57.5000 Z-13.3700 F1000.00
G1 X12.5000 Y21.2178 Z-13.3700 F1000.00
G1 X12.5000 Y1.0000 Z-13.3700 F1000.00
G2 X11.0000 Y-0.5000 Z-13.3700 I-1.5000 J0.0000 F1000.00
G1 X1.0000 Y-0.5000 Z-13.3700 F1000.00
G2 X-0.5000 Y1.0000 Z-13.3700 I0.0000 J1.5000 F1000.00
G1 X-0.5000 Y27.0189 Z-13.3700 F1000.00
G2 X0.1414 Y28.2488 Z-13.3700 I1.5000 J0.0000 F1000.00
G1 X63.1414 Y72.2299 Z-13.3700 F1000.00
G2 X64.0000 Y72.5000 Z-13.3700 I0.8586 J-1.2299 F1000.00
G1 X92.0000 Y72.5000 Z-13.3700 F1000.00
G2 X93.0607 Y72.0607 Z-13.3700 I0.0000 J-1.5000 F1000.00
G1 X93.0607 Y72.0607 Z-13.8700 F300.00
G2 X93.5000 Y71.0000 Z-13.8700 I-1.0607 J-1.0607 F1000.00
G1 X93.5000 Y65.0000 Z-13.8700 F1000.00
G2 X92.0000 Y63.5000 Z-13.8700 I-1.5000 J0.0000 F1000.00
G1 X69.5000 Y63.5000 Z-13.8700 F1000.00
G1 X69.5000 Y59.0000 Z-13.8700 F1000.00
G2 X68.0000 Y57.5000 Z-13.8700 I-1.5000 J0.0000 F1000.00
G1 X64.4718 Y57.5000 Z-13.8700 F1000.00
G1 X12.5000 Y21.2178 Z-13.8700 F1000.00
G1 X12.5000 Y1.0000 Z-13.8700 F1000.00
G2 X11.0000 Y-0.5000 Z-13.8700 I-1.5000 J0.0000 F1000.00
G1 X1.0000 Y-0.5000 Z-13.8700 F1000.00
G2 X-0.5000 Y1.0000 Z-13.8700 I0.0000 J1.5000 F1000.00
G1 X-0.5000 Y27.0189 Z-13.8700 F1000.00
G2 X0.1414 Y28.2488 Z-13.8700 I1.5000 J0.0000 F1000.00
G1 X63.1414 Y72.2299 Z-13.8700 F1000.00
G2 X64.0000 Y72.5000 Z-13.8700 I0.8586 J-1.2299 F1000.00
G1 X92.0000 Y72.5000 Z-13.8700 F1000.00
G2 X93.0607 Y72.0607 Z-13.8700 I0.0000 J-1.5000 F1000.00
G1 X93.0607 Y72.0607 Z-14.3700 F300.00
G2 X93.5000 Y71.0000 Z-14.3700 I-1.0607 J-1.0607 F1000.00
G1 X93.5000 Y65.0000 Z-14.3700 F1000.00
G2 X92.0000 Y63.5000 Z-14.3700 I-1.5000 J0.0000 F1000.00
G1 X69.5000 Y63.5000 Z-14.3700 F1000.00
G1 X69.5000 Y59.0000 Z-14.3700 F1000.00
G2 X68.0000 Y57.5000 Z-14.3700 I-1.5000 J0.0000 F1000.00
G1 X64.4718 Y57.5000 Z-14.3700 F1000.00
G1 X12.5000 Y21.2178 Z-14.3700 F1000.00
G1 X12.5000 Y1.0000 Z-14.3700 F1000.00
G2 X11.0000 Y-0.5000 Z-14.3700 I-1.5000 J0.0000 F1000.00
G1 X1.0000 Y-0.5000 Z-14.3700 F1000.00
G2 X-0.5000 Y1.0000 Z-14.3700 I0.0000 J1.5000 F1000.00
G1 X-0.5000 Y27.0189 Z-14.3700 F1000.00
G2 X0.1414 Y28.2488 Z-14.3700 I1.5000 J0.0000 F1000.00
G1 X63.1414 Y72.2299 Z-14.3700 F1000.00
G2 X64.0000 Y72.5000 Z-14.3700 I0.8586 J-1.2299 F1000.00
G1 X92.0000 Y72.5000 Z-14.3700 F1000.00
G2 X93.0607 Y72.0607 Z-14.3700 I0.0000 J-1.5000 F1000.00
G1 X93.0607 Y72.0607 Z-14.8700 F300.00
G2 X93.5000 Y71.0000 Z-14.8700 I-1.0607 J-1.0607 F1000.00
G1 X93.5000 Y65.0000 Z-14.8700 F1000.00
G2 X92.0000 Y63.5000 Z-14.8700 I-1.5000 J0.0000 F1000.00
G1 X69.5000 Y63.5000 Z-14.8700 F1000.00
G1 X69.5000 Y59.0000 Z-14.8700 F1000.00
G2 X68.0000 Y57.5000 Z-14.8700 I-1.5000 J0.0000 F1000.00
G1 X64.4718 Y57.5000 Z-14.8700 F1000.00
G1 X12.5000 Y21.2178 Z-14.8700 F1000.00
G1 X12.5000 Y1.0000 Z-14.8700 F1000.00
G2 X11.0000 Y-0.5000 Z-14.8700 I-1.5000 J0.0000 F1000.00
G1 X1.0000 Y-0.5000 Z-14.8700 F1000.00
G2 X-0.5000 Y1.0000 Z-14.8700 I0.0000 J1.5000 F1000.00
G1 X-0.5000 Y27.0189 Z-14.8700 F1000.00
G2 X0.1414 Y28.2488 Z-14.8700 I1.5000 J0.0000 F1000.00
G1 X63.1414 Y72.2299 Z-14.8700 F1000.00
G2 X64.0000 Y72.5000 Z-14.8700 I0.8586 J-1.2299 F1000.00
G1 X92.0000 Y72.5000 Z-14.8700 F1000.00
G2 X93.0607 Y72.0607 Z-14.8700 I0.0000 J-1.5000 F1000.00
G1 X93.0607 Y72.0607 Z-15.3700 F300.00
G2 X93.5000 Y71.0000 Z-15.3700 I-1.0607 J-1.0607 F1000.00
G1 X93.5000 Y65.0000 Z-15.3700 F1000.00
G2 X92.0000 Y63.5000 Z-15.3700 I-1.5000 J0.0000 F1000.00
G1 X69.5000 Y63.5000 Z-15.3700 F1000.00
G1 X69.5000 Y59.0000 Z-15.3700 F1000.00
G2 X68.0000 Y57.5000 Z-15.3700 I-1.5000 J0.0000 F1000.00
G1 X64.4718 Y57.5000 Z-15.3700 F1000.00
G1 X12.5000 Y21.2178 Z-15.3700 F1000.00
G1 X12.5000 Y1.0000 Z-15.3700 F1000.00
G2 X11.0000 Y-0.5000 Z-15.3700 I-1.5000 J0.0000 F1000.00
G1 X1.0000 Y-0.5000 Z-15.3700 F1000.00
G2 X-0.5000 Y1.0000 Z-15.3700 I0.0000 J1.5000 F1000.00
G1 X-0.5000 Y27.0189 Z-15.3700 F1000.00
G2 X0.1414 Y28.2488 Z-15.3700 I1.5000 J0.0000 F1000.00
G1 X63.1414 Y72.2299 Z-15.3700 F1000.00
G2 X64.0000 Y72.5000 Z-15.3700 I0.8586 J-1.2299 F1000.00
G1 X92.0000 Y72.5000 Z-15.3700 F1000.00
G2 X93.0607 Y72.0607 Z-15.3700 I0.0000 J-1.5000 F1000.00
G1 X93.0607 Y72.0607 Z-15.8700 F300.00
G2 X93.5000 Y71.0000 Z-15.8700 I-1.0607 J-1.0607 F1000.00
G1 X93.5000 Y65.0000 Z-15.8700 F1000.00
G2 X92.0000 Y63.5000 Z-15.8700 I-1.5000 J0.0000 F1000.00
G1 X69.5000 Y63.5000 Z-15.8700 F1000.00
G1 X69.5000 Y59.0000 Z-15.8700 F1000.00
G2 X68.0000 Y57.5000 Z-15.8700 I-1.5000 J0.0000 F1000.00
G1 X64.4718 Y57.5000 Z-15.8700 F1000.00
G1 X12.5000 Y21.2178 Z-15.8700 F1000.00
G1 X12.5000 Y1.0000 Z-15.8700 F1000.00
G2 X11.0000 Y-0.5000 Z-15.8700 I-1.5000 J0.0000 F1000.00
G1 X1.0000 Y-0.5000 Z-15.8700 F1000.00
G2 X-0.5000 Y1.0000 Z-15.8700 I0.0000 J1.5000 F1000.00
G1 X-0.5000 Y27.0189 Z-15.8700 F1000.00
G2 X0.1414 Y28.2488 Z-15.8700 I1.5000 J0.0000 F1000.00
G1 X63.1414 Y72.2299 Z-15.8700 F1000.00
G2 X64.0000 Y72.5000 Z-15.8700 I0.8586 J-1.2299 F1000.00
G1 X92.0000 Y72.5000 Z-15.8700 F1000.00
G2 X93.0607 Y72.0607 Z-15.8700 I0.0000 J-1.5000 F1000.00
G1 X93.0607 Y72.0607 Z-16.3700 F300.00
G2 X93.5000 Y71.0000 Z-16.3700 I-1.0607 J-1.0607 F1000.00
G1 X93.5000 Y65.0000 Z-16.3700 F1000.00
G2 X92.0000 Y63.5000 Z-16.3700 I-1.5000 J0.0000 F1000.00
G1 X69.5000 Y63.5000 Z-16.3700 F1000.00
G1 X69.5000 Y59.0000 Z-16.3700 F1000.00
G2 X68.0000 Y57.5000 Z-16.3700 I-1.5000 J0.0000 F1000.00
G1 X64.4718 Y57.5000 Z-16.3700 F1000.00
G1 X12.5000 Y21.2178 Z-16.3700 F1000.00
G1 X12.5000 Y1.0000 Z-16.3700 F1000.00
G2 X11.0000 Y-0.5000 Z-16.3700 I-1.5000 J0.0000 F1000.00
G1 X1.0000 Y-0.5000 Z-16.3700 F1000.00
G2 X-0.5000 Y1.0000 Z-16.3700 I0.0000 J1.5000 F1000.00
G1 X-0.5000 Y27.0189 Z-16.3700 F1000.00
G2 X0.1414 Y28.2488 Z-16.3700 I1.5000 J0.0000 F1000.00
G1 X63.1414 Y72.2299 Z-16.3700 F1000.00
G2 X64.0000 Y72.5000 Z-16.3700 I0.8586 J-1.2299 F1000.00
G1 X92.0000 Y72.5000 Z-16.3700 F1000.00
G2 X93.0607 Y72.0607 Z-16.3700 I0.0000 J-1.5000 F1000.00
G1 X93.0607 Y72.0607 Z-16.8700 F300.00
G2 X93.5000 Y71.0000 Z-16.8700 I-1.0607 J-1.0607 F1000.00
G1 X93.5000 Y65.0000 Z-16.8700 F1000.00
G2 X92.0000 Y63.5000 Z-16.8700 I-1.5000 J0.0000 F1000.00
G1 X69.5000 Y63.5000 Z-16.8700 F1000.00
G1 X69.5000 Y59.0000 Z-16.8700 F1000.00
G2 X68.0000 Y57.5000 Z-16.8700 I-1.5000 J0.0000 F1000.00
G1 X64.4718 Y57.5000 Z-16.8700 F1000.00
G1 X12.5000 Y21.2178 Z-16.8700 F1000.00
G1 X12.5000 Y1.0000 Z-16.8700 F1000.00
G2 X11.0000 Y-0.5000 Z-16.8700 I-1.5000 J0.0000 F1000.00
G1 X1.0000 Y-0.5000 Z-16.8700 F1000.00
G2 X-0.5000 Y1.0000 Z-16.8700 I0.0000 J1.5000 F1000.00
G1 X-0.5000 Y27.0189 Z-16.8700 F1000.00
G2 X0.1414 Y28.2488 Z-16.8700 I1.5000 J0.0000 F1000.00
G1 X63.1414 Y72.2299 Z-16.8700 F1000.00
G2 X64.0000 Y72.5000 Z-16.8700 I0.8586 J-1.2299 F1000.00
G1 X92.0000 Y72.5000 Z-16.8700 F1000.00
G2 X93.0607 Y72.0607 Z-16.8700 I0.0000 J-1.5000 F1000.00
G1 X93.0607 Y72.0607 Z-17.3700 F300.00
G2 X93.5000 Y71.0000 Z-17.3700 I-1.0607 J-1.0607 F1000.00
G1 X93.5000 Y65.0000 Z-17.3700 F1000.00
G2 X92.0000 Y63.5000 Z-17.3700 I-1.5000 J0.0000 F1000.00
G1 X69.5000 Y63.5000 Z-17.3700 F1000.00
G1 X69.5000 Y59.0000 Z-17.3700 F1000.00
G2 X68.0000 Y57.5000 Z-17.3700 I-1.5000 J0.0000 F1000.00
G1 X64.4718 Y57.5000 Z-17.3700 F1000.00
G1 X12.5000 Y21.2178 Z-17.3700 F1000.00
G1 X12.5000 Y1.0000 Z-17.3700 F1000.00
G2 X11.0000 Y-0.5000 Z-17.3700 I-1.5000 J0.0000 F1000.00
G1 X1.0000 Y-0.5000 Z-17.3700 F1000.00
G2 X-0.5000 Y1.0000 Z-17.3700 I0.0000 J1.5000 F1000.00
G1 X-0.5000 Y27.0189 Z-17.3700 F1000.00
G2 X0.1414 Y28.2488 Z-17.3700 I1.5000 J0.0000 F1000.00
G1 X63.1414 Y72.2299 Z-17.3700 F1000.00
G2 X64.0000 Y72.5000 Z-17.3700 I0.8586 J-1.2299 F1000.00
G1 X92.0000 Y72.5000 Z-17.3700 F1000.00
G2 X93.0607 Y72.0607 Z-17.3700 I0.0000 J-1.5000 F1000.00
G1 X93.0607 Y72.0607 Z-17.8700 F300.00
G2 X93.5000 Y71.0000 Z-17.8700 I-1.0607 J-1.0607 F1000.00
G1 X93.5000 Y65.0000 Z-17.8700 F1000.00
G2 X92.0000 Y63.5000 Z-17.8700 I-1.5000 J0.0000 F1000.00
G1 X69.5000 Y63.5000 Z-17.8700 F1000.00
G1 X69.5000 Y59.0000 Z-17.8700 F1000.00
G2 X68.0000 Y57.5000 Z-17.8700 I-1.5000 J0.0000 F1000.00
G1 X64.4718 Y57.5000 Z-17.8700 F1000.00
G1 X12.5000 Y21.2178 Z-17.8700 F1000.00
G1 X12.5000 Y1.0000 Z-17.8700 F1000.00
G2 X11.0000 Y-0.5000 Z-17.8700 I-1.5000 J0.0000 F1000.00
G1 X1.0000 Y-0.5000 Z-17.8700 F1000.00
G2 X-0.5000 Y1.0000 Z-17.8700 I0.0000 J1.5000 F1000.00
G1 X-0.5000 Y27.0189 Z-17.8700 F1000.00
G2 X0.1414 Y28.2488 Z-17.8700 I1.5000 J0.0000 F1000.00
G1 X63.1414 Y72.2299 Z-17.8700 F1000.00
G2 X64.0000 Y72.5000 Z-17.8700 I0.8586 J-1.2299 F1000.00
G1 X92.0000 Y72.5000 Z-17.8700 F1000.00
G2 X93.0607 Y72.0607 Z-17.8700 I0.0000 J-1.5000 F1000.00
G1 X93.0607 Y72.0607 Z-18.3700 F300.00
G2 X93.5000 Y71.0000 Z-18.3700 I-1.0607 J-1.0607 F1000.00
G1 X93.5000 Y65.0000 Z-18.3700 F1000.00
G2 X92.0000 Y63.5000 Z-18.3700 I-1.5000 J0.0000 F1000.00
G1 X69.5000 Y63.5000 Z-18.3700 F1000.00
G1 X69.5000 Y59.0000 Z-18.3700 F1000.00
G2 X68.0000 Y57.5000 Z-18.3700 I-1.5000 J0.0000 F1000.00
G1 X64.4718 Y57.5000 Z-18.3700 F1000.00
G1 X12.5000 Y21.2178 Z-18.3700 F1000.00
G1 X12.5000 Y1.0000 Z-18.3700 F1000.00
G2 X11.0000 Y-0.5000 Z-18.3700 I-1.5000 J0.0000 F1000.00
G1 X1.0000 Y-0.5000 Z-18.3700 F1000.00
G2 X-0.5000 Y1.0000 Z-18.3700 I0.0000 J1.5000 F1000.00
G1 X-0.5000 Y27.0189 Z-18.3700 F1000.00
G2 X0.1414 Y28.2488 Z-18.3700 I1.5000 J0.0000 F1000.00
G1 X63.1414 Y72.2299 Z-18.3700 F1000.00
G2 X64.0000 Y72.5000 Z-18.3700 I0.8586 J-1.2299 F1000.00
G1 X92.0000 Y72.5000 Z-18.3700 F1000.00
G2 X93.0607 Y72.0607 Z-18.3700 I0.0000 J-1.5000 F1000.00
G1 X93.0607 Y72.0607 Z-18.8700 F300.00
G2 X93.5000 Y71.0000 Z-18.8700 I-1.0607 J-1.0607 F1000.00
G1 X93.5000 Y65.0000 Z-18.8700 F1000.00
G2 X92.0000 Y63.5000 Z-18.8700 I-1.5000 J0.0000 F1000.00
G1 X82.7400 Y63.5000 Z-18.8700 F1000.00
G1 X82.2400 Y63.5000 Z-18.3700 F650.00
G1 X79.2600 Y63.5000 Z-18.3700 F1000.00
G1 X78.7600 Y63.5000 Z-18.8700 F650.00
G1 X69.5000 Y63.5000 Z-18.8700 F1000.00
G1 X69.5000 Y59.0000 Z-18.8700 F1000.00
G2 X68.0000 Y57.5000 Z-18.8700 I-1.5000 J0.0000 F1000.00
G1 X64.4718 Y57.5000 Z-18.8700 F1000.00
G1 X40.1176 Y40.4980 Z-18.8700 F1000.00
G1 X39.7076 Y40.2118 Z-18.3700 F650.00
G1 X37.2642 Y38.5060 Z-18.3700 F1000.00
G1 X36.8542 Y38.2198 Z-18.8700 F650.00
G1 X12.5000 Y21.2178 Z-18.8700 F1000.00
G1 X12.5000 Y13.0989 Z-18.8700 F1000.00
G1 X12.5000 Y12.5989 Z-18.3700 F650.00
G1 X12.5000 Y9.6189 Z-18.3700 F1000.00
G1 X12.5000 Y9.1189 Z-18.8700 F650.00
G1 X12.5000 Y1.0000 Z-18.8700 F1000.00
G2 X11.0000 Y-0.5000 Z-18.8700 I-1.5000 J0.0000 F1000.00
G1 X1.0000 Y-0.5000 Z-18.8700 F1000.00
G2 X-0.5000 Y1.0000 Z-18.8700 I0.0000 J1.5000 F1000.00
G1 X-0.5000 Y27.0189 Z-18.8700 F1000.00
G2 X0.1414 Y28.2488 Z-18.8700 I1.5000 J0.0000 F1000.00
G1 X14.2596 Y38.1050 Z-18.8700 F1000.00
G1 X14.6696 Y38.3912 Z-18.3700 F650.00
G1 X17.1131 Y40.0970 Z-18.3700 F1000.00
G1 X17.5231 Y40.3832 Z-18.8700 F650.00
G1 X45.7596 Y60.0955 Z-18.8700 F1000.00
G1 X46.1696 Y60.3817 Z-18.3700 F650.00
G1 X48.6131 Y62.0876 Z-18.3700 F1000.00
G1 X49.0231 Y62.3738 Z-18.8700 F650.00
G1 X63.1414 Y72.2299 Z-18.8700 F1000.00
G2 X64.0000 Y72.5000 Z-18.8700 I0.8586 J-1.2299 F1000.00
G1 X92.0000 Y72.5000 Z-18.8700 F1000.00
G2 X93.0607 Y72.0607 Z-18.8700 I0.0000 J-1.5000 F1000.00
G1 X93.0607 Y72.0607 Z-19.3700 F300.00
G2 X93.5000 Y71.0000 Z-19.3700 I-1.0607 J-1.0607 F1000.00
G1 X93.5000 Y65.0000 Z-19.3700 F1000.00
G2 X92.0000 Y63.5000 Z-19.3700 I-1.5000 J0.0000 F1000.00
G1 X83.2400 Y63.5000 Z-19.3700 F1000.00
G1 X82.2400 Y63.5000 Z-18.3700 F650.00
G1 X79.2600 Y63.5000 Z-18.3700 F1000.00
G1 X78.2600 Y63.5000 Z-19.3700 F650.00
G1 X69.5000 Y63.5000 Z-19.3700 F1000.00
G1 X69.5000 Y59.0000 Z-19.3700 F1000.00
G2 X68.0000 Y57.5000 Z-19.3700 I-1.5000 J0.0000 F1000.00
G1 X64.4718 Y57.5000 Z-19.3700 F1000.00
G1 X40.5276 Y40.7842 Z-19.3700 F1000.00
G1 X39.7076 Y40.2118 Z-18.3700 F650.00
G1 X37.2642 Y38.5060 Z-18.3700 F1000.00
G1 X36.4442 Y37.9336 Z-19.3700 F650.00
G1 X12.5000 Y21.2178 Z-19.3700 F1000.00
G1 X12.5000 Y13.5989 Z-19.3700 F1000.00
G1 X12.5000 Y12.5989 Z-18.3700 F650.00
G1 X12.5000 Y9.6189 Z-18.3700 F1000.00
G1 X12.5000 Y8.6189 Z-19.3700 F650.00
G1 X12.5000 Y1.0000 Z-19.3700 F1000.00
G2 X11.0000 Y-0.5000 Z-19.3700 I-1.5000 J0.0000 F1000.00
G1 X1.0000 Y-0.5000 Z-19.3700 F1000.00
G2 X-0.5000 Y1.0000 Z-19.3700 I0.0000 J1.5000 F1000.00
G1 X-0.5000 Y27.0189 Z-19.3700 F1000.00
G2 X0.1414 Y28.2488 Z-19.3700 I1.5000 J0.0000 F1000.00
G1 X13.8497 Y37.8188 Z-19.3700 F1000.00
G1 X14.6696 Y38.3912 Z-18.3700 F650.00
G1 X17.1131 Y40.0970 Z-18.3700 F1000.00
G1 X17.9331 Y40.6694 Z-19.3700 F650.00
G1 X45.3497 Y59.8093 Z-19.3700 F1000.00
G1 X46.1696 Y60.3817 Z-18.3700 F650.00
G1 X48.6131 Y62.0876 Z-18.3700 F1000.00
G1 X49.4331 Y62.6600 Z-19.3700 F650.00
G1 X63.1414 Y72.2299 Z-19.3700 F1000.00
G2 X64.0000 Y72.5000 Z-19.3700 I0.8586 J-1.2299 F1000.00
G1 X92.0000 Y72.5000 Z-19.3700 F1000.00
G2 X93.0607 Y72.0607 Z-19.3700 I0.0000 J-1.5000 F1000.00
G0 X93.0607 Y72.0607 Z5.0000
(finish operation: TagDressup)
(begin postamble)
M5
G17 G90
; M2
