(Exported by FreeCAD)
(Post Processor: grbl_post)
(Output Time:2019-08-14 18:41:18.650543)
(begin preamble)
G17 G90
G21
(begin operation: T2: end mill 3mm001)
(Path: T2: end mill 3mm001)
(T2: end mill 3mm001)
(begin toolchange)
; M6 T2
M3 S10000.0000
(finish operation: T2: end mill 3mm001)
(begin operation: MillFace)
(Path: MillFace)
(MillFace)
G0 Z13.3700
G0 X99.4246 Y51.5754
G0 Z11.3700
G1 X99.4246 Y51.5754 Z-0.5000 F300.00
G3 X102.4158 Y57.7485 Z-0.5000 I-7.3511 J7.3732 F1200.00
G1 X93.2515 Y48.5842 Z-0.5000 F1200.00
G2 X89.9853 Y48.5000 Z-0.5000 I-2.2589 J24.2202 F1200.00
G1 X102.5000 Y61.0147 Z-0.5000 F1200.00
G1 X102.5000 Y64.1967 Z-0.5000 F1200.00
G1 X86.8033 Y48.5000 Z-0.5000 F1200.00
G1 X83.6213 Y48.5000 Z-0.5000 F1200.00
G1 X102.2686 Y67.1473 Z-0.5000 F1200.00
G3 X101.4685 Y69.5292 Z-0.5000 I-9.5036 J-1.8673 F1200.00
G1 X80.4393 Y48.5000 Z-0.5000 F1200.00
G1 X77.2574 Y48.5000 Z-0.5000 F1200.00
G1 X100.2446 Y71.4872 Z-0.5000 F1200.00
G3 X98.6755 Y73.1001 Z-0.5000 I-7.5626 J-5.7875 F1200.00
G1 X74.0754 Y48.5000 Z-0.5000 F1200.00
G1 X70.8934 Y48.5000 Z-0.5000 F1200.00
G1 X96.7480 Y74.3546 Z-0.5000 F1200.00
G3 X94.4197 Y75.2083 Z-0.5000 I-4.3501 J-8.2625 F1200.00
G1 X67.7114 Y48.5000 Z-0.5000 F1200.00
G1 X67.3025 Y48.5000 Z-0.5000 F1200.00
G1 X58.1167 Y42.0872 Z-0.5000 F1200.00
G1 X91.5294 Y75.5000 Z-0.5000 F1200.00
G1 X88.3475 Y75.5000 Z-0.5000 F1200.00
G1 X47.5764 Y34.7289 Z-0.5000 F1200.00
G1 X37.0361 Y27.3706 Z-0.5000 F1200.00
G1 X85.1655 Y75.5000 Z-0.5000 F1200.00
G1 X81.9835 Y75.5000 Z-0.5000 F1200.00
G1 X26.4958 Y20.0123 Z-0.5000 F1200.00
G1 X21.5000 Y16.5247 Z-0.5000 F1200.00
G1 X21.5000 Y15.0165 Z-0.5000 F1200.00
G1 X-2.4331 Y-8.9166 Z-0.5000 F1200.00
G2 X-4.5809 Y-7.8824 Z-0.5000 I2.9825 J8.9416 F1200.00
G1 X78.8015 Y75.5000 Z-0.5000 F1200.00
G1 X77.4837 Y75.5000 Z-0.5000 F1200.00
G3 X76.8116 Y76.6921 Z-0.5000 I-7.1488 J-3.2448 F1200.00
G1 X-6.3622 Y-6.4818 Z-0.5000 F1200.00
G2 X-7.7894 Y-4.7270 Z-0.5000 I6.6386 J6.8568 F1200.00
G1 X75.3920 Y78.4545 Z-0.5000 F1200.00
G3 X73.6158 Y79.8602 Z-0.5000 I-6.2719 J-6.0998 F1200.00
G1 X-8.8577 Y-2.6132 Z-0.5000 F1200.00
G2 X-9.4463 Y-0.0199 Z-0.5000 I9.5902 J3.5401 F1200.00
G1 X71.4765 Y80.9029 Z-0.5000 F1200.00
G3 X68.8543 Y81.4627 Z-0.5000 I-3.3989 J-9.5001 F1200.00
G1 X-9.5000 Y3.1084 Z-0.5000 F1200.00
G1 X-9.5000 Y6.2904 Z-0.5000 F1200.00
G1 X65.7096 Y81.5000 Z-0.5000 F1200.00
G3 X63.0870 Y81.4602 Z-0.5000 I-0.8548 J-30.1237 F1200.00
G1 X62.3973 Y81.3696 Z-0.5000 F1200.00
G1 X-9.5000 Y9.4723 Z-0.5000 F1200.00
G1 X-9.5000 Y12.6543 Z-0.5000 F1200.00
G1 X56.2196 Y78.3739 Z-0.5000 F1200.00
G1 X45.6793 Y71.0156 Z-0.5000 F1200.00
G1 X-9.5000 Y15.8363 Z-0.5000 F1200.00
G1 X-9.5000 Y19.0183 Z-0.5000 F1200.00
G1 X35.1390 Y63.6573 Z-0.5000 F1200.00
G1 X24.5987 Y56.2990 Z-0.5000 F1200.00
G1 X-9.5000 Y22.2003 Z-0.5000 F1200.00
G1 X-9.5000 Y25.3823 Z-0.5000 F1200.00
G1 X14.0584 Y48.9406 Z-0.5000 F1200.00
G1 X3.5181 Y41.5823 Z-0.5000 F1200.00
G1 X-9.3643 Y28.6999 Z-0.5000 F1200.00
G2 X-5.0104 Y35.6284 Z-0.5000 I10.3632 J-1.6800 F1200.00
G1 X3.5181 Y41.5823 Z-0.5000 F1200.00
G0 X3.5181 Y41.5823 Z13.3700
G0 X21.2751 Y-1.1183 Z13.3700
G0 X21.2751 Y-1.1183 Z10.8700
G1 X21.2751 Y-1.1183 Z-0.5000 F300.00
G2 X13.1183 Y-9.2751 Z-0.5000 I-10.2373 J2.0806 F1200.00
G1 X21.2751 Y-1.1183 Z-0.5000 F1200.00
G3 X21.5000 Y1.0000 Z-0.5000 I-9.5748 J2.0877 F1200.00
G1 X21.5000 Y2.2886 Z-0.5000 F1200.00
G1 X9.7114 Y-9.5000 Z-0.5000 F1200.00
G1 X6.5294 Y-9.5000 Z-0.5000 F1200.00
G1 X21.5000 Y5.4706 Z-0.5000 F1200.00
G1 X21.5000 Y8.6525 Z-0.5000 F1200.00
G1 X3.3475 Y-9.5000 Z-0.5000 F1200.00
G2 X0.2004 Y-9.4651 Z-0.5000 I-1.1737 J36.0574 F1200.00
G1 X21.5000 Y11.8345 Z-0.5000 F1200.00
G1 X21.5000 Y15.0165 Z-0.5000 F1200.00
G1 X-2.4331 Y-8.9166 Z-0.5000 F1200.00
G1 X-2.4331 Y-8.9166 Z-1.0000 F300.00
G1 X21.5000 Y15.0165 Z-1.0000 F1200.00
G1 X21.5000 Y11.8345 Z-1.0000 F1200.00
G1 X0.2004 Y-9.4651 Z-1.0000 F1200.00
G3 X3.3475 Y-9.5000 Z-1.0000 I1.9733 J36.0224 F1200.00
G1 X21.5000 Y8.6525 Z-1.0000 F1200.00
G1 X21.5000 Y5.4706 Z-1.0000 F1200.00
G1 X6.5294 Y-9.5000 Z-1.0000 F1200.00
G1 X9.7114 Y-9.5000 Z-1.0000 F1200.00
G1 X21.5000 Y2.2886 Z-1.0000 F1200.00
G1 X21.5000 Y1.0000 Z-1.0000 F1200.00
G2 X21.2751 Y-1.1183 Z-1.0000 I-9.7997 J-0.0306 F1200.00
G1 X13.1183 Y-9.2751 Z-1.0000 F1200.00
G3 X21.2751 Y-1.1183 Z-1.0000 I-2.0806 J10.2373 F1200.00
G0 X21.2751 Y-1.1183 Z13.3700
G0 X3.5181 Y41.5823 Z13.3700
G0 X3.5181 Y41.5823 Z10.3700
G1 X3.5181 Y41.5823 Z-1.0000 F300.00
G1 X-5.0104 Y35.6284 Z-1.0000 F1200.00
G3 X-9.3643 Y28.6999 Z-1.0000 I6.0093 J-8.6085 F1200.00
G1 X3.5181 Y41.5823 Z-1.0000 F1200.00
G1 X14.0584 Y48.9406 Z-1.0000 F1200.00
G1 X-9.5000 Y25.3823 Z-1.0000 F1200.00
G1 X-9.5000 Y22.2003 Z-1.0000 F1200.00
G1 X24.5987 Y56.2990 Z-1.0000 F1200.00
G1 X35.1390 Y63.6573 Z-1.0000 F1200.00
G1 X-9.5000 Y19.0183 Z-1.0000 F1200.00
G1 X-9.5000 Y15.8363 Z-1.0000 F1200.00
G1 X45.6793 Y71.0156 Z-1.0000 F1200.00
G1 X56.2196 Y78.3739 Z-1.0000 F1200.00
G1 X-9.5000 Y12.6543 Z-1.0000 F1200.00
G1 X-9.5000 Y9.4723 Z-1.0000 F1200.00
G1 X62.3973 Y81.3696 Z-1.0000 F1200.00
G1 X63.0870 Y81.4602 Z-1.0000 F1200.00
G2 X65.7096 Y81.5000 Z-1.0000 I1.7678 J-30.0840 F1200.00
G1 X-9.5000 Y6.2904 Z-1.0000 F1200.00
G1 X-9.5000 Y3.1084 Z-1.0000 F1200.00
G1 X68.8543 Y81.4627 Z-1.0000 F1200.00
G2 X71.4765 Y80.9029 Z-1.0000 I-0.7766 J-10.0599 F1200.00
G1 X-9.4463 Y-0.0199 Z-1.0000 F1200.00
G3 X-8.8577 Y-2.6132 Z-1.0000 I10.1789 J0.9468 F1200.00
G1 X73.6158 Y79.8602 Z-1.0000 F1200.00
G2 X75.3920 Y78.4545 Z-1.0000 I-4.4956 J-7.5055 F1200.00
G1 X-7.7894 Y-4.7270 Z-1.0000 F1200.00
G3 X-6.3622 Y-6.4818 Z-1.0000 I8.0658 J5.1020 F1200.00
G1 X76.8116 Y76.6921 Z-1.0000 F1200.00
G2 X77.4837 Y75.5000 Z-1.0000 I-6.4768 J-4.4369 F1200.00
G1 X78.8015 Y75.5000 Z-1.0000 F1200.00
G1 X-4.5809 Y-7.8824 Z-1.0000 F1200.00
G3 X-2.4331 Y-8.9166 Z-1.0000 I5.1303 J7.9074 F1200.00
G1 X21.5000 Y15.0165 Z-1.0000 F1200.00
G1 X21.5000 Y16.5247 Z-1.0000 F1200.00
G1 X26.4958 Y20.0123 Z-1.0000 F1200.00
G1 X81.9835 Y75.5000 Z-1.0000 F1200.00
G1 X85.1655 Y75.5000 Z-1.0000 F1200.00
G1 X37.0361 Y27.3706 Z-1.0000 F1200.00
G1 X47.5764 Y34.7289 Z-1.0000 F1200.00
G1 X88.3475 Y75.5000 Z-1.0000 F1200.00
G1 X91.5294 Y75.5000 Z-1.0000 F1200.00
G1 X58.1167 Y42.0872 Z-1.0000 F1200.00
G1 X67.3025 Y48.5000 Z-1.0000 F1200.00
G1 X67.7114 Y48.5000 Z-1.0000 F1200.00
G1 X94.4197 Y75.2083 Z-1.0000 F1200.00
G2 X96.7480 Y74.3546 Z-1.0000 I-2.0218 J-9.1162 F1200.00
G1 X70.8934 Y48.5000 Z-1.0000 F1200.00
G1 X74.0754 Y48.5000 Z-1.0000 F1200.00
G1 X98.6755 Y73.1001 Z-1.0000 F1200.00
G2 X100.2446 Y71.4872 Z-1.0000 I-5.9935 J-7.4004 F1200.00
G1 X77.2574 Y48.5000 Z-1.0000 F1200.00
G1 X80.4393 Y48.5000 Z-1.0000 F1200.00
G1 X101.4685 Y69.5292 Z-1.0000 F1200.00
G2 X102.2686 Y67.1473 Z-1.0000 I-8.7035 J-4.2491 F1200.00
G1 X83.6213 Y48.5000 Z-1.0000 F1200.00
G1 X86.8033 Y48.5000 Z-1.0000 F1200.00
G1 X102.5000 Y64.1967 Z-1.0000 F1200.00
G1 X102.5000 Y61.0147 Z-1.0000 F1200.00
G1 X89.9853 Y48.5000 Z-1.0000 F1200.00
G3 X93.2515 Y48.5842 Z-1.0000 I1.0074 J24.3045 F1200.00
G1 X102.4158 Y57.7485 Z-1.0000 F1200.00
G2 X99.4246 Y51.5754 Z-1.0000 I-10.3423 J1.2000 F1200.00
G1 X99.4246 Y51.5754 Z-1.5000 F300.00
G3 X102.4158 Y57.7485 Z-1.5000 I-7.3511 J7.3732 F1200.00
G1 X93.2515 Y48.5842 Z-1.5000 F1200.00
G2 X89.9853 Y48.5000 Z-1.5000 I-2.2589 J24.2202 F1200.00
G1 X102.5000 Y61.0147 Z-1.5000 F1200.00
G1 X102.5000 Y64.1967 Z-1.5000 F1200.00
G1 X86.8033 Y48.5000 Z-1.5000 F1200.00
G1 X83.6213 Y48.5000 Z-1.5000 F1200.00
G1 X102.2686 Y67.1473 Z-1.5000 F1200.00
G3 X101.4685 Y69.5292 Z-1.5000 I-9.5036 J-1.8673 F1200.00
G1 X80.4393 Y48.5000 Z-1.5000 F1200.00
G1 X77.2574 Y48.5000 Z-1.5000 F1200.00
G1 X100.2446 Y71.4872 Z-1.5000 F1200.00
G3 X98.6755 Y73.1001 Z-1.5000 I-7.5626 J-5.7875 F1200.00
G1 X74.0754 Y48.5000 Z-1.5000 F1200.00
G1 X70.8934 Y48.5000 Z-1.5000 F1200.00
G1 X96.7480 Y74.3546 Z-1.5000 F1200.00
G3 X94.4197 Y75.2083 Z-1.5000 I-4.3501 J-8.2625 F1200.00
G1 X67.7114 Y48.5000 Z-1.5000 F1200.00
G1 X67.3025 Y48.5000 Z-1.5000 F1200.00
G1 X58.1167 Y42.0872 Z-1.5000 F1200.00
G1 X91.5294 Y75.5000 Z-1.5000 F1200.00
G1 X88.3475 Y75.5000 Z-1.5000 F1200.00
G1 X47.5764 Y34.7289 Z-1.5000 F1200.00
G1 X37.0361 Y27.3706 Z-1.5000 F1200.00
G1 X85.1655 Y75.5000 Z-1.5000 F1200.00
G1 X81.9835 Y75.5000 Z-1.5000 F1200.00
G1 X26.4958 Y20.0123 Z-1.5000 F1200.00
G1 X21.5000 Y16.5247 Z-1.5000 F1200.00
G1 X21.5000 Y15.0165 Z-1.5000 F1200.00
G1 X-2.4331 Y-8.9166 Z-1.5000 F1200.00
G2 X-4.5809 Y-7.8824 Z-1.5000 I2.9825 J8.9416 F1200.00
G1 X78.8015 Y75.5000 Z-1.5000 F1200.00
G1 X77.4837 Y75.5000 Z-1.5000 F1200.00
G3 X76.8116 Y76.6921 Z-1.5000 I-7.1488 J-3.2448 F1200.00
G1 X-6.3622 Y-6.4818 Z-1.5000 F1200.00
G2 X-7.7894 Y-4.7270 Z-1.5000 I6.6386 J6.8568 F1200.00
G1 X75.3920 Y78.4545 Z-1.5000 F1200.00
G3 X73.6158 Y79.8602 Z-1.5000 I-6.2719 J-6.0998 F1200.00
G1 X-8.8577 Y-2.6132 Z-1.5000 F1200.00
G2 X-9.4463 Y-0.0199 Z-1.5000 I9.5902 J3.5401 F1200.00
G1 X71.4765 Y80.9029 Z-1.5000 F1200.00
G3 X68.8543 Y81.4627 Z-1.5000 I-3.3989 J-9.5001 F1200.00
G1 X-9.5000 Y3.1084 Z-1.5000 F1200.00
G1 X-9.5000 Y6.2904 Z-1.5000 F1200.00
G1 X65.7096 Y81.5000 Z-1.5000 F1200.00
G3 X63.0870 Y81.4602 Z-1.5000 I-0.8548 J-30.1237 F1200.00
G1 X62.3973 Y81.3696 Z-1.5000 F1200.00
G1 X-9.5000 Y9.4723 Z-1.5000 F1200.00
G1 X-9.5000 Y12.6543 Z-1.5000 F1200.00
G1 X56.2196 Y78.3739 Z-1.5000 F1200.00
G1 X45.6793 Y71.0156 Z-1.5000 F1200.00
G1 X-9.5000 Y15.8363 Z-1.5000 F1200.00
G1 X-9.5000 Y19.0183 Z-1.5000 F1200.00
G1 X35.1390 Y63.6573 Z-1.5000 F1200.00
G1 X24.5987 Y56.2990 Z-1.5000 F1200.00
G1 X-9.5000 Y22.2003 Z-1.5000 F1200.00
G1 X-9.5000 Y25.3823 Z-1.5000 F1200.00
G1 X14.0584 Y48.9406 Z-1.5000 F1200.00
G1 X3.5181 Y41.5823 Z-1.5000 F1200.00
G1 X-9.3643 Y28.6999 Z-1.5000 F1200.00
G2 X-5.0104 Y35.6284 Z-1.5000 I10.3632 J-1.6800 F1200.00
G1 X3.5181 Y41.5823 Z-1.5000 F1200.00
G0 X3.5181 Y41.5823 Z13.3700
G0 X21.2751 Y-1.1183 Z13.3700
G0 X21.2751 Y-1.1183 Z9.8700
G1 X21.2751 Y-1.1183 Z-1.5000 F300.00
G2 X13.1183 Y-9.2751 Z-1.5000 I-10.2373 J2.0806 F1200.00
G1 X21.2751 Y-1.1183 Z-1.5000 F1200.00
G3 X21.5000 Y1.0000 Z-1.5000 I-9.5748 J2.0877 F1200.00
G1 X21.5000 Y2.2886 Z-1.5000 F1200.00
G1 X9.7114 Y-9.5000 Z-1.5000 F1200.00
G1 X6.5294 Y-9.5000 Z-1.5000 F1200.00
G1 X21.5000 Y5.4706 Z-1.5000 F1200.00
G1 X21.5000 Y8.6525 Z-1.5000 F1200.00
G1 X3.3475 Y-9.5000 Z-1.5000 F1200.00
G2 X0.2004 Y-9.4651 Z-1.5000 I-1.1737 J36.0574 F1200.00
G1 X21.5000 Y11.8345 Z-1.5000 F1200.00
G1 X21.5000 Y15.0165 Z-1.5000 F1200.00
G1 X-2.4331 Y-8.9166 Z-1.5000 F1200.00
G1 X-2.4331 Y-8.9166 Z-2.0000 F300.00
G1 X21.5000 Y15.0165 Z-2.0000 F1200.00
G1 X21.5000 Y11.8345 Z-2.0000 F1200.00
G1 X0.2004 Y-9.4651 Z-2.0000 F1200.00
G3 X3.3475 Y-9.5000 Z-2.0000 I1.9733 J36.0224 F1200.00
G1 X21.5000 Y8.6525 Z-2.0000 F1200.00
G1 X21.5000 Y5.4706 Z-2.0000 F1200.00
G1 X6.5294 Y-9.5000 Z-2.0000 F1200.00
G1 X9.7114 Y-9.5000 Z-2.0000 F1200.00
G1 X21.5000 Y2.2886 Z-2.0000 F1200.00
G1 X21.5000 Y1.0000 Z-2.0000 F1200.00
G2 X21.2751 Y-1.1183 Z-2.0000 I-9.7997 J-0.0306 F1200.00
G1 X13.1183 Y-9.2751 Z-2.0000 F1200.00
G3 X21.2751 Y-1.1183 Z-2.0000 I-2.0806 J10.2373 F1200.00
G0 X21.2751 Y-1.1183 Z13.3700
G0 X3.5181 Y41.5823 Z13.3700
G0 X3.5181 Y41.5823 Z9.3700
G1 X3.5181 Y41.5823 Z-2.0000 F300.00
G1 X-5.0104 Y35.6284 Z-2.0000 F1200.00
G3 X-9.3643 Y28.6999 Z-2.0000 I6.0093 J-8.6085 F1200.00
G1 X3.5181 Y41.5823 Z-2.0000 F1200.00
G1 X14.0584 Y48.9406 Z-2.0000 F1200.00
G1 X-9.5000 Y25.3823 Z-2.0000 F1200.00
G1 X-9.5000 Y22.2003 Z-2.0000 F1200.00
G1 X24.5987 Y56.2990 Z-2.0000 F1200.00
G1 X35.1390 Y63.6573 Z-2.0000 F1200.00
G1 X-9.5000 Y19.0183 Z-2.0000 F1200.00
G1 X-9.5000 Y15.8363 Z-2.0000 F1200.00
G1 X45.6793 Y71.0156 Z-2.0000 F1200.00
G1 X56.2196 Y78.3739 Z-2.0000 F1200.00
G1 X-9.5000 Y12.6543 Z-2.0000 F1200.00
G1 X-9.5000 Y9.4723 Z-2.0000 F1200.00
G1 X62.3973 Y81.3696 Z-2.0000 F1200.00
G1 X63.0870 Y81.4602 Z-2.0000 F1200.00
G2 X65.7096 Y81.5000 Z-2.0000 I1.7678 J-30.0840 F1200.00
G1 X-9.5000 Y6.2904 Z-2.0000 F1200.00
G1 X-9.5000 Y3.1084 Z-2.0000 F1200.00
G1 X68.8543 Y81.4627 Z-2.0000 F1200.00
G2 X71.4765 Y80.9029 Z-2.0000 I-0.7766 J-10.0599 F1200.00
G1 X-9.4463 Y-0.0199 Z-2.0000 F1200.00
G3 X-8.8577 Y-2.6132 Z-2.0000 I10.1789 J0.9468 F1200.00
G1 X73.6158 Y79.8602 Z-2.0000 F1200.00
G2 X75.3920 Y78.4545 Z-2.0000 I-4.4956 J-7.5055 F1200.00
G1 X-7.7894 Y-4.7270 Z-2.0000 F1200.00
G3 X-6.3622 Y-6.4818 Z-2.0000 I8.0658 J5.1020 F1200.00
G1 X76.8116 Y76.6921 Z-2.0000 F1200.00
G2 X77.4837 Y75.5000 Z-2.0000 I-6.4768 J-4.4369 F1200.00
G1 X78.8015 Y75.5000 Z-2.0000 F1200.00
G1 X-4.5809 Y-7.8824 Z-2.0000 F1200.00
G3 X-2.4331 Y-8.9166 Z-2.0000 I5.1303 J7.9074 F1200.00
G1 X21.5000 Y15.0165 Z-2.0000 F1200.00
G1 X21.5000 Y16.5247 Z-2.0000 F1200.00
G1 X26.4958 Y20.0123 Z-2.0000 F1200.00
G1 X81.9835 Y75.5000 Z-2.0000 F1200.00
G1 X85.1655 Y75.5000 Z-2.0000 F1200.00
G1 X37.0361 Y27.3706 Z-2.0000 F1200.00
G1 X47.5764 Y34.7289 Z-2.0000 F1200.00
G1 X88.3475 Y75.5000 Z-2.0000 F1200.00
G1 X91.5294 Y75.5000 Z-2.0000 F1200.00
G1 X58.1167 Y42.0872 Z-2.0000 F1200.00
G1 X67.3025 Y48.5000 Z-2.0000 F1200.00
G1 X67.7114 Y48.5000 Z-2.0000 F1200.00
G1 X94.4197 Y75.2083 Z-2.0000 F1200.00
G2 X96.7480 Y74.3546 Z-2.0000 I-2.0218 J-9.1162 F1200.00
G1 X70.8934 Y48.5000 Z-2.0000 F1200.00
G1 X74.0754 Y48.5000 Z-2.0000 F1200.00
G1 X98.6755 Y73.1001 Z-2.0000 F1200.00
G2 X100.2446 Y71.4872 Z-2.0000 I-5.9935 J-7.4004 F1200.00
G1 X77.2574 Y48.5000 Z-2.0000 F1200.00
G1 X80.4393 Y48.5000 Z-2.0000 F1200.00
G1 X101.4685 Y69.5292 Z-2.0000 F1200.00
G2 X102.2686 Y67.1473 Z-2.0000 I-8.7035 J-4.2491 F1200.00
G1 X83.6213 Y48.5000 Z-2.0000 F1200.00
G1 X86.8033 Y48.5000 Z-2.0000 F1200.00
G1 X102.5000 Y64.1967 Z-2.0000 F1200.00
G1 X102.5000 Y61.0147 Z-2.0000 F1200.00
G1 X89.9853 Y48.5000 Z-2.0000 F1200.00
G3 X93.2515 Y48.5842 Z-2.0000 I1.0074 J24.3045 F1200.00
G1 X102.4158 Y57.7485 Z-2.0000 F1200.00
G2 X99.4246 Y51.5754 Z-2.0000 I-10.3423 J1.2000 F1200.00
G1 X99.4246 Y51.5754 Z-2.5000 F300.00
G3 X102.4158 Y57.7485 Z-2.5000 I-7.3511 J7.3732 F1200.00
G1 X93.2515 Y48.5842 Z-2.5000 F1200.00
G2 X89.9853 Y48.5000 Z-2.5000 I-2.2589 J24.2202 F1200.00
G1 X102.5000 Y61.0147 Z-2.5000 F1200.00
G1 X102.5000 Y64.1967 Z-2.5000 F1200.00
G1 X86.8033 Y48.5000 Z-2.5000 F1200.00
G1 X83.6213 Y48.5000 Z-2.5000 F1200.00
G1 X102.2686 Y67.1473 Z-2.5000 F1200.00
G3 X101.4685 Y69.5292 Z-2.5000 I-9.5036 J-1.8673 F1200.00
G1 X80.4393 Y48.5000 Z-2.5000 F1200.00
G1 X77.2574 Y48.5000 Z-2.5000 F1200.00
G1 X100.2446 Y71.4872 Z-2.5000 F1200.00
G3 X98.6755 Y73.1001 Z-2.5000 I-7.5626 J-5.7875 F1200.00
G1 X74.0754 Y48.5000 Z-2.5000 F1200.00
G1 X70.8934 Y48.5000 Z-2.5000 F1200.00
G1 X96.7480 Y74.3546 Z-2.5000 F1200.00
G3 X94.4197 Y75.2083 Z-2.5000 I-4.3501 J-8.2625 F1200.00
G1 X67.7114 Y48.5000 Z-2.5000 F1200.00
G1 X67.3025 Y48.5000 Z-2.5000 F1200.00
G1 X58.1167 Y42.0872 Z-2.5000 F1200.00
G1 X91.5294 Y75.5000 Z-2.5000 F1200.00
G1 X88.3475 Y75.5000 Z-2.5000 F1200.00
G1 X47.5764 Y34.7289 Z-2.5000 F1200.00
G1 X37.0361 Y27.3706 Z-2.5000 F1200.00
G1 X85.1655 Y75.5000 Z-2.5000 F1200.00
G1 X81.9835 Y75.5000 Z-2.5000 F1200.00
G1 X26.4958 Y20.0123 Z-2.5000 F1200.00
G1 X21.5000 Y16.5247 Z-2.5000 F1200.00
G1 X21.5000 Y15.0165 Z-2.5000 F1200.00
G1 X-2.4331 Y-8.9166 Z-2.5000 F1200.00
G2 X-4.5809 Y-7.8824 Z-2.5000 I2.9825 J8.9416 F1200.00
G1 X78.8015 Y75.5000 Z-2.5000 F1200.00
G1 X77.4837 Y75.5000 Z-2.5000 F1200.00
G3 X76.8116 Y76.6921 Z-2.5000 I-7.1488 J-3.2448 F1200.00
G1 X-6.3622 Y-6.4818 Z-2.5000 F1200.00
G2 X-7.7894 Y-4.7270 Z-2.5000 I6.6386 J6.8568 F1200.00
G1 X75.3920 Y78.4545 Z-2.5000 F1200.00
G3 X73.6158 Y79.8602 Z-2.5000 I-6.2719 J-6.0998 F1200.00
G1 X-8.8577 Y-2.6132 Z-2.5000 F1200.00
G2 X-9.4463 Y-0.0199 Z-2.5000 I9.5902 J3.5401 F1200.00
G1 X71.4765 Y80.9029 Z-2.5000 F1200.00
G3 X68.8543 Y81.4627 Z-2.5000 I-3.3989 J-9.5001 F1200.00
G1 X-9.5000 Y3.1084 Z-2.5000 F1200.00
G1 X-9.5000 Y6.2904 Z-2.5000 F1200.00
G1 X65.7096 Y81.5000 Z-2.5000 F1200.00
G3 X63.0870 Y81.4602 Z-2.5000 I-0.8548 J-30.1237 F1200.00
G1 X62.3973 Y81.3696 Z-2.5000 F1200.00
G1 X-9.5000 Y9.4723 Z-2.5000 F1200.00
G1 X-9.5000 Y12.6543 Z-2.5000 F1200.00
G1 X56.2196 Y78.3739 Z-2.5000 F1200.00
G1 X45.6793 Y71.0156 Z-2.5000 F1200.00
G1 X-9.5000 Y15.8363 Z-2.5000 F1200.00
G1 X-9.5000 Y19.0183 Z-2.5000 F1200.00
G1 X35.1390 Y63.6573 Z-2.5000 F1200.00
G1 X24.5987 Y56.2990 Z-2.5000 F1200.00
G1 X-9.5000 Y22.2003 Z-2.5000 F1200.00
G1 X-9.5000 Y25.3823 Z-2.5000 F1200.00
G1 X14.0584 Y48.9406 Z-2.5000 F1200.00
G1 X3.5181 Y41.5823 Z-2.5000 F1200.00
G1 X-9.3643 Y28.6999 Z-2.5000 F1200.00
G2 X-5.0104 Y35.6284 Z-2.5000 I10.3632 J-1.6800 F1200.00
G1 X3.5181 Y41.5823 Z-2.5000 F1200.00
G0 X3.5181 Y41.5823 Z13.3700
G0 X21.2751 Y-1.1183 Z13.3700
G0 X21.2751 Y-1.1183 Z8.8700
G1 X21.2751 Y-1.1183 Z-2.5000 F300.00
G2 X13.1183 Y-9.2751 Z-2.5000 I-10.2373 J2.0806 F1200.00
G1 X21.2751 Y-1.1183 Z-2.5000 F1200.00
G3 X21.5000 Y1.0000 Z-2.5000 I-9.5748 J2.0877 F1200.00
G1 X21.5000 Y2.2886 Z-2.5000 F1200.00
G1 X9.7114 Y-9.5000 Z-2.5000 F1200.00
G1 X6.5294 Y-9.5000 Z-2.5000 F1200.00
G1 X21.5000 Y5.4706 Z-2.5000 F1200.00
G1 X21.5000 Y8.6525 Z-2.5000 F1200.00
G1 X3.3475 Y-9.5000 Z-2.5000 F1200.00
G2 X0.2004 Y-9.4651 Z-2.5000 I-1.1737 J36.0574 F1200.00
G1 X21.5000 Y11.8345 Z-2.5000 F1200.00
G1 X21.5000 Y15.0165 Z-2.5000 F1200.00
G1 X-2.4331 Y-8.9166 Z-2.5000 F1200.00
G1 X-2.4331 Y-8.9166 Z-3.0000 F300.00
G1 X21.5000 Y15.0165 Z-3.0000 F1200.00
G1 X21.5000 Y11.8345 Z-3.0000 F1200.00
G1 X0.2004 Y-9.4651 Z-3.0000 F1200.00
G3 X3.3475 Y-9.5000 Z-3.0000 I1.9733 J36.0224 F1200.00
G1 X21.5000 Y8.6525 Z-3.0000 F1200.00
G1 X21.5000 Y5.4706 Z-3.0000 F1200.00
G1 X6.5294 Y-9.5000 Z-3.0000 F1200.00
G1 X9.7114 Y-9.5000 Z-3.0000 F1200.00
G1 X21.5000 Y2.2886 Z-3.0000 F1200.00
G1 X21.5000 Y1.0000 Z-3.0000 F1200.00
G2 X21.2751 Y-1.1183 Z-3.0000 I-9.7997 J-0.0306 F1200.00
G1 X13.1183 Y-9.2751 Z-3.0000 F1200.00
G3 X21.2751 Y-1.1183 Z-3.0000 I-2.0806 J10.2373 F1200.00
G0 X21.2751 Y-1.1183 Z13.3700
G0 X3.5181 Y41.5823 Z13.3700
G0 X3.5181 Y41.5823 Z8.3700
G1 X3.5181 Y41.5823 Z-3.0000 F300.00
G1 X-5.0104 Y35.6284 Z-3.0000 F1200.00
G3 X-9.3643 Y28.6999 Z-3.0000 I6.0093 J-8.6085 F1200.00
G1 X3.5181 Y41.5823 Z-3.0000 F1200.00
G1 X14.0584 Y48.9406 Z-3.0000 F1200.00
G1 X-9.5000 Y25.3823 Z-3.0000 F1200.00
G1 X-9.5000 Y22.2003 Z-3.0000 F1200.00
G1 X24.5987 Y56.2990 Z-3.0000 F1200.00
G1 X35.1390 Y63.6573 Z-3.0000 F1200.00
G1 X-9.5000 Y19.0183 Z-3.0000 F1200.00
G1 X-9.5000 Y15.8363 Z-3.0000 F1200.00
G1 X45.6793 Y71.0156 Z-3.0000 F1200.00
G1 X56.2196 Y78.3739 Z-3.0000 F1200.00
G1 X-9.5000 Y12.6543 Z-3.0000 F1200.00
G1 X-9.5000 Y9.4723 Z-3.0000 F1200.00
G1 X62.3973 Y81.3696 Z-3.0000 F1200.00
G1 X63.0870 Y81.4602 Z-3.0000 F1200.00
G2 X65.7096 Y81.5000 Z-3.0000 I1.7678 J-30.0840 F1200.00
G1 X-9.5000 Y6.2904 Z-3.0000 F1200.00
G1 X-9.5000 Y3.1084 Z-3.0000 F1200.00
G1 X68.8543 Y81.4627 Z-3.0000 F1200.00
G2 X71.4765 Y80.9029 Z-3.0000 I-0.7766 J-10.0599 F1200.00
G1 X-9.4463 Y-0.0199 Z-3.0000 F1200.00
G3 X-8.8577 Y-2.6132 Z-3.0000 I10.1789 J0.9468 F1200.00
G1 X73.6158 Y79.8602 Z-3.0000 F1200.00
G2 X75.3920 Y78.4545 Z-3.0000 I-4.4956 J-7.5055 F1200.00
G1 X-7.7894 Y-4.7270 Z-3.0000 F1200.00
G3 X-6.3622 Y-6.4818 Z-3.0000 I8.0658 J5.1020 F1200.00
G1 X76.8116 Y76.6921 Z-3.0000 F1200.00
G2 X77.4837 Y75.5000 Z-3.0000 I-6.4768 J-4.4369 F1200.00
G1 X78.8015 Y75.5000 Z-3.0000 F1200.00
G1 X-4.5809 Y-7.8824 Z-3.0000 F1200.00
G3 X-2.4331 Y-8.9166 Z-3.0000 I5.1303 J7.9074 F1200.00
G1 X21.5000 Y15.0165 Z-3.0000 F1200.00
G1 X21.5000 Y16.5247 Z-3.0000 F1200.00
G1 X26.4958 Y20.0123 Z-3.0000 F1200.00
G1 X81.9835 Y75.5000 Z-3.0000 F1200.00
G1 X85.1655 Y75.5000 Z-3.0000 F1200.00
G1 X37.0361 Y27.3706 Z-3.0000 F1200.00
G1 X47.5764 Y34.7289 Z-3.0000 F1200.00
G1 X88.3475 Y75.5000 Z-3.0000 F1200.00
G1 X91.5294 Y75.5000 Z-3.0000 F1200.00
G1 X58.1167 Y42.0872 Z-3.0000 F1200.00
G1 X67.3025 Y48.5000 Z-3.0000 F1200.00
G1 X67.7114 Y48.5000 Z-3.0000 F1200.00
G1 X94.4197 Y75.2083 Z-3.0000 F1200.00
G2 X96.7480 Y74.3546 Z-3.0000 I-2.0218 J-9.1162 F1200.00
G1 X70.8934 Y48.5000 Z-3.0000 F1200.00
G1 X74.0754 Y48.5000 Z-3.0000 F1200.00
G1 X98.6755 Y73.1001 Z-3.0000 F1200.00
G2 X100.2446 Y71.4872 Z-3.0000 I-5.9935 J-7.4004 F1200.00
G1 X77.2574 Y48.5000 Z-3.0000 F1200.00
G1 X80.4393 Y48.5000 Z-3.0000 F1200.00
G1 X101.4685 Y69.5292 Z-3.0000 F1200.00
G2 X102.2686 Y67.1473 Z-3.0000 I-8.7035 J-4.2491 F1200.00
G1 X83.6213 Y48.5000 Z-3.0000 F1200.00
G1 X86.8033 Y48.5000 Z-3.0000 F1200.00
G1 X102.5000 Y64.1967 Z-3.0000 F1200.00
G1 X102.5000 Y61.0147 Z-3.0000 F1200.00
G1 X89.9853 Y48.5000 Z-3.0000 F1200.00
G3 X93.2515 Y48.5842 Z-3.0000 I1.0074 J24.3045 F1200.00
G1 X102.4158 Y57.7485 Z-3.0000 F1200.00
G2 X99.4246 Y51.5754 Z-3.0000 I-10.3423 J1.2000 F1200.00
G1 X99.4246 Y51.5754 Z-3.5000 F300.00
G3 X102.4158 Y57.7485 Z-3.5000 I-7.3511 J7.3732 F1200.00
G1 X93.2515 Y48.5842 Z-3.5000 F1200.00
G2 X89.9853 Y48.5000 Z-3.5000 I-2.2589 J24.2202 F1200.00
G1 X102.5000 Y61.0147 Z-3.5000 F1200.00
G1 X102.5000 Y64.1967 Z-3.5000 F1200.00
G1 X86.8033 Y48.5000 Z-3.5000 F1200.00
G1 X83.6213 Y48.5000 Z-3.5000 F1200.00
G1 X102.2686 Y67.1473 Z-3.5000 F1200.00
G3 X101.4685 Y69.5292 Z-3.5000 I-9.5036 J-1.8673 F1200.00
G1 X80.4393 Y48.5000 Z-3.5000 F1200.00
G1 X77.2574 Y48.5000 Z-3.5000 F1200.00
G1 X100.2446 Y71.4872 Z-3.5000 F1200.00
G3 X98.6755 Y73.1001 Z-3.5000 I-7.5626 J-5.7875 F1200.00
G1 X74.0754 Y48.5000 Z-3.5000 F1200.00
G1 X70.8934 Y48.5000 Z-3.5000 F1200.00
G1 X96.7480 Y74.3546 Z-3.5000 F1200.00
G3 X94.4197 Y75.2083 Z-3.5000 I-4.3501 J-8.2625 F1200.00
G1 X67.7114 Y48.5000 Z-3.5000 F1200.00
G1 X67.3025 Y48.5000 Z-3.5000 F1200.00
G1 X58.1167 Y42.0872 Z-3.5000 F1200.00
G1 X91.5294 Y75.5000 Z-3.5000 F1200.00
G1 X88.3475 Y75.5000 Z-3.5000 F1200.00
G1 X47.5764 Y34.7289 Z-3.5000 F1200.00
G1 X37.0361 Y27.3706 Z-3.5000 F1200.00
G1 X85.1655 Y75.5000 Z-3.5000 F1200.00
G1 X81.9835 Y75.5000 Z-3.5000 F1200.00
G1 X26.4958 Y20.0123 Z-3.5000 F1200.00
G1 X21.5000 Y16.5247 Z-3.5000 F1200.00
G1 X21.5000 Y15.0165 Z-3.5000 F1200.00
G1 X-2.4331 Y-8.9166 Z-3.5000 F1200.00
G2 X-4.5809 Y-7.8824 Z-3.5000 I2.9825 J8.9416 F1200.00
G1 X78.8015 Y75.5000 Z-3.5000 F1200.00
G1 X77.4837 Y75.5000 Z-3.5000 F1200.00
G3 X76.8116 Y76.6921 Z-3.5000 I-7.1488 J-3.2448 F1200.00
G1 X-6.3622 Y-6.4818 Z-3.5000 F1200.00
G2 X-7.7894 Y-4.7270 Z-3.5000 I6.6386 J6.8568 F1200.00
G1 X75.3920 Y78.4545 Z-3.5000 F1200.00
G3 X73.6158 Y79.8602 Z-3.5000 I-6.2719 J-6.0998 F1200.00
G1 X-8.8577 Y-2.6132 Z-3.5000 F1200.00
G2 X-9.4463 Y-0.0199 Z-3.5000 I9.5902 J3.5401 F1200.00
G1 X71.4765 Y80.9029 Z-3.5000 F1200.00
G3 X68.8543 Y81.4627 Z-3.5000 I-3.3989 J-9.5001 F1200.00
G1 X-9.5000 Y3.1084 Z-3.5000 F1200.00
G1 X-9.5000 Y6.2904 Z-3.5000 F1200.00
G1 X65.7096 Y81.5000 Z-3.5000 F1200.00
G3 X63.0870 Y81.4602 Z-3.5000 I-0.8548 J-30.1237 F1200.00
G1 X62.3973 Y81.3696 Z-3.5000 F1200.00
G1 X-9.5000 Y9.4723 Z-3.5000 F1200.00
G1 X-9.5000 Y12.6543 Z-3.5000 F1200.00
G1 X56.2196 Y78.3739 Z-3.5000 F1200.00
G1 X45.6793 Y71.0156 Z-3.5000 F1200.00
G1 X-9.5000 Y15.8363 Z-3.5000 F1200.00
G1 X-9.5000 Y19.0183 Z-3.5000 F1200.00
G1 X35.1390 Y63.6573 Z-3.5000 F1200.00
G1 X24.5987 Y56.2990 Z-3.5000 F1200.00
G1 X-9.5000 Y22.2003 Z-3.5000 F1200.00
G1 X-9.5000 Y25.3823 Z-3.5000 F1200.00
G1 X14.0584 Y48.9406 Z-3.5000 F1200.00
G1 X3.5181 Y41.5823 Z-3.5000 F1200.00
G1 X-9.3643 Y28.6999 Z-3.5000 F1200.00
G2 X-5.0104 Y35.6284 Z-3.5000 I10.3632 J-1.6800 F1200.00
G1 X3.5181 Y41.5823 Z-3.5000 F1200.00
G0 X3.5181 Y41.5823 Z13.3700
G0 X21.2751 Y-1.1183 Z13.3700
G0 X21.2751 Y-1.1183 Z7.8700
G1 X21.2751 Y-1.1183 Z-3.5000 F300.00
G2 X13.1183 Y-9.2751 Z-3.5000 I-10.2373 J2.0806 F1200.00
G1 X21.2751 Y-1.1183 Z-3.5000 F1200.00
G3 X21.5000 Y1.0000 Z-3.5000 I-9.5748 J2.0877 F1200.00
G1 X21.5000 Y2.2886 Z-3.5000 F1200.00
G1 X9.7114 Y-9.5000 Z-3.5000 F1200.00
G1 X6.5294 Y-9.5000 Z-3.5000 F1200.00
G1 X21.5000 Y5.4706 Z-3.5000 F1200.00
G1 X21.5000 Y8.6525 Z-3.5000 F1200.00
G1 X3.3475 Y-9.5000 Z-3.5000 F1200.00
G2 X0.2004 Y-9.4651 Z-3.5000 I-1.1737 J36.0574 F1200.00
G1 X21.5000 Y11.8345 Z-3.5000 F1200.00
G1 X21.5000 Y15.0165 Z-3.5000 F1200.00
G1 X-2.4331 Y-8.9166 Z-3.5000 F1200.00
G1 X-2.4331 Y-8.9166 Z-4.0000 F300.00
G1 X21.5000 Y15.0165 Z-4.0000 F1200.00
G1 X21.5000 Y11.8345 Z-4.0000 F1200.00
G1 X0.2004 Y-9.4651 Z-4.0000 F1200.00
G3 X3.3475 Y-9.5000 Z-4.0000 I1.9733 J36.0224 F1200.00
G1 X21.5000 Y8.6525 Z-4.0000 F1200.00
G1 X21.5000 Y5.4706 Z-4.0000 F1200.00
G1 X6.5294 Y-9.5000 Z-4.0000 F1200.00
G1 X9.7114 Y-9.5000 Z-4.0000 F1200.00
G1 X21.5000 Y2.2886 Z-4.0000 F1200.00
G1 X21.5000 Y1.0000 Z-4.0000 F1200.00
G2 X21.2751 Y-1.1183 Z-4.0000 I-9.7997 J-0.0306 F1200.00
G1 X13.1183 Y-9.2751 Z-4.0000 F1200.00
G3 X21.2751 Y-1.1183 Z-4.0000 I-2.0806 J10.2373 F1200.00
G0 X21.2751 Y-1.1183 Z13.3700
G0 X3.5181 Y41.5823 Z13.3700
G0 X3.5181 Y41.5823 Z7.3700
G1 X3.5181 Y41.5823 Z-4.0000 F300.00
G1 X-5.0104 Y35.6284 Z-4.0000 F1200.00
G3 X-9.3643 Y28.6999 Z-4.0000 I6.0093 J-8.6085 F1200.00
G1 X3.5181 Y41.5823 Z-4.0000 F1200.00
G1 X14.0584 Y48.9406 Z-4.0000 F1200.00
G1 X-9.5000 Y25.3823 Z-4.0000 F1200.00
G1 X-9.5000 Y22.2003 Z-4.0000 F1200.00
G1 X24.5987 Y56.2990 Z-4.0000 F1200.00
G1 X35.1390 Y63.6573 Z-4.0000 F1200.00
G1 X-9.5000 Y19.0183 Z-4.0000 F1200.00
G1 X-9.5000 Y15.8363 Z-4.0000 F1200.00
G1 X45.6793 Y71.0156 Z-4.0000 F1200.00
G1 X56.2196 Y78.3739 Z-4.0000 F1200.00
G1 X-9.5000 Y12.6543 Z-4.0000 F1200.00
G1 X-9.5000 Y9.4723 Z-4.0000 F1200.00
G1 X62.3973 Y81.3696 Z-4.0000 F1200.00
G1 X63.0870 Y81.4602 Z-4.0000 F1200.00
G2 X65.7096 Y81.5000 Z-4.0000 I1.7678 J-30.0840 F1200.00
G1 X-9.5000 Y6.2904 Z-4.0000 F1200.00
G1 X-9.5000 Y3.1084 Z-4.0000 F1200.00
G1 X68.8543 Y81.4627 Z-4.0000 F1200.00
G2 X71.4765 Y80.9029 Z-4.0000 I-0.7766 J-10.0599 F1200.00
G1 X-9.4463 Y-0.0199 Z-4.0000 F1200.00
G3 X-8.8577 Y-2.6132 Z-4.0000 I10.1789 J0.9468 F1200.00
G1 X73.6158 Y79.8602 Z-4.0000 F1200.00
G2 X75.3920 Y78.4545 Z-4.0000 I-4.4956 J-7.5055 F1200.00
G1 X-7.7894 Y-4.7270 Z-4.0000 F1200.00
G3 X-6.3622 Y-6.4818 Z-4.0000 I8.0658 J5.1020 F1200.00
G1 X76.8116 Y76.6921 Z-4.0000 F1200.00
G2 X77.4837 Y75.5000 Z-4.0000 I-6.4768 J-4.4369 F1200.00
G1 X78.8015 Y75.5000 Z-4.0000 F1200.00
G1 X-4.5809 Y-7.8824 Z-4.0000 F1200.00
G3 X-2.4331 Y-8.9166 Z-4.0000 I5.1303 J7.9074 F1200.00
G1 X21.5000 Y15.0165 Z-4.0000 F1200.00
G1 X21.5000 Y16.5247 Z-4.0000 F1200.00
G1 X26.4958 Y20.0123 Z-4.0000 F1200.00
G1 X81.9835 Y75.5000 Z-4.0000 F1200.00
G1 X85.1655 Y75.5000 Z-4.0000 F1200.00
G1 X37.0361 Y27.3706 Z-4.0000 F1200.00
G1 X47.5764 Y34.7289 Z-4.0000 F1200.00
G1 X88.3475 Y75.5000 Z-4.0000 F1200.00
G1 X91.5294 Y75.5000 Z-4.0000 F1200.00
G1 X58.1167 Y42.0872 Z-4.0000 F1200.00
G1 X67.3025 Y48.5000 Z-4.0000 F1200.00
G1 X67.7114 Y48.5000 Z-4.0000 F1200.00
G1 X94.4197 Y75.2083 Z-4.0000 F1200.00
G2 X96.7480 Y74.3546 Z-4.0000 I-2.0218 J-9.1162 F1200.00
G1 X70.8934 Y48.5000 Z-4.0000 F1200.00
G1 X74.0754 Y48.5000 Z-4.0000 F1200.00
G1 X98.6755 Y73.1001 Z-4.0000 F1200.00
G2 X100.2446 Y71.4872 Z-4.0000 I-5.9935 J-7.4004 F1200.00
G1 X77.2574 Y48.5000 Z-4.0000 F1200.00
G1 X80.4393 Y48.5000 Z-4.0000 F1200.00
G1 X101.4685 Y69.5292 Z-4.0000 F1200.00
G2 X102.2686 Y67.1473 Z-4.0000 I-8.7035 J-4.2491 F1200.00
G1 X83.6213 Y48.5000 Z-4.0000 F1200.00
G1 X86.8033 Y48.5000 Z-4.0000 F1200.00
G1 X102.5000 Y64.1967 Z-4.0000 F1200.00
G1 X102.5000 Y61.0147 Z-4.0000 F1200.00
G1 X89.9853 Y48.5000 Z-4.0000 F1200.00
G3 X93.2515 Y48.5842 Z-4.0000 I1.0074 J24.3045 F1200.00
G1 X102.4158 Y57.7485 Z-4.0000 F1200.00
G2 X99.4246 Y51.5754 Z-4.0000 I-10.3423 J1.2000 F1200.00
G1 X99.4246 Y51.5754 Z-4.5000 F300.00
G3 X102.4158 Y57.7485 Z-4.5000 I-7.3511 J7.3732 F1200.00
G1 X93.2515 Y48.5842 Z-4.5000 F1200.00
G2 X89.9853 Y48.5000 Z-4.5000 I-2.2589 J24.2202 F1200.00
G1 X102.5000 Y61.0147 Z-4.5000 F1200.00
G1 X102.5000 Y64.1967 Z-4.5000 F1200.00
G1 X86.8033 Y48.5000 Z-4.5000 F1200.00
G1 X83.6213 Y48.5000 Z-4.5000 F1200.00
G1 X102.2686 Y67.1473 Z-4.5000 F1200.00
G3 X101.4685 Y69.5292 Z-4.5000 I-9.5036 J-1.8673 F1200.00
G1 X80.4393 Y48.5000 Z-4.5000 F1200.00
G1 X77.2574 Y48.5000 Z-4.5000 F1200.00
G1 X100.2446 Y71.4872 Z-4.5000 F1200.00
G3 X98.6755 Y73.1001 Z-4.5000 I-7.5626 J-5.7875 F1200.00
G1 X74.0754 Y48.5000 Z-4.5000 F1200.00
G1 X70.8934 Y48.5000 Z-4.5000 F1200.00
G1 X96.7480 Y74.3546 Z-4.5000 F1200.00
G3 X94.4197 Y75.2083 Z-4.5000 I-4.3501 J-8.2625 F1200.00
G1 X67.7114 Y48.5000 Z-4.5000 F1200.00
G1 X67.3025 Y48.5000 Z-4.5000 F1200.00
G1 X58.1167 Y42.0872 Z-4.5000 F1200.00
G1 X91.5294 Y75.5000 Z-4.5000 F1200.00
G1 X88.3475 Y75.5000 Z-4.5000 F1200.00
G1 X47.5764 Y34.7289 Z-4.5000 F1200.00
G1 X37.0361 Y27.3706 Z-4.5000 F1200.00
G1 X85.1655 Y75.5000 Z-4.5000 F1200.00
G1 X81.9835 Y75.5000 Z-4.5000 F1200.00
G1 X26.4958 Y20.0123 Z-4.5000 F1200.00
G1 X21.5000 Y16.5247 Z-4.5000 F1200.00
G1 X21.5000 Y15.0165 Z-4.5000 F1200.00
G1 X-2.4331 Y-8.9166 Z-4.5000 F1200.00
G2 X-4.5809 Y-7.8824 Z-4.5000 I2.9825 J8.9416 F1200.00
G1 X78.8015 Y75.5000 Z-4.5000 F1200.00
G1 X77.4837 Y75.5000 Z-4.5000 F1200.00
G3 X76.8116 Y76.6921 Z-4.5000 I-7.1488 J-3.2448 F1200.00
G1 X-6.3622 Y-6.4818 Z-4.5000 F1200.00
G2 X-7.7894 Y-4.7270 Z-4.5000 I6.6386 J6.8568 F1200.00
G1 X75.3920 Y78.4545 Z-4.5000 F1200.00
G3 X73.6158 Y79.8602 Z-4.5000 I-6.2719 J-6.0998 F1200.00
G1 X-8.8577 Y-2.6132 Z-4.5000 F1200.00
G2 X-9.4463 Y-0.0199 Z-4.5000 I9.5902 J3.5401 F1200.00
G1 X71.4765 Y80.9029 Z-4.5000 F1200.00
G3 X68.8543 Y81.4627 Z-4.5000 I-3.3989 J-9.5001 F1200.00
G1 X-9.5000 Y3.1084 Z-4.5000 F1200.00
G1 X-9.5000 Y6.2904 Z-4.5000 F1200.00
G1 X65.7096 Y81.5000 Z-4.5000 F1200.00
G3 X63.0870 Y81.4602 Z-4.5000 I-0.8548 J-30.1237 F1200.00
G1 X62.3973 Y81.3696 Z-4.5000 F1200.00
G1 X-9.5000 Y9.4723 Z-4.5000 F1200.00
G1 X-9.5000 Y12.6543 Z-4.5000 F1200.00
G1 X56.2196 Y78.3739 Z-4.5000 F1200.00
G1 X45.6793 Y71.0156 Z-4.5000 F1200.00
G1 X-9.5000 Y15.8363 Z-4.5000 F1200.00
G1 X-9.5000 Y19.0183 Z-4.5000 F1200.00
G1 X35.1390 Y63.6573 Z-4.5000 F1200.00
G1 X24.5987 Y56.2990 Z-4.5000 F1200.00
G1 X-9.5000 Y22.2003 Z-4.5000 F1200.00
G1 X-9.5000 Y25.3823 Z-4.5000 F1200.00
G1 X14.0584 Y48.9406 Z-4.5000 F1200.00
G1 X3.5181 Y41.5823 Z-4.5000 F1200.00
G1 X-9.3643 Y28.6999 Z-4.5000 F1200.00
G2 X-5.0104 Y35.6284 Z-4.5000 I10.3632 J-1.6800 F1200.00
G1 X3.5181 Y41.5823 Z-4.5000 F1200.00
G0 X3.5181 Y41.5823 Z13.3700
G0 X21.2751 Y-1.1183 Z13.3700
G0 X21.2751 Y-1.1183 Z6.8700
G1 X21.2751 Y-1.1183 Z-4.5000 F300.00
G2 X13.1183 Y-9.2751 Z-4.5000 I-10.2373 J2.0806 F1200.00
G1 X21.2751 Y-1.1183 Z-4.5000 F1200.00
G3 X21.5000 Y1.0000 Z-4.5000 I-9.5748 J2.0877 F1200.00
G1 X21.5000 Y2.2886 Z-4.5000 F1200.00
G1 X9.7114 Y-9.5000 Z-4.5000 F1200.00
G1 X6.5294 Y-9.5000 Z-4.5000 F1200.00
G1 X21.5000 Y5.4706 Z-4.5000 F1200.00
G1 X21.5000 Y8.6525 Z-4.5000 F1200.00
G1 X3.3475 Y-9.5000 Z-4.5000 F1200.00
G2 X0.2004 Y-9.4651 Z-4.5000 I-1.1737 J36.0574 F1200.00
G1 X21.5000 Y11.8345 Z-4.5000 F1200.00
G1 X21.5000 Y15.0165 Z-4.5000 F1200.00
G1 X-2.4331 Y-8.9166 Z-4.5000 F1200.00
G1 X-2.4331 Y-8.9166 Z-5.0000 F300.00
G1 X21.5000 Y15.0165 Z-5.0000 F1200.00
G1 X21.5000 Y11.8345 Z-5.0000 F1200.00
G1 X0.2004 Y-9.4651 Z-5.0000 F1200.00
G3 X3.3475 Y-9.5000 Z-5.0000 I1.9733 J36.0224 F1200.00
G1 X21.5000 Y8.6525 Z-5.0000 F1200.00
G1 X21.5000 Y5.4706 Z-5.0000 F1200.00
G1 X6.5294 Y-9.5000 Z-5.0000 F1200.00
G1 X9.7114 Y-9.5000 Z-5.0000 F1200.00
G1 X21.5000 Y2.2886 Z-5.0000 F1200.00
G1 X21.5000 Y1.0000 Z-5.0000 F1200.00
G2 X21.2751 Y-1.1183 Z-5.0000 I-9.7997 J-0.0306 F1200.00
G1 X13.1183 Y-9.2751 Z-5.0000 F1200.00
G3 X21.2751 Y-1.1183 Z-5.0000 I-2.0806 J10.2373 F1200.00
G0 X21.2751 Y-1.1183 Z13.3700
G0 X3.5181 Y41.5823 Z13.3700
G0 X3.5181 Y41.5823 Z6.3700
G1 X3.5181 Y41.5823 Z-5.0000 F300.00
G1 X-5.0104 Y35.6284 Z-5.0000 F1200.00
G3 X-9.3643 Y28.6999 Z-5.0000 I6.0093 J-8.6085 F1200.00
G1 X3.5181 Y41.5823 Z-5.0000 F1200.00
G1 X14.0584 Y48.9406 Z-5.0000 F1200.00
G1 X-9.5000 Y25.3823 Z-5.0000 F1200.00
G1 X-9.5000 Y22.2003 Z-5.0000 F1200.00
G1 X24.5987 Y56.2990 Z-5.0000 F1200.00
G1 X35.1390 Y63.6573 Z-5.0000 F1200.00
G1 X-9.5000 Y19.0183 Z-5.0000 F1200.00
G1 X-9.5000 Y15.8363 Z-5.0000 F1200.00
G1 X45.6793 Y71.0156 Z-5.0000 F1200.00
G1 X56.2196 Y78.3739 Z-5.0000 F1200.00
G1 X-9.5000 Y12.6543 Z-5.0000 F1200.00
G1 X-9.5000 Y9.4723 Z-5.0000 F1200.00
G1 X62.3973 Y81.3696 Z-5.0000 F1200.00
G1 X63.0870 Y81.4602 Z-5.0000 F1200.00
G2 X65.7096 Y81.5000 Z-5.0000 I1.7678 J-30.0840 F1200.00
G1 X-9.5000 Y6.2904 Z-5.0000 F1200.00
G1 X-9.5000 Y3.1084 Z-5.0000 F1200.00
G1 X68.8543 Y81.4627 Z-5.0000 F1200.00
G2 X71.4765 Y80.9029 Z-5.0000 I-0.7766 J-10.0599 F1200.00
G1 X-9.4463 Y-0.0199 Z-5.0000 F1200.00
G3 X-8.8577 Y-2.6132 Z-5.0000 I10.1789 J0.9468 F1200.00
G1 X73.6158 Y79.8602 Z-5.0000 F1200.00
G2 X75.3920 Y78.4545 Z-5.0000 I-4.4956 J-7.5055 F1200.00
G1 X-7.7894 Y-4.7270 Z-5.0000 F1200.00
G3 X-6.3622 Y-6.4818 Z-5.0000 I8.0658 J5.1020 F1200.00
G1 X76.8116 Y76.6921 Z-5.0000 F1200.00
G2 X77.4837 Y75.5000 Z-5.0000 I-6.4768 J-4.4369 F1200.00
G1 X78.8015 Y75.5000 Z-5.0000 F1200.00
G1 X-4.5809 Y-7.8824 Z-5.0000 F1200.00
G3 X-2.4331 Y-8.9166 Z-5.0000 I5.1303 J7.9074 F1200.00
G1 X21.5000 Y15.0165 Z-5.0000 F1200.00
G1 X21.5000 Y16.5247 Z-5.0000 F1200.00
G1 X26.4958 Y20.0123 Z-5.0000 F1200.00
G1 X81.9835 Y75.5000 Z-5.0000 F1200.00
G1 X85.1655 Y75.5000 Z-5.0000 F1200.00
G1 X37.0361 Y27.3706 Z-5.0000 F1200.00
G1 X47.5764 Y34.7289 Z-5.0000 F1200.00
G1 X88.3475 Y75.5000 Z-5.0000 F1200.00
G1 X91.5294 Y75.5000 Z-5.0000 F1200.00
G1 X58.1167 Y42.0872 Z-5.0000 F1200.00
G1 X67.3025 Y48.5000 Z-5.0000 F1200.00
G1 X67.7114 Y48.5000 Z-5.0000 F1200.00
G1 X94.4197 Y75.2083 Z-5.0000 F1200.00
G2 X96.7480 Y74.3546 Z-5.0000 I-2.0218 J-9.1162 F1200.00
G1 X70.8934 Y48.5000 Z-5.0000 F1200.00
G1 X74.0754 Y48.5000 Z-5.0000 F1200.00
G1 X98.6755 Y73.1001 Z-5.0000 F1200.00
G2 X100.2446 Y71.4872 Z-5.0000 I-5.9935 J-7.4004 F1200.00
G1 X77.2574 Y48.5000 Z-5.0000 F1200.00
G1 X80.4393 Y48.5000 Z-5.0000 F1200.00
G1 X101.4685 Y69.5292 Z-5.0000 F1200.00
G2 X102.2686 Y67.1473 Z-5.0000 I-8.7035 J-4.2491 F1200.00
G1 X83.6213 Y48.5000 Z-5.0000 F1200.00
G1 X86.8033 Y48.5000 Z-5.0000 F1200.00
G1 X102.5000 Y64.1967 Z-5.0000 F1200.00
G1 X102.5000 Y61.0147 Z-5.0000 F1200.00
G1 X89.9853 Y48.5000 Z-5.0000 F1200.00
G3 X93.2515 Y48.5842 Z-5.0000 I1.0074 J24.3045 F1200.00
G1 X102.4158 Y57.7485 Z-5.0000 F1200.00
G2 X99.4246 Y51.5754 Z-5.0000 I-10.3423 J1.2000 F1200.00
G1 X99.4246 Y51.5754 Z-5.5000 F300.00
G3 X102.4158 Y57.7485 Z-5.5000 I-7.3511 J7.3732 F1200.00
G1 X93.2515 Y48.5842 Z-5.5000 F1200.00
G2 X89.9853 Y48.5000 Z-5.5000 I-2.2589 J24.2202 F1200.00
G1 X102.5000 Y61.0147 Z-5.5000 F1200.00
G1 X102.5000 Y64.1967 Z-5.5000 F1200.00
G1 X86.8033 Y48.5000 Z-5.5000 F1200.00
G1 X83.6213 Y48.5000 Z-5.5000 F1200.00
G1 X102.2686 Y67.1473 Z-5.5000 F1200.00
G3 X101.4685 Y69.5292 Z-5.5000 I-9.5036 J-1.8673 F1200.00
G1 X80.4393 Y48.5000 Z-5.5000 F1200.00
G1 X77.2574 Y48.5000 Z-5.5000 F1200.00
G1 X100.2446 Y71.4872 Z-5.5000 F1200.00
G3 X98.6755 Y73.1001 Z-5.5000 I-7.5626 J-5.7875 F1200.00
G1 X74.0754 Y48.5000 Z-5.5000 F1200.00
G1 X70.8934 Y48.5000 Z-5.5000 F1200.00
G1 X96.7480 Y74.3546 Z-5.5000 F1200.00
G3 X94.4197 Y75.2083 Z-5.5000 I-4.3501 J-8.2625 F1200.00
G1 X67.7114 Y48.5000 Z-5.5000 F1200.00
G1 X67.3025 Y48.5000 Z-5.5000 F1200.00
G1 X58.1167 Y42.0872 Z-5.5000 F1200.00
G1 X91.5294 Y75.5000 Z-5.5000 F1200.00
G1 X88.3475 Y75.5000 Z-5.5000 F1200.00
G1 X47.5764 Y34.7289 Z-5.5000 F1200.00
G1 X37.0361 Y27.3706 Z-5.5000 F1200.00
G1 X85.1655 Y75.5000 Z-5.5000 F1200.00
G1 X81.9835 Y75.5000 Z-5.5000 F1200.00
G1 X26.4958 Y20.0123 Z-5.5000 F1200.00
G1 X21.5000 Y16.5247 Z-5.5000 F1200.00
G1 X21.5000 Y15.0165 Z-5.5000 F1200.00
G1 X-2.4331 Y-8.9166 Z-5.5000 F1200.00
G2 X-4.5809 Y-7.8824 Z-5.5000 I2.9825 J8.9416 F1200.00
G1 X78.8015 Y75.5000 Z-5.5000 F1200.00
G1 X77.4837 Y75.5000 Z-5.5000 F1200.00
G3 X76.8116 Y76.6921 Z-5.5000 I-7.1488 J-3.2448 F1200.00
G1 X-6.3622 Y-6.4818 Z-5.5000 F1200.00
G2 X-7.7894 Y-4.7270 Z-5.5000 I6.6386 J6.8568 F1200.00
G1 X75.3920 Y78.4545 Z-5.5000 F1200.00
G3 X73.6158 Y79.8602 Z-5.5000 I-6.2719 J-6.0998 F1200.00
G1 X-8.8577 Y-2.6132 Z-5.5000 F1200.00
G2 X-9.4463 Y-0.0199 Z-5.5000 I9.5902 J3.5401 F1200.00
G1 X71.4765 Y80.9029 Z-5.5000 F1200.00
G3 X68.8543 Y81.4627 Z-5.5000 I-3.3989 J-9.5001 F1200.00
G1 X-9.5000 Y3.1084 Z-5.5000 F1200.00
G1 X-9.5000 Y6.2904 Z-5.5000 F1200.00
G1 X65.7096 Y81.5000 Z-5.5000 F1200.00
G3 X63.0870 Y81.4602 Z-5.5000 I-0.8548 J-30.1237 F1200.00
G1 X62.3973 Y81.3696 Z-5.5000 F1200.00
G1 X-9.5000 Y9.4723 Z-5.5000 F1200.00
G1 X-9.5000 Y12.6543 Z-5.5000 F1200.00
G1 X56.2196 Y78.3739 Z-5.5000 F1200.00
G1 X45.6793 Y71.0156 Z-5.5000 F1200.00
G1 X-9.5000 Y15.8363 Z-5.5000 F1200.00
G1 X-9.5000 Y19.0183 Z-5.5000 F1200.00
G1 X35.1390 Y63.6573 Z-5.5000 F1200.00
G1 X24.5987 Y56.2990 Z-5.5000 F1200.00
G1 X-9.5000 Y22.2003 Z-5.5000 F1200.00
G1 X-9.5000 Y25.3823 Z-5.5000 F1200.00
G1 X14.0584 Y48.9406 Z-5.5000 F1200.00
G1 X3.5181 Y41.5823 Z-5.5000 F1200.00
G1 X-9.3643 Y28.6999 Z-5.5000 F1200.00
G2 X-5.0104 Y35.6284 Z-5.5000 I10.3632 J-1.6800 F1200.00
G1 X3.5181 Y41.5823 Z-5.5000 F1200.00
G0 X3.5181 Y41.5823 Z13.3700
G0 X21.2751 Y-1.1183 Z13.3700
G0 X21.2751 Y-1.1183 Z5.8700
G1 X21.2751 Y-1.1183 Z-5.5000 F300.00
G2 X13.1183 Y-9.2751 Z-5.5000 I-10.2373 J2.0806 F1200.00
G1 X21.2751 Y-1.1183 Z-5.5000 F1200.00
G3 X21.5000 Y1.0000 Z-5.5000 I-9.5748 J2.0877 F1200.00
G1 X21.5000 Y2.2886 Z-5.5000 F1200.00
G1 X9.7114 Y-9.5000 Z-5.5000 F1200.00
G1 X6.5294 Y-9.5000 Z-5.5000 F1200.00
G1 X21.5000 Y5.4706 Z-5.5000 F1200.00
G1 X21.5000 Y8.6525 Z-5.5000 F1200.00
G1 X3.3475 Y-9.5000 Z-5.5000 F1200.00
G2 X0.2004 Y-9.4651 Z-5.5000 I-1.1737 J36.0574 F1200.00
G1 X21.5000 Y11.8345 Z-5.5000 F1200.00
G1 X21.5000 Y15.0165 Z-5.5000 F1200.00
G1 X-2.4331 Y-8.9166 Z-5.5000 F1200.00
G1 X-2.4331 Y-8.9166 Z-6.0000 F300.00
G1 X21.5000 Y15.0165 Z-6.0000 F1200.00
G1 X21.5000 Y11.8345 Z-6.0000 F1200.00
G1 X0.2004 Y-9.4651 Z-6.0000 F1200.00
G3 X3.3475 Y-9.5000 Z-6.0000 I1.9733 J36.0224 F1200.00
G1 X21.5000 Y8.6525 Z-6.0000 F1200.00
G1 X21.5000 Y5.4706 Z-6.0000 F1200.00
G1 X6.5294 Y-9.5000 Z-6.0000 F1200.00
G1 X9.7114 Y-9.5000 Z-6.0000 F1200.00
G1 X21.5000 Y2.2886 Z-6.0000 F1200.00
G1 X21.5000 Y1.0000 Z-6.0000 F1200.00
G2 X21.2751 Y-1.1183 Z-6.0000 I-9.7997 J-0.0306 F1200.00
G1 X13.1183 Y-9.2751 Z-6.0000 F1200.00
G3 X21.2751 Y-1.1183 Z-6.0000 I-2.0806 J10.2373 F1200.00
G0 X21.2751 Y-1.1183 Z13.3700
G0 X3.5181 Y41.5823 Z13.3700
G0 X3.5181 Y41.5823 Z5.3700
G1 X3.5181 Y41.5823 Z-6.0000 F300.00
G1 X-5.0104 Y35.6284 Z-6.0000 F1200.00
G3 X-9.3643 Y28.6999 Z-6.0000 I6.0093 J-8.6085 F1200.00
G1 X3.5181 Y41.5823 Z-6.0000 F1200.00
G1 X14.0584 Y48.9406 Z-6.0000 F1200.00
G1 X-9.5000 Y25.3823 Z-6.0000 F1200.00
G1 X-9.5000 Y22.2003 Z-6.0000 F1200.00
G1 X24.5987 Y56.2990 Z-6.0000 F1200.00
G1 X35.1390 Y63.6573 Z-6.0000 F1200.00
G1 X-9.5000 Y19.0183 Z-6.0000 F1200.00
G1 X-9.5000 Y15.8363 Z-6.0000 F1200.00
G1 X45.6793 Y71.0156 Z-6.0000 F1200.00
G1 X56.2196 Y78.3739 Z-6.0000 F1200.00
G1 X-9.5000 Y12.6543 Z-6.0000 F1200.00
G1 X-9.5000 Y9.4723 Z-6.0000 F1200.00
G1 X62.3973 Y81.3696 Z-6.0000 F1200.00
G1 X63.0870 Y81.4602 Z-6.0000 F1200.00
G2 X65.7096 Y81.5000 Z-6.0000 I1.7678 J-30.0840 F1200.00
G1 X-9.5000 Y6.2904 Z-6.0000 F1200.00
G1 X-9.5000 Y3.1084 Z-6.0000 F1200.00
G1 X68.8543 Y81.4627 Z-6.0000 F1200.00
G2 X71.4765 Y80.9029 Z-6.0000 I-0.7766 J-10.0599 F1200.00
G1 X-9.4463 Y-0.0199 Z-6.0000 F1200.00
G3 X-8.8577 Y-2.6132 Z-6.0000 I10.1789 J0.9468 F1200.00
G1 X73.6158 Y79.8602 Z-6.0000 F1200.00
G2 X75.3920 Y78.4545 Z-6.0000 I-4.4956 J-7.5055 F1200.00
G1 X-7.7894 Y-4.7270 Z-6.0000 F1200.00
G3 X-6.3622 Y-6.4818 Z-6.0000 I8.0658 J5.1020 F1200.00
G1 X76.8116 Y76.6921 Z-6.0000 F1200.00
G2 X77.4837 Y75.5000 Z-6.0000 I-6.4768 J-4.4369 F1200.00
G1 X78.8015 Y75.5000 Z-6.0000 F1200.00
G1 X-4.5809 Y-7.8824 Z-6.0000 F1200.00
G3 X-2.4331 Y-8.9166 Z-6.0000 I5.1303 J7.9074 F1200.00
G1 X21.5000 Y15.0165 Z-6.0000 F1200.00
G1 X21.5000 Y16.5247 Z-6.0000 F1200.00
G1 X26.4958 Y20.0123 Z-6.0000 F1200.00
G1 X81.9835 Y75.5000 Z-6.0000 F1200.00
G1 X85.1655 Y75.5000 Z-6.0000 F1200.00
G1 X37.0361 Y27.3706 Z-6.0000 F1200.00
G1 X47.5764 Y34.7289 Z-6.0000 F1200.00
G1 X88.3475 Y75.5000 Z-6.0000 F1200.00
G1 X91.5294 Y75.5000 Z-6.0000 F1200.00
G1 X58.1167 Y42.0872 Z-6.0000 F1200.00
G1 X67.3025 Y48.5000 Z-6.0000 F1200.00
G1 X67.7114 Y48.5000 Z-6.0000 F1200.00
G1 X94.4197 Y75.2083 Z-6.0000 F1200.00
G2 X96.7480 Y74.3546 Z-6.0000 I-2.0218 J-9.1162 F1200.00
G1 X70.8934 Y48.5000 Z-6.0000 F1200.00
G1 X74.0754 Y48.5000 Z-6.0000 F1200.00
G1 X98.6755 Y73.1001 Z-6.0000 F1200.00
G2 X100.2446 Y71.4872 Z-6.0000 I-5.9935 J-7.4004 F1200.00
G1 X77.2574 Y48.5000 Z-6.0000 F1200.00
G1 X80.4393 Y48.5000 Z-6.0000 F1200.00
G1 X101.4685 Y69.5292 Z-6.0000 F1200.00
G2 X102.2686 Y67.1473 Z-6.0000 I-8.7035 J-4.2491 F1200.00
G1 X83.6213 Y48.5000 Z-6.0000 F1200.00
G1 X86.8033 Y48.5000 Z-6.0000 F1200.00
G1 X102.5000 Y64.1967 Z-6.0000 F1200.00
G1 X102.5000 Y61.0147 Z-6.0000 F1200.00
G1 X89.9853 Y48.5000 Z-6.0000 F1200.00
G3 X93.2515 Y48.5842 Z-6.0000 I1.0074 J24.3045 F1200.00
G1 X102.4158 Y57.7485 Z-6.0000 F1200.00
G2 X99.4246 Y51.5754 Z-6.0000 I-10.3423 J1.2000 F1200.00
G1 X99.4246 Y51.5754 Z-6.5000 F300.00
G3 X102.4158 Y57.7485 Z-6.5000 I-7.3511 J7.3732 F1200.00
G1 X93.2515 Y48.5842 Z-6.5000 F1200.00
G2 X89.9853 Y48.5000 Z-6.5000 I-2.2589 J24.2202 F1200.00
G1 X102.5000 Y61.0147 Z-6.5000 F1200.00
G1 X102.5000 Y64.1967 Z-6.5000 F1200.00
G1 X86.8033 Y48.5000 Z-6.5000 F1200.00
G1 X83.6213 Y48.5000 Z-6.5000 F1200.00
G1 X102.2686 Y67.1473 Z-6.5000 F1200.00
G3 X101.4685 Y69.5292 Z-6.5000 I-9.5036 J-1.8673 F1200.00
G1 X80.4393 Y48.5000 Z-6.5000 F1200.00
G1 X77.2574 Y48.5000 Z-6.5000 F1200.00
G1 X100.2446 Y71.4872 Z-6.5000 F1200.00
G3 X98.6755 Y73.1001 Z-6.5000 I-7.5626 J-5.7875 F1200.00
G1 X74.0754 Y48.5000 Z-6.5000 F1200.00
G1 X70.8934 Y48.5000 Z-6.5000 F1200.00
G1 X96.7480 Y74.3546 Z-6.5000 F1200.00
G3 X94.4197 Y75.2083 Z-6.5000 I-4.3501 J-8.2625 F1200.00
G1 X67.7114 Y48.5000 Z-6.5000 F1200.00
G1 X67.3025 Y48.5000 Z-6.5000 F1200.00
G1 X58.1167 Y42.0872 Z-6.5000 F1200.00
G1 X91.5294 Y75.5000 Z-6.5000 F1200.00
G1 X88.3475 Y75.5000 Z-6.5000 F1200.00
G1 X47.5764 Y34.7289 Z-6.5000 F1200.00
G1 X37.0361 Y27.3706 Z-6.5000 F1200.00
G1 X85.1655 Y75.5000 Z-6.5000 F1200.00
G1 X81.9835 Y75.5000 Z-6.5000 F1200.00
G1 X26.4958 Y20.0123 Z-6.5000 F1200.00
G1 X21.5000 Y16.5247 Z-6.5000 F1200.00
G1 X21.5000 Y15.0165 Z-6.5000 F1200.00
G1 X-2.4331 Y-8.9166 Z-6.5000 F1200.00
G2 X-4.5809 Y-7.8824 Z-6.5000 I2.9825 J8.9416 F1200.00
G1 X78.8015 Y75.5000 Z-6.5000 F1200.00
G1 X77.4837 Y75.5000 Z-6.5000 F1200.00
G3 X76.8116 Y76.6921 Z-6.5000 I-7.1488 J-3.2448 F1200.00
G1 X-6.3622 Y-6.4818 Z-6.5000 F1200.00
G2 X-7.7894 Y-4.7270 Z-6.5000 I6.6386 J6.8568 F1200.00
G1 X75.3920 Y78.4545 Z-6.5000 F1200.00
G3 X73.6158 Y79.8602 Z-6.5000 I-6.2719 J-6.0998 F1200.00
G1 X-8.8577 Y-2.6132 Z-6.5000 F1200.00
G2 X-9.4463 Y-0.0199 Z-6.5000 I9.5902 J3.5401 F1200.00
G1 X71.4765 Y80.9029 Z-6.5000 F1200.00
G3 X68.8543 Y81.4627 Z-6.5000 I-3.3989 J-9.5001 F1200.00
G1 X-9.5000 Y3.1084 Z-6.5000 F1200.00
G1 X-9.5000 Y6.2904 Z-6.5000 F1200.00
G1 X65.7096 Y81.5000 Z-6.5000 F1200.00
G3 X63.0870 Y81.4602 Z-6.5000 I-0.8548 J-30.1237 F1200.00
G1 X62.3973 Y81.3696 Z-6.5000 F1200.00
G1 X-9.5000 Y9.4723 Z-6.5000 F1200.00
G1 X-9.5000 Y12.6543 Z-6.5000 F1200.00
G1 X56.2196 Y78.3739 Z-6.5000 F1200.00
G1 X45.6793 Y71.0156 Z-6.5000 F1200.00
G1 X-9.5000 Y15.8363 Z-6.5000 F1200.00
G1 X-9.5000 Y19.0183 Z-6.5000 F1200.00
G1 X35.1390 Y63.6573 Z-6.5000 F1200.00
G1 X24.5987 Y56.2990 Z-6.5000 F1200.00
G1 X-9.5000 Y22.2003 Z-6.5000 F1200.00
G1 X-9.5000 Y25.3823 Z-6.5000 F1200.00
G1 X14.0584 Y48.9406 Z-6.5000 F1200.00
G1 X3.5181 Y41.5823 Z-6.5000 F1200.00
G1 X-9.3643 Y28.6999 Z-6.5000 F1200.00
G2 X-5.0104 Y35.6284 Z-6.5000 I10.3632 J-1.6800 F1200.00
G1 X3.5181 Y41.5823 Z-6.5000 F1200.00
G0 X3.5181 Y41.5823 Z13.3700
G0 X21.2751 Y-1.1183 Z13.3700
G0 X21.2751 Y-1.1183 Z4.8700
G1 X21.2751 Y-1.1183 Z-6.5000 F300.00
G2 X13.1183 Y-9.2751 Z-6.5000 I-10.2373 J2.0806 F1200.00
G1 X21.2751 Y-1.1183 Z-6.5000 F1200.00
G3 X21.5000 Y1.0000 Z-6.5000 I-9.5748 J2.0877 F1200.00
G1 X21.5000 Y2.2886 Z-6.5000 F1200.00
G1 X9.7114 Y-9.5000 Z-6.5000 F1200.00
G1 X6.5294 Y-9.5000 Z-6.5000 F1200.00
G1 X21.5000 Y5.4706 Z-6.5000 F1200.00
G1 X21.5000 Y8.6525 Z-6.5000 F1200.00
G1 X3.3475 Y-9.5000 Z-6.5000 F1200.00
G2 X0.2004 Y-9.4651 Z-6.5000 I-1.1737 J36.0574 F1200.00
G1 X21.5000 Y11.8345 Z-6.5000 F1200.00
G1 X21.5000 Y15.0165 Z-6.5000 F1200.00
G1 X-2.4331 Y-8.9166 Z-6.5000 F1200.00
G1 X-2.4331 Y-8.9166 Z-7.0000 F300.00
G1 X21.5000 Y15.0165 Z-7.0000 F1200.00
G1 X21.5000 Y11.8345 Z-7.0000 F1200.00
G1 X0.2004 Y-9.4651 Z-7.0000 F1200.00
G3 X3.3475 Y-9.5000 Z-7.0000 I1.9733 J36.0224 F1200.00
G1 X21.5000 Y8.6525 Z-7.0000 F1200.00
G1 X21.5000 Y5.4706 Z-7.0000 F1200.00
G1 X6.5294 Y-9.5000 Z-7.0000 F1200.00
G1 X9.7114 Y-9.5000 Z-7.0000 F1200.00
G1 X21.5000 Y2.2886 Z-7.0000 F1200.00
G1 X21.5000 Y1.0000 Z-7.0000 F1200.00
G2 X21.2751 Y-1.1183 Z-7.0000 I-9.7997 J-0.0306 F1200.00
G1 X13.1183 Y-9.2751 Z-7.0000 F1200.00
G3 X21.2751 Y-1.1183 Z-7.0000 I-2.0806 J10.2373 F1200.00
G0 X21.2751 Y-1.1183 Z13.3700
G0 X3.5181 Y41.5823 Z13.3700
G0 X3.5181 Y41.5823 Z4.3700
G1 X3.5181 Y41.5823 Z-7.0000 F300.00
G1 X-5.0104 Y35.6284 Z-7.0000 F1200.00
G3 X-9.3643 Y28.6999 Z-7.0000 I6.0093 J-8.6085 F1200.00
G1 X3.5181 Y41.5823 Z-7.0000 F1200.00
G1 X14.0584 Y48.9406 Z-7.0000 F1200.00
G1 X-9.5000 Y25.3823 Z-7.0000 F1200.00
G1 X-9.5000 Y22.2003 Z-7.0000 F1200.00
G1 X24.5987 Y56.2990 Z-7.0000 F1200.00
G1 X35.1390 Y63.6573 Z-7.0000 F1200.00
G1 X-9.5000 Y19.0183 Z-7.0000 F1200.00
G1 X-9.5000 Y15.8363 Z-7.0000 F1200.00
G1 X45.6793 Y71.0156 Z-7.0000 F1200.00
G1 X56.2196 Y78.3739 Z-7.0000 F1200.00
G1 X-9.5000 Y12.6543 Z-7.0000 F1200.00
G1 X-9.5000 Y9.4723 Z-7.0000 F1200.00
G1 X62.3973 Y81.3696 Z-7.0000 F1200.00
G1 X63.0870 Y81.4602 Z-7.0000 F1200.00
G2 X65.7096 Y81.5000 Z-7.0000 I1.7678 J-30.0840 F1200.00
G1 X-9.5000 Y6.2904 Z-7.0000 F1200.00
G1 X-9.5000 Y3.1084 Z-7.0000 F1200.00
G1 X68.8543 Y81.4627 Z-7.0000 F1200.00
G2 X71.4765 Y80.9029 Z-7.0000 I-0.7766 J-10.0599 F1200.00
G1 X-9.4463 Y-0.0199 Z-7.0000 F1200.00
G3 X-8.8577 Y-2.6132 Z-7.0000 I10.1789 J0.9468 F1200.00
G1 X73.6158 Y79.8602 Z-7.0000 F1200.00
G2 X75.3920 Y78.4545 Z-7.0000 I-4.4956 J-7.5055 F1200.00
G1 X-7.7894 Y-4.7270 Z-7.0000 F1200.00
G3 X-6.3622 Y-6.4818 Z-7.0000 I8.0658 J5.1020 F1200.00
G1 X76.8116 Y76.6921 Z-7.0000 F1200.00
G2 X77.4837 Y75.5000 Z-7.0000 I-6.4768 J-4.4369 F1200.00
G1 X78.8015 Y75.5000 Z-7.0000 F1200.00
G1 X-4.5809 Y-7.8824 Z-7.0000 F1200.00
G3 X-2.4331 Y-8.9166 Z-7.0000 I5.1303 J7.9074 F1200.00
G1 X21.5000 Y15.0165 Z-7.0000 F1200.00
G1 X21.5000 Y16.5247 Z-7.0000 F1200.00
G1 X26.4958 Y20.0123 Z-7.0000 F1200.00
G1 X81.9835 Y75.5000 Z-7.0000 F1200.00
G1 X85.1655 Y75.5000 Z-7.0000 F1200.00
G1 X37.0361 Y27.3706 Z-7.0000 F1200.00
G1 X47.5764 Y34.7289 Z-7.0000 F1200.00
G1 X88.3475 Y75.5000 Z-7.0000 F1200.00
G1 X91.5294 Y75.5000 Z-7.0000 F1200.00
G1 X58.1167 Y42.0872 Z-7.0000 F1200.00
G1 X67.3025 Y48.5000 Z-7.0000 F1200.00
G1 X67.7114 Y48.5000 Z-7.0000 F1200.00
G1 X94.4197 Y75.2083 Z-7.0000 F1200.00
G2 X96.7480 Y74.3546 Z-7.0000 I-2.0218 J-9.1162 F1200.00
G1 X70.8934 Y48.5000 Z-7.0000 F1200.00
G1 X74.0754 Y48.5000 Z-7.0000 F1200.00
G1 X98.6755 Y73.1001 Z-7.0000 F1200.00
G2 X100.2446 Y71.4872 Z-7.0000 I-5.9935 J-7.4004 F1200.00
G1 X77.2574 Y48.5000 Z-7.0000 F1200.00
G1 X80.4393 Y48.5000 Z-7.0000 F1200.00
G1 X101.4685 Y69.5292 Z-7.0000 F1200.00
G2 X102.2686 Y67.1473 Z-7.0000 I-8.7035 J-4.2491 F1200.00
G1 X83.6213 Y48.5000 Z-7.0000 F1200.00
G1 X86.8033 Y48.5000 Z-7.0000 F1200.00
G1 X102.5000 Y64.1967 Z-7.0000 F1200.00
G1 X102.5000 Y61.0147 Z-7.0000 F1200.00
G1 X89.9853 Y48.5000 Z-7.0000 F1200.00
G3 X93.2515 Y48.5842 Z-7.0000 I1.0074 J24.3045 F1200.00
G1 X102.4158 Y57.7485 Z-7.0000 F1200.00
G2 X99.4246 Y51.5754 Z-7.0000 I-10.3423 J1.2000 F1200.00
G1 X99.4246 Y51.5754 Z-7.5000 F300.00
G3 X102.4158 Y57.7485 Z-7.5000 I-7.3511 J7.3732 F1200.00
G1 X93.2515 Y48.5842 Z-7.5000 F1200.00
G2 X89.9853 Y48.5000 Z-7.5000 I-2.2589 J24.2202 F1200.00
G1 X102.5000 Y61.0147 Z-7.5000 F1200.00
G1 X102.5000 Y64.1967 Z-7.5000 F1200.00
G1 X86.8033 Y48.5000 Z-7.5000 F1200.00
G1 X83.6213 Y48.5000 Z-7.5000 F1200.00
G1 X102.2686 Y67.1473 Z-7.5000 F1200.00
G3 X101.4685 Y69.5292 Z-7.5000 I-9.5036 J-1.8673 F1200.00
G1 X80.4393 Y48.5000 Z-7.5000 F1200.00
G1 X77.2574 Y48.5000 Z-7.5000 F1200.00
G1 X100.2446 Y71.4872 Z-7.5000 F1200.00
G3 X98.6755 Y73.1001 Z-7.5000 I-7.5626 J-5.7875 F1200.00
G1 X74.0754 Y48.5000 Z-7.5000 F1200.00
G1 X70.8934 Y48.5000 Z-7.5000 F1200.00
G1 X96.7480 Y74.3546 Z-7.5000 F1200.00
G3 X94.4197 Y75.2083 Z-7.5000 I-4.3501 J-8.2625 F1200.00
G1 X67.7114 Y48.5000 Z-7.5000 F1200.00
G1 X67.3025 Y48.5000 Z-7.5000 F1200.00
G1 X58.1167 Y42.0872 Z-7.5000 F1200.00
G1 X91.5294 Y75.5000 Z-7.5000 F1200.00
G1 X88.3475 Y75.5000 Z-7.5000 F1200.00
G1 X47.5764 Y34.7289 Z-7.5000 F1200.00
G1 X37.0361 Y27.3706 Z-7.5000 F1200.00
G1 X85.1655 Y75.5000 Z-7.5000 F1200.00
G1 X81.9835 Y75.5000 Z-7.5000 F1200.00
G1 X26.4958 Y20.0123 Z-7.5000 F1200.00
G1 X21.5000 Y16.5247 Z-7.5000 F1200.00
G1 X21.5000 Y15.0165 Z-7.5000 F1200.00
G1 X-2.4331 Y-8.9166 Z-7.5000 F1200.00
G2 X-4.5809 Y-7.8824 Z-7.5000 I2.9825 J8.9416 F1200.00
G1 X78.8015 Y75.5000 Z-7.5000 F1200.00
G1 X77.4837 Y75.5000 Z-7.5000 F1200.00
G3 X76.8116 Y76.6921 Z-7.5000 I-7.1488 J-3.2448 F1200.00
G1 X-6.3622 Y-6.4818 Z-7.5000 F1200.00
G2 X-7.7894 Y-4.7270 Z-7.5000 I6.6386 J6.8568 F1200.00
G1 X75.3920 Y78.4545 Z-7.5000 F1200.00
G3 X73.6158 Y79.8602 Z-7.5000 I-6.2719 J-6.0998 F1200.00
G1 X-8.8577 Y-2.6132 Z-7.5000 F1200.00
G2 X-9.4463 Y-0.0199 Z-7.5000 I9.5902 J3.5401 F1200.00
G1 X71.4765 Y80.9029 Z-7.5000 F1200.00
G3 X68.8543 Y81.4627 Z-7.5000 I-3.3989 J-9.5001 F1200.00
G1 X-9.5000 Y3.1084 Z-7.5000 F1200.00
G1 X-9.5000 Y6.2904 Z-7.5000 F1200.00
G1 X65.7096 Y81.5000 Z-7.5000 F1200.00
G3 X63.0870 Y81.4602 Z-7.5000 I-0.8548 J-30.1237 F1200.00
G1 X62.3973 Y81.3696 Z-7.5000 F1200.00
G1 X-9.5000 Y9.4723 Z-7.5000 F1200.00
G1 X-9.5000 Y12.6543 Z-7.5000 F1200.00
G1 X56.2196 Y78.3739 Z-7.5000 F1200.00
G1 X45.6793 Y71.0156 Z-7.5000 F1200.00
G1 X-9.5000 Y15.8363 Z-7.5000 F1200.00
G1 X-9.5000 Y19.0183 Z-7.5000 F1200.00
G1 X35.1390 Y63.6573 Z-7.5000 F1200.00
G1 X24.5987 Y56.2990 Z-7.5000 F1200.00
G1 X-9.5000 Y22.2003 Z-7.5000 F1200.00
G1 X-9.5000 Y25.3823 Z-7.5000 F1200.00
G1 X14.0584 Y48.9406 Z-7.5000 F1200.00
G1 X3.5181 Y41.5823 Z-7.5000 F1200.00
G1 X-9.3643 Y28.6999 Z-7.5000 F1200.00
G2 X-5.0104 Y35.6284 Z-7.5000 I10.3632 J-1.6800 F1200.00
G1 X3.5181 Y41.5823 Z-7.5000 F1200.00
G0 X3.5181 Y41.5823 Z13.3700
G0 X21.2751 Y-1.1183 Z13.3700
G0 X21.2751 Y-1.1183 Z3.8700
G1 X21.2751 Y-1.1183 Z-7.5000 F300.00
G2 X13.1183 Y-9.2751 Z-7.5000 I-10.2373 J2.0806 F1200.00
G1 X21.2751 Y-1.1183 Z-7.5000 F1200.00
G3 X21.5000 Y1.0000 Z-7.5000 I-9.5748 J2.0877 F1200.00
G1 X21.5000 Y2.2886 Z-7.5000 F1200.00
G1 X9.7114 Y-9.5000 Z-7.5000 F1200.00
G1 X6.5294 Y-9.5000 Z-7.5000 F1200.00
G1 X21.5000 Y5.4706 Z-7.5000 F1200.00
G1 X21.5000 Y8.6525 Z-7.5000 F1200.00
G1 X3.3475 Y-9.5000 Z-7.5000 F1200.00
G2 X0.2004 Y-9.4651 Z-7.5000 I-1.1737 J36.0574 F1200.00
G1 X21.5000 Y11.8345 Z-7.5000 F1200.00
G1 X21.5000 Y15.0165 Z-7.5000 F1200.00
G1 X-2.4331 Y-8.9166 Z-7.5000 F1200.00
G1 X-2.4331 Y-8.9166 Z-8.0000 F300.00
G1 X21.5000 Y15.0165 Z-8.0000 F1200.00
G1 X21.5000 Y11.8345 Z-8.0000 F1200.00
G1 X0.2004 Y-9.4651 Z-8.0000 F1200.00
G3 X3.3475 Y-9.5000 Z-8.0000 I1.9733 J36.0224 F1200.00
G1 X21.5000 Y8.6525 Z-8.0000 F1200.00
G1 X21.5000 Y5.4706 Z-8.0000 F1200.00
G1 X6.5294 Y-9.5000 Z-8.0000 F1200.00
G1 X9.7114 Y-9.5000 Z-8.0000 F1200.00
G1 X21.5000 Y2.2886 Z-8.0000 F1200.00
G1 X21.5000 Y1.0000 Z-8.0000 F1200.00
G2 X21.2751 Y-1.1183 Z-8.0000 I-9.7997 J-0.0306 F1200.00
G1 X13.1183 Y-9.2751 Z-8.0000 F1200.00
G3 X21.2751 Y-1.1183 Z-8.0000 I-2.0806 J10.2373 F1200.00
G0 X21.2751 Y-1.1183 Z13.3700
G0 X3.5181 Y41.5823 Z13.3700
G0 X3.5181 Y41.5823 Z3.3700
G1 X3.5181 Y41.5823 Z-8.0000 F300.00
G1 X-5.0104 Y35.6284 Z-8.0000 F1200.00
G3 X-9.3643 Y28.6999 Z-8.0000 I6.0093 J-8.6085 F1200.00
G1 X3.5181 Y41.5823 Z-8.0000 F1200.00
G1 X14.0584 Y48.9406 Z-8.0000 F1200.00
G1 X-9.5000 Y25.3823 Z-8.0000 F1200.00
G1 X-9.5000 Y22.2003 Z-8.0000 F1200.00
G1 X24.5987 Y56.2990 Z-8.0000 F1200.00
G1 X35.1390 Y63.6573 Z-8.0000 F1200.00
G1 X-9.5000 Y19.0183 Z-8.0000 F1200.00
G1 X-9.5000 Y15.8363 Z-8.0000 F1200.00
G1 X45.6793 Y71.0156 Z-8.0000 F1200.00
G1 X56.2196 Y78.3739 Z-8.0000 F1200.00
G1 X-9.5000 Y12.6543 Z-8.0000 F1200.00
G1 X-9.5000 Y9.4723 Z-8.0000 F1200.00
G1 X62.3973 Y81.3696 Z-8.0000 F1200.00
G1 X63.0870 Y81.4602 Z-8.0000 F1200.00
G2 X65.7096 Y81.5000 Z-8.0000 I1.7678 J-30.0840 F1200.00
G1 X-9.5000 Y6.2904 Z-8.0000 F1200.00
G1 X-9.5000 Y3.1084 Z-8.0000 F1200.00
G1 X68.8543 Y81.4627 Z-8.0000 F1200.00
G2 X71.4765 Y80.9029 Z-8.0000 I-0.7766 J-10.0599 F1200.00
G1 X-9.4463 Y-0.0199 Z-8.0000 F1200.00
G3 X-8.8577 Y-2.6132 Z-8.0000 I10.1789 J0.9468 F1200.00
G1 X73.6158 Y79.8602 Z-8.0000 F1200.00
G2 X75.3920 Y78.4545 Z-8.0000 I-4.4956 J-7.5055 F1200.00
G1 X-7.7894 Y-4.7270 Z-8.0000 F1200.00
G3 X-6.3622 Y-6.4818 Z-8.0000 I8.0658 J5.1020 F1200.00
G1 X76.8116 Y76.6921 Z-8.0000 F1200.00
G2 X77.4837 Y75.5000 Z-8.0000 I-6.4768 J-4.4369 F1200.00
G1 X78.8015 Y75.5000 Z-8.0000 F1200.00
G1 X-4.5809 Y-7.8824 Z-8.0000 F1200.00
G3 X-2.4331 Y-8.9166 Z-8.0000 I5.1303 J7.9074 F1200.00
G1 X21.5000 Y15.0165 Z-8.0000 F1200.00
G1 X21.5000 Y16.5247 Z-8.0000 F1200.00
G1 X26.4958 Y20.0123 Z-8.0000 F1200.00
G1 X81.9835 Y75.5000 Z-8.0000 F1200.00
G1 X85.1655 Y75.5000 Z-8.0000 F1200.00
G1 X37.0361 Y27.3706 Z-8.0000 F1200.00
G1 X47.5764 Y34.7289 Z-8.0000 F1200.00
G1 X88.3475 Y75.5000 Z-8.0000 F1200.00
G1 X91.5294 Y75.5000 Z-8.0000 F1200.00
G1 X58.1167 Y42.0872 Z-8.0000 F1200.00
G1 X67.3025 Y48.5000 Z-8.0000 F1200.00
G1 X67.7114 Y48.5000 Z-8.0000 F1200.00
G1 X94.4197 Y75.2083 Z-8.0000 F1200.00
G2 X96.7480 Y74.3546 Z-8.0000 I-2.0218 J-9.1162 F1200.00
G1 X70.8934 Y48.5000 Z-8.0000 F1200.00
G1 X74.0754 Y48.5000 Z-8.0000 F1200.00
G1 X98.6755 Y73.1001 Z-8.0000 F1200.00
G2 X100.2446 Y71.4872 Z-8.0000 I-5.9935 J-7.4004 F1200.00
G1 X77.2574 Y48.5000 Z-8.0000 F1200.00
G1 X80.4393 Y48.5000 Z-8.0000 F1200.00
G1 X101.4685 Y69.5292 Z-8.0000 F1200.00
G2 X102.2686 Y67.1473 Z-8.0000 I-8.7035 J-4.2491 F1200.00
G1 X83.6213 Y48.5000 Z-8.0000 F1200.00
G1 X86.8033 Y48.5000 Z-8.0000 F1200.00
G1 X102.5000 Y64.1967 Z-8.0000 F1200.00
G1 X102.5000 Y61.0147 Z-8.0000 F1200.00
G1 X89.9853 Y48.5000 Z-8.0000 F1200.00
G3 X93.2515 Y48.5842 Z-8.0000 I1.0074 J24.3045 F1200.00
G1 X102.4158 Y57.7485 Z-8.0000 F1200.00
G2 X99.4246 Y51.5754 Z-8.0000 I-10.3423 J1.2000 F1200.00
G1 X99.4246 Y51.5754 Z-8.5000 F300.00
G3 X102.4158 Y57.7485 Z-8.5000 I-7.3511 J7.3732 F1200.00
G1 X93.2515 Y48.5842 Z-8.5000 F1200.00
G2 X89.9853 Y48.5000 Z-8.5000 I-2.2589 J24.2202 F1200.00
G1 X102.5000 Y61.0147 Z-8.5000 F1200.00
G1 X102.5000 Y64.1967 Z-8.5000 F1200.00
G1 X86.8033 Y48.5000 Z-8.5000 F1200.00
G1 X83.6213 Y48.5000 Z-8.5000 F1200.00
G1 X102.2686 Y67.1473 Z-8.5000 F1200.00
G3 X101.4685 Y69.5292 Z-8.5000 I-9.5036 J-1.8673 F1200.00
G1 X80.4393 Y48.5000 Z-8.5000 F1200.00
G1 X77.2574 Y48.5000 Z-8.5000 F1200.00
G1 X100.2446 Y71.4872 Z-8.5000 F1200.00
G3 X98.6755 Y73.1001 Z-8.5000 I-7.5626 J-5.7875 F1200.00
G1 X74.0754 Y48.5000 Z-8.5000 F1200.00
G1 X70.8934 Y48.5000 Z-8.5000 F1200.00
G1 X96.7480 Y74.3546 Z-8.5000 F1200.00
G3 X94.4197 Y75.2083 Z-8.5000 I-4.3501 J-8.2625 F1200.00
G1 X67.7114 Y48.5000 Z-8.5000 F1200.00
G1 X67.3025 Y48.5000 Z-8.5000 F1200.00
G1 X58.1167 Y42.0872 Z-8.5000 F1200.00
G1 X91.5294 Y75.5000 Z-8.5000 F1200.00
G1 X88.3475 Y75.5000 Z-8.5000 F1200.00
G1 X47.5764 Y34.7289 Z-8.5000 F1200.00
G1 X37.0361 Y27.3706 Z-8.5000 F1200.00
G1 X85.1655 Y75.5000 Z-8.5000 F1200.00
G1 X81.9835 Y75.5000 Z-8.5000 F1200.00
G1 X26.4958 Y20.0123 Z-8.5000 F1200.00
G1 X21.5000 Y16.5247 Z-8.5000 F1200.00
G1 X21.5000 Y15.0165 Z-8.5000 F1200.00
G1 X-2.4331 Y-8.9166 Z-8.5000 F1200.00
G2 X-4.5809 Y-7.8824 Z-8.5000 I2.9825 J8.9416 F1200.00
G1 X78.8015 Y75.5000 Z-8.5000 F1200.00
G1 X77.4837 Y75.5000 Z-8.5000 F1200.00
G3 X76.8116 Y76.6921 Z-8.5000 I-7.1488 J-3.2448 F1200.00
G1 X-6.3622 Y-6.4818 Z-8.5000 F1200.00
G2 X-7.7894 Y-4.7270 Z-8.5000 I6.6386 J6.8568 F1200.00
G1 X75.3920 Y78.4545 Z-8.5000 F1200.00
G3 X73.6158 Y79.8602 Z-8.5000 I-6.2719 J-6.0998 F1200.00
G1 X-8.8577 Y-2.6132 Z-8.5000 F1200.00
G2 X-9.4463 Y-0.0199 Z-8.5000 I9.5902 J3.5401 F1200.00
G1 X71.4765 Y80.9029 Z-8.5000 F1200.00
G3 X68.8543 Y81.4627 Z-8.5000 I-3.3989 J-9.5001 F1200.00
G1 X-9.5000 Y3.1084 Z-8.5000 F1200.00
G1 X-9.5000 Y6.2904 Z-8.5000 F1200.00
G1 X65.7096 Y81.5000 Z-8.5000 F1200.00
G3 X63.0870 Y81.4602 Z-8.5000 I-0.8548 J-30.1237 F1200.00
G1 X62.3973 Y81.3696 Z-8.5000 F1200.00
G1 X-9.5000 Y9.4723 Z-8.5000 F1200.00
G1 X-9.5000 Y12.6543 Z-8.5000 F1200.00
G1 X56.2196 Y78.3739 Z-8.5000 F1200.00
G1 X45.6793 Y71.0156 Z-8.5000 F1200.00
G1 X-9.5000 Y15.8363 Z-8.5000 F1200.00
G1 X-9.5000 Y19.0183 Z-8.5000 F1200.00
G1 X35.1390 Y63.6573 Z-8.5000 F1200.00
G1 X24.5987 Y56.2990 Z-8.5000 F1200.00
G1 X-9.5000 Y22.2003 Z-8.5000 F1200.00
G1 X-9.5000 Y25.3823 Z-8.5000 F1200.00
G1 X14.0584 Y48.9406 Z-8.5000 F1200.00
G1 X3.5181 Y41.5823 Z-8.5000 F1200.00
G1 X-9.3643 Y28.6999 Z-8.5000 F1200.00
G2 X-5.0104 Y35.6284 Z-8.5000 I10.3632 J-1.6800 F1200.00
G1 X3.5181 Y41.5823 Z-8.5000 F1200.00
G0 X3.5181 Y41.5823 Z13.3700
G0 X21.2751 Y-1.1183 Z13.3700
G0 X21.2751 Y-1.1183 Z2.8700
G1 X21.2751 Y-1.1183 Z-8.5000 F300.00
G2 X13.1183 Y-9.2751 Z-8.5000 I-10.2373 J2.0806 F1200.00
G1 X21.2751 Y-1.1183 Z-8.5000 F1200.00
G3 X21.5000 Y1.0000 Z-8.5000 I-9.5748 J2.0877 F1200.00
G1 X21.5000 Y2.2886 Z-8.5000 F1200.00
G1 X9.7114 Y-9.5000 Z-8.5000 F1200.00
G1 X6.5294 Y-9.5000 Z-8.5000 F1200.00
G1 X21.5000 Y5.4706 Z-8.5000 F1200.00
G1 X21.5000 Y8.6525 Z-8.5000 F1200.00
G1 X3.3475 Y-9.5000 Z-8.5000 F1200.00
G2 X0.2004 Y-9.4651 Z-8.5000 I-1.1737 J36.0574 F1200.00
G1 X21.5000 Y11.8345 Z-8.5000 F1200.00
G1 X21.5000 Y15.0165 Z-8.5000 F1200.00
G1 X-2.4331 Y-8.9166 Z-8.5000 F1200.00
G1 X-2.4331 Y-8.9166 Z-9.0000 F300.00
G1 X21.5000 Y15.0165 Z-9.0000 F1200.00
G1 X21.5000 Y11.8345 Z-9.0000 F1200.00
G1 X0.2004 Y-9.4651 Z-9.0000 F1200.00
G3 X3.3475 Y-9.5000 Z-9.0000 I1.9733 J36.0224 F1200.00
G1 X21.5000 Y8.6525 Z-9.0000 F1200.00
G1 X21.5000 Y5.4706 Z-9.0000 F1200.00
G1 X6.5294 Y-9.5000 Z-9.0000 F1200.00
G1 X9.7114 Y-9.5000 Z-9.0000 F1200.00
G1 X21.5000 Y2.2886 Z-9.0000 F1200.00
G1 X21.5000 Y1.0000 Z-9.0000 F1200.00
G2 X21.2751 Y-1.1183 Z-9.0000 I-9.7997 J-0.0306 F1200.00
G1 X13.1183 Y-9.2751 Z-9.0000 F1200.00
G3 X21.2751 Y-1.1183 Z-9.0000 I-2.0806 J10.2373 F1200.00
G0 X21.2751 Y-1.1183 Z13.3700
G0 X3.5181 Y41.5823 Z13.3700
G0 X3.5181 Y41.5823 Z2.3700
G1 X3.5181 Y41.5823 Z-9.0000 F300.00
G1 X-5.0104 Y35.6284 Z-9.0000 F1200.00
G3 X-9.3643 Y28.6999 Z-9.0000 I6.0093 J-8.6085 F1200.00
G1 X3.5181 Y41.5823 Z-9.0000 F1200.00
G1 X14.0584 Y48.9406 Z-9.0000 F1200.00
G1 X-9.5000 Y25.3823 Z-9.0000 F1200.00
G1 X-9.5000 Y22.2003 Z-9.0000 F1200.00
G1 X24.5987 Y56.2990 Z-9.0000 F1200.00
G1 X35.1390 Y63.6573 Z-9.0000 F1200.00
G1 X-9.5000 Y19.0183 Z-9.0000 F1200.00
G1 X-9.5000 Y15.8363 Z-9.0000 F1200.00
G1 X45.6793 Y71.0156 Z-9.0000 F1200.00
G1 X56.2196 Y78.3739 Z-9.0000 F1200.00
G1 X-9.5000 Y12.6543 Z-9.0000 F1200.00
G1 X-9.5000 Y9.4723 Z-9.0000 F1200.00
G1 X62.3973 Y81.3696 Z-9.0000 F1200.00
G1 X63.0870 Y81.4602 Z-9.0000 F1200.00
G2 X65.7096 Y81.5000 Z-9.0000 I1.7678 J-30.0840 F1200.00
G1 X-9.5000 Y6.2904 Z-9.0000 F1200.00
G1 X-9.5000 Y3.1084 Z-9.0000 F1200.00
G1 X68.8543 Y81.4627 Z-9.0000 F1200.00
G2 X71.4765 Y80.9029 Z-9.0000 I-0.7766 J-10.0599 F1200.00
G1 X-9.4463 Y-0.0199 Z-9.0000 F1200.00
G3 X-8.8577 Y-2.6132 Z-9.0000 I10.1789 J0.9468 F1200.00
G1 X73.6158 Y79.8602 Z-9.0000 F1200.00
G2 X75.3920 Y78.4545 Z-9.0000 I-4.4956 J-7.5055 F1200.00
G1 X-7.7894 Y-4.7270 Z-9.0000 F1200.00
G3 X-6.3622 Y-6.4818 Z-9.0000 I8.0658 J5.1020 F1200.00
G1 X76.8116 Y76.6921 Z-9.0000 F1200.00
G2 X77.4837 Y75.5000 Z-9.0000 I-6.4768 J-4.4369 F1200.00
G1 X78.8015 Y75.5000 Z-9.0000 F1200.00
G1 X-4.5809 Y-7.8824 Z-9.0000 F1200.00
G3 X-2.4331 Y-8.9166 Z-9.0000 I5.1303 J7.9074 F1200.00
G1 X21.5000 Y15.0165 Z-9.0000 F1200.00
G1 X21.5000 Y16.5247 Z-9.0000 F1200.00
G1 X26.4958 Y20.0123 Z-9.0000 F1200.00
G1 X81.9835 Y75.5000 Z-9.0000 F1200.00
G1 X85.1655 Y75.5000 Z-9.0000 F1200.00
G1 X37.0361 Y27.3706 Z-9.0000 F1200.00
G1 X47.5764 Y34.7289 Z-9.0000 F1200.00
G1 X88.3475 Y75.5000 Z-9.0000 F1200.00
G1 X91.5294 Y75.5000 Z-9.0000 F1200.00
G1 X58.1167 Y42.0872 Z-9.0000 F1200.00
G1 X67.3025 Y48.5000 Z-9.0000 F1200.00
G1 X67.7114 Y48.5000 Z-9.0000 F1200.00
G1 X94.4197 Y75.2083 Z-9.0000 F1200.00
G2 X96.7480 Y74.3546 Z-9.0000 I-2.0218 J-9.1162 F1200.00
G1 X70.8934 Y48.5000 Z-9.0000 F1200.00
G1 X74.0754 Y48.5000 Z-9.0000 F1200.00
G1 X98.6755 Y73.1001 Z-9.0000 F1200.00
G2 X100.2446 Y71.4872 Z-9.0000 I-5.9935 J-7.4004 F1200.00
G1 X77.2574 Y48.5000 Z-9.0000 F1200.00
G1 X80.4393 Y48.5000 Z-9.0000 F1200.00
G1 X101.4685 Y69.5292 Z-9.0000 F1200.00
G2 X102.2686 Y67.1473 Z-9.0000 I-8.7035 J-4.2491 F1200.00
G1 X83.6213 Y48.5000 Z-9.0000 F1200.00
G1 X86.8033 Y48.5000 Z-9.0000 F1200.00
G1 X102.5000 Y64.1967 Z-9.0000 F1200.00
G1 X102.5000 Y61.0147 Z-9.0000 F1200.00
G1 X89.9853 Y48.5000 Z-9.0000 F1200.00
G3 X93.2515 Y48.5842 Z-9.0000 I1.0074 J24.3045 F1200.00
G1 X102.4158 Y57.7485 Z-9.0000 F1200.00
G2 X99.4246 Y51.5754 Z-9.0000 I-10.3423 J1.2000 F1200.00
G0 Z13.3700
(finish operation: MillFace)
(begin operation: MillFace001)
(Path: MillFace001)
(MillFace001)
G0 Z13.3700
G0 X80.9228 Y75.5000
G0 Z11.3700
G1 X80.9228 Y75.5000 Z-9.3700 F300.00
G1 X22.9823 Y17.5595 Z-9.3700 F1200.00
G1 X30.0092 Y22.4650 Z-9.3700 F1200.00
G1 X83.0442 Y75.5000 Z-9.3700 F1200.00
G1 X85.1655 Y75.5000 Z-9.3700 F1200.00
G1 X37.0361 Y27.3706 Z-9.3700 F1200.00
G1 X44.0629 Y32.2761 Z-9.3700 F1200.00
G1 X87.2868 Y75.5000 Z-9.3700 F1200.00
G1 X89.4081 Y75.5000 Z-9.3700 F1200.00
G1 X51.0898 Y37.1817 Z-9.3700 F1200.00
G1 X58.1167 Y42.0872 Z-9.3700 F1200.00
G1 X91.5294 Y75.5000 Z-9.3700 F1200.00
G2 X93.5299 Y75.3791 Z-9.3700 I0.2353 J-12.7186 F1200.00
G1 X65.1436 Y46.9928 Z-9.3700 F1200.00
G1 X67.3025 Y48.5000 Z-9.3700 F1200.00
G1 X68.7721 Y48.5000 Z-9.3700 F1200.00
G1 X95.2473 Y74.9752 Z-9.3700 F1200.00
G2 X96.7480 Y74.3546 Z-9.3700 I-2.0240 J-7.0190 F1200.00
G1 X70.8934 Y48.5000 Z-9.3700 F1200.00
G1 X73.0147 Y48.5000 Z-9.3700 F1200.00
G1 X98.0753 Y73.5606 Z-9.3700 F1200.00
G2 X99.2347 Y72.5987 Z-9.3700 I-4.9179 J-7.1068 F1200.00
G1 X75.1360 Y48.5000 Z-9.3700 F1200.00
G1 X77.2574 Y48.5000 Z-9.3700 F1200.00
G1 X100.2446 Y71.4872 Z-9.3700 F1200.00
G2 X101.1054 Y70.2267 Z-9.3700 I-6.5773 J-5.4160 F1200.00
G1 X79.3787 Y48.5000 Z-9.3700 F1200.00
G1 X81.5000 Y48.5000 Z-9.3700 F1200.00
G1 X101.7861 Y68.7861 Z-9.3700 F1200.00
G2 X102.2686 Y67.1473 Z-9.3700 I-6.4838 J-2.7998 F1200.00
G1 X83.6213 Y48.5000 Z-9.3700 F1200.00
G1 X85.7426 Y48.5000 Z-9.3700 F1200.00
G1 X102.4892 Y65.2466 Z-9.3700 F1200.00
G2 X102.5000 Y63.1360 Z-9.3700 I-24.1644 J-1.1786 F1200.00
G1 X87.8640 Y48.5000 Z-9.3700 F1200.00
G1 X89.9853 Y48.5000 Z-9.3700 F1200.00
G1 X102.5000 Y61.0147 Z-9.3700 F1200.00
G2 X102.4951 Y58.8885 Z-9.3700 I-24.3514 J-1.0074 F1200.00
G1 X92.1115 Y48.5049 Z-9.3700 F1200.00
G3 X94.5481 Y48.8202 Z-9.3700 I-0.0231 J9.7504 F1200.00
G1 X102.1798 Y56.4519 Z-9.3700 F1200.00
G2 X99.4246 Y51.5754 Z-9.3700 I-10.0821 J2.4797 F1200.00
G0 X99.4246 Y51.5754 Z13.3700
G0 X0.0046 Y39.1295 Z13.3700
G0 X0.0046 Y39.1295 Z2.0000
G1 X0.0046 Y39.1295 Z-9.3700 F300.00
G1 X-9.0330 Y30.0919 Z-9.3700 F1200.00
G2 X-5.0104 Y35.6284 Z-9.3700 I9.9899 J-3.0286 F1200.00
G1 X0.0046 Y39.1295 Z-9.3700 F1200.00
G1 X7.0315 Y44.0351 Z-9.3700 F1200.00
G1 X-9.4798 Y27.5238 Z-9.3700 F1200.00
G3 X-9.5000 Y25.3823 Z-9.3700 I26.7077 J-1.3232 F1200.00
G1 X14.0584 Y48.9406 Z-9.3700 F1200.00
G1 X21.0852 Y53.8462 Z-9.3700 F1200.00
G1 X-9.5000 Y23.2609 Z-9.3700 F1200.00
G1 X-9.5000 Y21.1396 Z-9.3700 F1200.00
G1 X28.1121 Y58.7517 Z-9.3700 F1200.00
G1 X35.1390 Y63.6573 Z-9.3700 F1200.00
G1 X-9.5000 Y19.0183 Z-9.3700 F1200.00
G1 X-9.5000 Y16.8970 Z-9.3700 F1200.00
G1 X42.1659 Y68.5628 Z-9.3700 F1200.00
G1 X49.1927 Y73.4684 Z-9.3700 F1200.00
G1 X-9.5000 Y14.7756 Z-9.3700 F1200.00
G1 X-9.5000 Y12.6543 Z-9.3700 F1200.00
G1 X56.2196 Y78.3739 Z-9.3700 F1200.00
G1 X57.9896 Y79.6096 Z-9.3700 F1200.00
G2 X61.0293 Y81.0623 Z-9.3700 I5.8415 J-8.3162 F1200.00
G1 X-9.5000 Y10.5330 Z-9.3700 F1200.00
G1 X-9.5000 Y8.4117 Z-9.3700 F1200.00
G1 X63.5696 Y81.4812 Z-9.3700 F1200.00
G2 X65.7096 Y81.5000 Z-9.3700 I1.2853 J-24.5551 F1200.00
G1 X-9.5000 Y6.2904 Z-9.3700 F1200.00
G1 X-9.5000 Y4.1690 Z-9.3700 F1200.00
G1 X67.8310 Y81.5000 Z-9.3700 F1200.00
G2 X69.7963 Y81.3440 Z-9.3700 I0.0845 J-11.3959 F1200.00
G1 X-9.5000 Y2.0477 Z-9.3700 F1200.00
G3 X-9.4463 Y-0.0199 Z-9.3700 I19.6449 J-0.5239 F1200.00
G1 X71.4765 Y80.9029 Z-9.3700 F1200.00
G2 X72.9463 Y80.2514 Z-9.3700 I-1.9474 J-6.3764 F1200.00
G1 X-9.1136 Y-1.8085 Z-9.3700 F1200.00
G3 X-8.5470 Y-3.3632 Z-9.3700 I9.1687 J2.4606 F1200.00
G1 X74.2459 Y79.4297 Z-9.3700 F1200.00
G2 X75.3920 Y78.4545 Z-9.3700 I-5.0003 J-7.0376 F1200.00
G1 X-7.7894 Y-4.7270 Z-9.3700 F1200.00
G3 X-6.8746 Y-5.9335 Z-9.3700 I6.1295 J3.6971 F1200.00
G1 X76.3755 Y77.3166 Z-9.3700 F1200.00
G2 X77.2086 Y76.0284 Z-9.3700 I-5.6396 J-4.5610 F1200.00
G1 X-5.8088 Y-6.9890 Z-9.3700 F1200.00
G3 X-4.5809 Y-7.8824 Z-9.3700 I4.3503 J4.6878 F1200.00
G1 X78.8015 Y75.5000 Z-9.3700 F1200.00
G1 X80.9228 Y75.5000 Z-9.3700 F1200.00
G1 X22.9823 Y17.5595 Z-9.3700 F1200.00
G1 X21.5000 Y16.5247 Z-9.3700 F1200.00
G1 X21.5000 Y16.0772 Z-9.3700 F1200.00
G1 X-3.1942 Y-8.6170 Z-9.3700 F1200.00
G3 X-1.6198 Y-9.1639 Z-9.3700 I3.6309 J7.9131 F1200.00
G1 X21.5000 Y13.9558 Z-9.3700 F1200.00
G1 X21.5000 Y11.8345 Z-9.3700 F1200.00
G1 X0.2004 Y-9.4651 Z-9.3700 F1200.00
G3 X2.2868 Y-9.5000 Z-9.3700 I1.4430 J23.8759 F1200.00
G1 X21.5000 Y9.7132 Z-9.3700 F1200.00
G1 X21.5000 Y7.5919 Z-9.3700 F1200.00
G1 X4.4081 Y-9.5000 Z-9.3700 F1200.00
G1 X6.5294 Y-9.5000 Z-9.3700 F1200.00
G1 X21.5000 Y5.4706 Z-9.3700 F1200.00
G1 X21.5000 Y3.3492 Z-9.3700 F1200.00
G1 X8.6508 Y-9.5000 Z-9.3700 F1200.00
G1 X10.7721 Y-9.5000 Z-9.3700 F1200.00
G1 X21.5000 Y1.2279 Z-9.3700 F1200.00
G2 X21.2751 Y-1.1183 Z-9.3700 I-10.0423 J-0.2212 F1200.00
G1 X13.1183 Y-9.2751 Z-9.3700 F1200.00
G3 X16.7224 Y-7.7923 Z-9.3700 I-1.9213 J9.7916 F1200.00
G1 X19.7923 Y-4.7224 Z-9.3700 F1200.00
G2 X16.7224 Y-7.7923 Z-9.3700 I-8.4944 J5.4245 F1200.00
G0 Z13.3700
(finish operation: MillFace001)
(begin operation: TagDressup001)
(Path: TagDressup001)
G0 Z13.3700
G0 X92.2942 Y66.4709 Z13.3700
G0 X92.2942 Y66.4709 Z11.3700
G1 X92.2942 Y66.4709 Z-9.8700 F300.00
G2 X93.5000 Y65.0000 Z-9.8700 I-0.2942 J-1.4709 F1200.00
G1 X93.5000 Y59.0000 Z-9.8700 F1200.00
G2 X92.0000 Y57.5000 Z-9.8700 I-1.5000 J0.0000 F1200.00
G1 X64.4718 Y57.5000 Z-9.8700 F1200.00
G1 X12.5000 Y21.2178 Z-9.8700 F1200.00
G1 X12.5000 Y1.0000 Z-9.8700 F1200.00
G2 X11.0000 Y-0.5000 Z-9.8700 I-1.5000 J0.0000 F1200.00
G1 X1.0000 Y-0.5000 Z-9.8700 F1200.00
G2 X-0.5000 Y1.0000 Z-9.8700 I0.0000 J1.5000 F1200.00
G1 X-0.5000 Y27.0189 Z-9.8700 F1200.00
G2 X0.1414 Y28.2488 Z-9.8700 I1.5000 J-0.0000 F1200.00
G1 X63.1414 Y72.2299 Z-9.8700 F1200.00
G2 X64.0000 Y72.5000 Z-9.8700 I0.8586 J-1.2299 F1200.00
G1 X68.0000 Y72.5000 Z-9.8700 F1200.00
G2 X69.5000 Y71.0000 Z-9.8700 I-0.0000 J-1.5000 F1200.00
G1 X69.5000 Y66.5000 Z-9.8700 F1200.00
G1 X92.0000 Y66.5000 Z-9.8700 F1200.00
G2 X92.2942 Y66.4709 Z-9.8700 I-0.0000 J-1.5000 F1200.00
G1 X92.2942 Y66.4709 Z-10.3700 F300.00
G2 X93.5000 Y65.0000 Z-10.3700 I-0.2942 J-1.4709 F1200.00
G1 X93.5000 Y59.0000 Z-10.3700 F1200.00
G2 X92.0000 Y57.5000 Z-10.3700 I-1.5000 J0.0000 F1200.00
G1 X64.4718 Y57.5000 Z-10.3700 F1200.00
G1 X12.5000 Y21.2178 Z-10.3700 F1200.00
G1 X12.5000 Y1.0000 Z-10.3700 F1200.00
G2 X11.0000 Y-0.5000 Z-10.3700 I-1.5000 J0.0000 F1200.00
G1 X1.0000 Y-0.5000 Z-10.3700 F1200.00
G2 X-0.5000 Y1.0000 Z-10.3700 I0.0000 J1.5000 F1200.00
G1 X-0.5000 Y27.0189 Z-10.3700 F1200.00
G2 X0.1414 Y28.2488 Z-10.3700 I1.5000 J-0.0000 F1200.00
G1 X63.1414 Y72.2299 Z-10.3700 F1200.00
G2 X64.0000 Y72.5000 Z-10.3700 I0.8586 J-1.2299 F1200.00
G1 X68.0000 Y72.5000 Z-10.3700 F1200.00
G2 X69.5000 Y71.0000 Z-10.3700 I-0.0000 J-1.5000 F1200.00
G1 X69.5000 Y66.5000 Z-10.3700 F1200.00
G1 X92.0000 Y66.5000 Z-10.3700 F1200.00
G2 X92.2942 Y66.4709 Z-10.3700 I-0.0000 J-1.5000 F1200.00
G1 X92.2942 Y66.4709 Z-10.8700 F300.00
G2 X93.5000 Y65.0000 Z-10.8700 I-0.2942 J-1.4709 F1200.00
G1 X93.5000 Y59.0000 Z-10.8700 F1200.00
G2 X92.0000 Y57.5000 Z-10.8700 I-1.5000 J0.0000 F1200.00
G1 X64.4718 Y57.5000 Z-10.8700 F1200.00
G1 X12.5000 Y21.2178 Z-10.8700 F1200.00
G1 X12.5000 Y1.0000 Z-10.8700 F1200.00
G2 X11.0000 Y-0.5000 Z-10.8700 I-1.5000 J0.0000 F1200.00
G1 X1.0000 Y-0.5000 Z-10.8700 F1200.00
G2 X-0.5000 Y1.0000 Z-10.8700 I0.0000 J1.5000 F1200.00
G1 X-0.5000 Y27.0189 Z-10.8700 F1200.00
G2 X0.1414 Y28.2488 Z-10.8700 I1.5000 J-0.0000 F1200.00
G1 X63.1414 Y72.2299 Z-10.8700 F1200.00
G2 X64.0000 Y72.5000 Z-10.8700 I0.8586 J-1.2299 F1200.00
G1 X68.0000 Y72.5000 Z-10.8700 F1200.00
G2 X69.5000 Y71.0000 Z-10.8700 I-0.0000 J-1.5000 F1200.00
G1 X69.5000 Y66.5000 Z-10.8700 F1200.00
G1 X92.0000 Y66.5000 Z-10.8700 F1200.00
G2 X92.2942 Y66.4709 Z-10.8700 I-0.0000 J-1.5000 F1200.00
G1 X92.2942 Y66.4709 Z-11.3700 F300.00
G2 X93.5000 Y65.0000 Z-11.3700 I-0.2942 J-1.4709 F1200.00
G1 X93.5000 Y59.0000 Z-11.3700 F1200.00
G2 X92.0000 Y57.5000 Z-11.3700 I-1.5000 J0.0000 F1200.00
G1 X64.4718 Y57.5000 Z-11.3700 F1200.00
G1 X12.5000 Y21.2178 Z-11.3700 F1200.00
G1 X12.5000 Y1.0000 Z-11.3700 F1200.00
G2 X11.0000 Y-0.5000 Z-11.3700 I-1.5000 J0.0000 F1200.00
G1 X1.0000 Y-0.5000 Z-11.3700 F1200.00
G2 X-0.5000 Y1.0000 Z-11.3700 I0.0000 J1.5000 F1200.00
G1 X-0.5000 Y27.0189 Z-11.3700 F1200.00
G2 X0.1414 Y28.2488 Z-11.3700 I1.5000 J-0.0000 F1200.00
G1 X63.1414 Y72.2299 Z-11.3700 F1200.00
G2 X64.0000 Y72.5000 Z-11.3700 I0.8586 J-1.2299 F1200.00
G1 X68.0000 Y72.5000 Z-11.3700 F1200.00
G2 X69.5000 Y71.0000 Z-11.3700 I-0.0000 J-1.5000 F1200.00
G1 X69.5000 Y66.5000 Z-11.3700 F1200.00
G1 X92.0000 Y66.5000 Z-11.3700 F1200.00
G2 X92.2942 Y66.4709 Z-11.3700 I-0.0000 J-1.5000 F1200.00
G1 X92.2942 Y66.4709 Z-11.8700 F300.00
G2 X93.5000 Y65.0000 Z-11.8700 I-0.2942 J-1.4709 F1200.00
G1 X93.5000 Y59.0000 Z-11.8700 F1200.00
G2 X92.0000 Y57.5000 Z-11.8700 I-1.5000 J0.0000 F1200.00
G1 X64.4718 Y57.5000 Z-11.8700 F1200.00
G1 X12.5000 Y21.2178 Z-11.8700 F1200.00
G1 X12.5000 Y1.0000 Z-11.8700 F1200.00
G2 X11.0000 Y-0.5000 Z-11.8700 I-1.5000 J0.0000 F1200.00
G1 X1.0000 Y-0.5000 Z-11.8700 F1200.00
G2 X-0.5000 Y1.0000 Z-11.8700 I0.0000 J1.5000 F1200.00
G1 X-0.5000 Y27.0189 Z-11.8700 F1200.00
G2 X0.1414 Y28.2488 Z-11.8700 I1.5000 J-0.0000 F1200.00
G1 X63.1414 Y72.2299 Z-11.8700 F1200.00
G2 X64.0000 Y72.5000 Z-11.8700 I0.8586 J-1.2299 F1200.00
G1 X68.0000 Y72.5000 Z-11.8700 F1200.00
G2 X69.5000 Y71.0000 Z-11.8700 I-0.0000 J-1.5000 F1200.00
G1 X69.5000 Y66.5000 Z-11.8700 F1200.00
G1 X92.0000 Y66.5000 Z-11.8700 F1200.00
G2 X92.2942 Y66.4709 Z-11.8700 I-0.0000 J-1.5000 F1200.00
G1 X92.2942 Y66.4709 Z-12.3700 F300.00
G2 X93.5000 Y65.0000 Z-12.3700 I-0.2942 J-1.4709 F1200.00
G1 X93.5000 Y59.0000 Z-12.3700 F1200.00
G2 X92.0000 Y57.5000 Z-12.3700 I-1.5000 J0.0000 F1200.00
G1 X64.4718 Y57.5000 Z-12.3700 F1200.00
G1 X12.5000 Y21.2178 Z-12.3700 F1200.00
G1 X12.5000 Y1.0000 Z-12.3700 F1200.00
G2 X11.0000 Y-0.5000 Z-12.3700 I-1.5000 J0.0000 F1200.00
G1 X1.0000 Y-0.5000 Z-12.3700 F1200.00
G2 X-0.5000 Y1.0000 Z-12.3700 I0.0000 J1.5000 F1200.00
G1 X-0.5000 Y27.0189 Z-12.3700 F1200.00
G2 X0.1414 Y28.2488 Z-12.3700 I1.5000 J-0.0000 F1200.00
G1 X63.1414 Y72.2299 Z-12.3700 F1200.00
G2 X64.0000 Y72.5000 Z-12.3700 I0.8586 J-1.2299 F1200.00
G1 X68.0000 Y72.5000 Z-12.3700 F1200.00
G2 X69.5000 Y71.0000 Z-12.3700 I-0.0000 J-1.5000 F1200.00
G1 X69.5000 Y66.5000 Z-12.3700 F1200.00
G1 X92.0000 Y66.5000 Z-12.3700 F1200.00
G2 X92.2942 Y66.4709 Z-12.3700 I-0.0000 J-1.5000 F1200.00
G1 X92.2942 Y66.4709 Z-12.8700 F300.00
G2 X93.5000 Y65.0000 Z-12.8700 I-0.2942 J-1.4709 F1200.00
G1 X93.5000 Y59.0000 Z-12.8700 F1200.00
G2 X92.0000 Y57.5000 Z-12.8700 I-1.5000 J0.0000 F1200.00
G1 X64.4718 Y57.5000 Z-12.8700 F1200.00
G1 X12.5000 Y21.2178 Z-12.8700 F1200.00
G1 X12.5000 Y1.0000 Z-12.8700 F1200.00
G2 X11.0000 Y-0.5000 Z-12.8700 I-1.5000 J0.0000 F1200.00
G1 X1.0000 Y-0.5000 Z-12.8700 F1200.00
G2 X-0.5000 Y1.0000 Z-12.8700 I0.0000 J1.5000 F1200.00
G1 X-0.5000 Y27.0189 Z-12.8700 F1200.00
G2 X0.1414 Y28.2488 Z-12.8700 I1.5000 J-0.0000 F1200.00
G1 X63.1414 Y72.2299 Z-12.8700 F1200.00
G2 X64.0000 Y72.5000 Z-12.8700 I0.8586 J-1.2299 F1200.00
G1 X68.0000 Y72.5000 Z-12.8700 F1200.00
G2 X69.5000 Y71.0000 Z-12.8700 I-0.0000 J-1.5000 F1200.00
G1 X69.5000 Y66.5000 Z-12.8700 F1200.00
G1 X92.0000 Y66.5000 Z-12.8700 F1200.00
G2 X92.2942 Y66.4709 Z-12.8700 I-0.0000 J-1.5000 F1200.00
G1 X92.2942 Y66.4709 Z-13.3700 F300.00
G2 X93.5000 Y65.0000 Z-13.3700 I-0.2942 J-1.4709 F1200.00
G1 X93.5000 Y59.0000 Z-13.3700 F1200.00
G2 X92.0000 Y57.5000 Z-13.3700 I-1.5000 J0.0000 F1200.00
G1 X64.4718 Y57.5000 Z-13.3700 F1200.00
G1 X12.5000 Y21.2178 Z-13.3700 F1200.00
G1 X12.5000 Y1.0000 Z-13.3700 F1200.00
G2 X11.0000 Y-0.5000 Z-13.3700 I-1.5000 J0.0000 F1200.00
G1 X1.0000 Y-0.5000 Z-13.3700 F1200.00
G2 X-0.5000 Y1.0000 Z-13.3700 I0.0000 J1.5000 F1200.00
G1 X-0.5000 Y27.0189 Z-13.3700 F1200.00
G2 X0.1414 Y28.2488 Z-13.3700 I1.5000 J-0.0000 F1200.00
G1 X63.1414 Y72.2299 Z-13.3700 F1200.00
G2 X64.0000 Y72.5000 Z-13.3700 I0.8586 J-1.2299 F1200.00
G1 X68.0000 Y72.5000 Z-13.3700 F1200.00
G2 X69.5000 Y71.0000 Z-13.3700 I-0.0000 J-1.5000 F1200.00
G1 X69.5000 Y66.5000 Z-13.3700 F1200.00
G1 X92.0000 Y66.5000 Z-13.3700 F1200.00
G2 X92.2942 Y66.4709 Z-13.3700 I-0.0000 J-1.5000 F1200.00
G1 X92.2942 Y66.4709 Z-13.8700 F300.00
G2 X93.5000 Y65.0000 Z-13.8700 I-0.2942 J-1.4709 F1200.00
G1 X93.5000 Y59.0000 Z-13.8700 F1200.00
G2 X92.0000 Y57.5000 Z-13.8700 I-1.5000 J0.0000 F1200.00
G1 X64.4718 Y57.5000 Z-13.8700 F1200.00
G1 X12.5000 Y21.2178 Z-13.8700 F1200.00
G1 X12.5000 Y1.0000 Z-13.8700 F1200.00
G2 X11.0000 Y-0.5000 Z-13.8700 I-1.5000 J0.0000 F1200.00
G1 X1.0000 Y-0.5000 Z-13.8700 F1200.00
G2 X-0.5000 Y1.0000 Z-13.8700 I0.0000 J1.5000 F1200.00
G1 X-0.5000 Y27.0189 Z-13.8700 F1200.00
G2 X0.1414 Y28.2488 Z-13.8700 I1.5000 J-0.0000 F1200.00
G1 X63.1414 Y72.2299 Z-13.8700 F1200.00
G2 X64.0000 Y72.5000 Z-13.8700 I0.8586 J-1.2299 F1200.00
G1 X68.0000 Y72.5000 Z-13.8700 F1200.00
G2 X69.5000 Y71.0000 Z-13.8700 I-0.0000 J-1.5000 F1200.00
G1 X69.5000 Y66.5000 Z-13.8700 F1200.00
G1 X92.0000 Y66.5000 Z-13.8700 F1200.00
G2 X92.2942 Y66.4709 Z-13.8700 I-0.0000 J-1.5000 F1200.00
G1 X92.2942 Y66.4709 Z-14.3700 F300.00
G2 X93.5000 Y65.0000 Z-14.3700 I-0.2942 J-1.4709 F1200.00
G1 X93.5000 Y59.0000 Z-14.3700 F1200.00
G2 X92.0000 Y57.5000 Z-14.3700 I-1.5000 J0.0000 F1200.00
G1 X64.4718 Y57.5000 Z-14.3700 F1200.00
G1 X12.5000 Y21.2178 Z-14.3700 F1200.00
G1 X12.5000 Y1.0000 Z-14.3700 F1200.00
G2 X11.0000 Y-0.5000 Z-14.3700 I-1.5000 J0.0000 F1200.00
G1 X1.0000 Y-0.5000 Z-14.3700 F1200.00
G2 X-0.5000 Y1.0000 Z-14.3700 I0.0000 J1.5000 F1200.00
G1 X-0.5000 Y27.0189 Z-14.3700 F1200.00
G2 X0.1414 Y28.2488 Z-14.3700 I1.5000 J-0.0000 F1200.00
G1 X63.1414 Y72.2299 Z-14.3700 F1200.00
G2 X64.0000 Y72.5000 Z-14.3700 I0.8586 J-1.2299 F1200.00
G1 X68.0000 Y72.5000 Z-14.3700 F1200.00
G2 X69.5000 Y71.0000 Z-14.3700 I-0.0000 J-1.5000 F1200.00
G1 X69.5000 Y66.5000 Z-14.3700 F1200.00
G1 X92.0000 Y66.5000 Z-14.3700 F1200.00
G2 X92.2942 Y66.4709 Z-14.3700 I-0.0000 J-1.5000 F1200.00
G1 X92.2942 Y66.4709 Z-14.8700 F300.00
G2 X93.5000 Y65.0000 Z-14.8700 I-0.2942 J-1.4709 F1200.00
G1 X93.5000 Y59.0000 Z-14.8700 F1200.00
G2 X92.0000 Y57.5000 Z-14.8700 I-1.5000 J0.0000 F1200.00
G1 X64.4718 Y57.5000 Z-14.8700 F1200.00
G1 X12.5000 Y21.2178 Z-14.8700 F1200.00
G1 X12.5000 Y1.0000 Z-14.8700 F1200.00
G2 X11.0000 Y-0.5000 Z-14.8700 I-1.5000 J0.0000 F1200.00
G1 X1.0000 Y-0.5000 Z-14.8700 F1200.00
G2 X-0.5000 Y1.0000 Z-14.8700 I0.0000 J1.5000 F1200.00
G1 X-0.5000 Y27.0189 Z-14.8700 F1200.00
G2 X0.1414 Y28.2488 Z-14.8700 I1.5000 J-0.0000 F1200.00
G1 X63.1414 Y72.2299 Z-14.8700 F1200.00
G2 X64.0000 Y72.5000 Z-14.8700 I0.8586 J-1.2299 F1200.00
G1 X68.0000 Y72.5000 Z-14.8700 F1200.00
G2 X69.5000 Y71.0000 Z-14.8700 I-0.0000 J-1.5000 F1200.00
G1 X69.5000 Y66.5000 Z-14.8700 F1200.00
G1 X92.0000 Y66.5000 Z-14.8700 F1200.00
G2 X92.2942 Y66.4709 Z-14.8700 I-0.0000 J-1.5000 F1200.00
G1 X92.2942 Y66.4709 Z-15.3700 F300.00
G2 X93.5000 Y65.0000 Z-15.3700 I-0.2942 J-1.4709 F1200.00
G1 X93.5000 Y59.0000 Z-15.3700 F1200.00
G2 X92.0000 Y57.5000 Z-15.3700 I-1.5000 J0.0000 F1200.00
G1 X64.4718 Y57.5000 Z-15.3700 F1200.00
G1 X12.5000 Y21.2178 Z-15.3700 F1200.00
G1 X12.5000 Y1.0000 Z-15.3700 F1200.00
G2 X11.0000 Y-0.5000 Z-15.3700 I-1.5000 J0.0000 F1200.00
G1 X1.0000 Y-0.5000 Z-15.3700 F1200.00
G2 X-0.5000 Y1.0000 Z-15.3700 I0.0000 J1.5000 F1200.00
G1 X-0.5000 Y27.0189 Z-15.3700 F1200.00
G2 X0.1414 Y28.2488 Z-15.3700 I1.5000 J-0.0000 F1200.00
G1 X63.1414 Y72.2299 Z-15.3700 F1200.00
G2 X64.0000 Y72.5000 Z-15.3700 I0.8586 J-1.2299 F1200.00
G1 X68.0000 Y72.5000 Z-15.3700 F1200.00
G2 X69.5000 Y71.0000 Z-15.3700 I-0.0000 J-1.5000 F1200.00
G1 X69.5000 Y66.5000 Z-15.3700 F1200.00
G1 X92.0000 Y66.5000 Z-15.3700 F1200.00
G2 X92.2942 Y66.4709 Z-15.3700 I-0.0000 J-1.5000 F1200.00
G1 X92.2942 Y66.4709 Z-15.8700 F300.00
G2 X93.5000 Y65.0000 Z-15.8700 I-0.2942 J-1.4709 F1200.00
G1 X93.5000 Y59.0000 Z-15.8700 F1200.00
G2 X92.0000 Y57.5000 Z-15.8700 I-1.5000 J0.0000 F1200.00
G1 X64.4718 Y57.5000 Z-15.8700 F1200.00
G1 X12.5000 Y21.2178 Z-15.8700 F1200.00
G1 X12.5000 Y1.0000 Z-15.8700 F1200.00
G2 X11.0000 Y-0.5000 Z-15.8700 I-1.5000 J0.0000 F1200.00
G1 X1.0000 Y-0.5000 Z-15.8700 F1200.00
G2 X-0.5000 Y1.0000 Z-15.8700 I0.0000 J1.5000 F1200.00
G1 X-0.5000 Y27.0189 Z-15.8700 F1200.00
G2 X0.1414 Y28.2488 Z-15.8700 I1.5000 J-0.0000 F1200.00
G1 X63.1414 Y72.2299 Z-15.8700 F1200.00
G2 X64.0000 Y72.5000 Z-15.8700 I0.8586 J-1.2299 F1200.00
G1 X68.0000 Y72.5000 Z-15.8700 F1200.00
G2 X69.5000 Y71.0000 Z-15.8700 I-0.0000 J-1.5000 F1200.00
G1 X69.5000 Y66.5000 Z-15.8700 F1200.00
G1 X92.0000 Y66.5000 Z-15.8700 F1200.00
G2 X92.2942 Y66.4709 Z-15.8700 I-0.0000 J-1.5000 F1200.00
G1 X92.2942 Y66.4709 Z-16.3700 F300.00
G2 X93.5000 Y65.0000 Z-16.3700 I-0.2942 J-1.4709 F1200.00
G1 X93.5000 Y59.0000 Z-16.3700 F1200.00
G2 X92.0000 Y57.5000 Z-16.3700 I-1.5000 J0.0000 F1200.00
G1 X64.4718 Y57.5000 Z-16.3700 F1200.00
G1 X12.5000 Y21.2178 Z-16.3700 F1200.00
G1 X12.5000 Y1.0000 Z-16.3700 F1200.00
G2 X11.0000 Y-0.5000 Z-16.3700 I-1.5000 J0.0000 F1200.00
G1 X1.0000 Y-0.5000 Z-16.3700 F1200.00
G2 X-0.5000 Y1.0000 Z-16.3700 I0.0000 J1.5000 F1200.00
G1 X-0.5000 Y27.0189 Z-16.3700 F1200.00
G2 X0.1414 Y28.2488 Z-16.3700 I1.5000 J-0.0000 F1200.00
G1 X63.1414 Y72.2299 Z-16.3700 F1200.00
G2 X64.0000 Y72.5000 Z-16.3700 I0.8586 J-1.2299 F1200.00
G1 X68.0000 Y72.5000 Z-16.3700 F1200.00
G2 X69.5000 Y71.0000 Z-16.3700 I-0.0000 J-1.5000 F1200.00
G1 X69.5000 Y66.5000 Z-16.3700 F1200.00
G1 X92.0000 Y66.5000 Z-16.3700 F1200.00
G2 X92.2942 Y66.4709 Z-16.3700 I-0.0000 J-1.5000 F1200.00
G1 X92.2942 Y66.4709 Z-16.8700 F300.00
G2 X93.5000 Y65.0000 Z-16.8700 I-0.2942 J-1.4709 F1200.00
G1 X93.5000 Y59.0000 Z-16.8700 F1200.00
G2 X92.0000 Y57.5000 Z-16.8700 I-1.5000 J0.0000 F1200.00
G1 X64.4718 Y57.5000 Z-16.8700 F1200.00
G1 X12.5000 Y21.2178 Z-16.8700 F1200.00
G1 X12.5000 Y1.0000 Z-16.8700 F1200.00
G2 X11.0000 Y-0.5000 Z-16.8700 I-1.5000 J0.0000 F1200.00
G1 X1.0000 Y-0.5000 Z-16.8700 F1200.00
G2 X-0.5000 Y1.0000 Z-16.8700 I0.0000 J1.5000 F1200.00
G1 X-0.5000 Y27.0189 Z-16.8700 F1200.00
G2 X0.1414 Y28.2488 Z-16.8700 I1.5000 J-0.0000 F1200.00
G1 X63.1414 Y72.2299 Z-16.8700 F1200.00
G2 X64.0000 Y72.5000 Z-16.8700 I0.8586 J-1.2299 F1200.00
G1 X68.0000 Y72.5000 Z-16.8700 F1200.00
G2 X69.5000 Y71.0000 Z-16.8700 I-0.0000 J-1.5000 F1200.00
G1 X69.5000 Y66.5000 Z-16.8700 F1200.00
G1 X92.0000 Y66.5000 Z-16.8700 F1200.00
G2 X92.2942 Y66.4709 Z-16.8700 I-0.0000 J-1.5000 F1200.00
G1 X92.2942 Y66.4709 Z-17.3700 F300.00
G2 X93.5000 Y65.0000 Z-17.3700 I-0.2942 J-1.4709 F1200.00
G1 X93.5000 Y59.0000 Z-17.3700 F1200.00
G2 X92.0000 Y57.5000 Z-17.3700 I-1.5000 J0.0000 F1200.00
G1 X64.4718 Y57.5000 Z-17.3700 F1200.00
G1 X12.5000 Y21.2178 Z-17.3700 F1200.00
G1 X12.5000 Y1.0000 Z-17.3700 F1200.00
G2 X11.0000 Y-0.5000 Z-17.3700 I-1.5000 J0.0000 F1200.00
G1 X1.0000 Y-0.5000 Z-17.3700 F1200.00
G2 X-0.5000 Y1.0000 Z-17.3700 I0.0000 J1.5000 F1200.00
G1 X-0.5000 Y27.0189 Z-17.3700 F1200.00
G2 X0.1414 Y28.2488 Z-17.3700 I1.5000 J-0.0000 F1200.00
G1 X63.1414 Y72.2299 Z-17.3700 F1200.00
G2 X64.0000 Y72.5000 Z-17.3700 I0.8586 J-1.2299 F1200.00
G1 X68.0000 Y72.5000 Z-17.3700 F1200.00
G2 X69.5000 Y71.0000 Z-17.3700 I-0.0000 J-1.5000 F1200.00
G1 X69.5000 Y66.5000 Z-17.3700 F1200.00
G1 X92.0000 Y66.5000 Z-17.3700 F1200.00
G2 X92.2942 Y66.4709 Z-17.3700 I-0.0000 J-1.5000 F1200.00
G1 X92.2942 Y66.4709 Z-17.8700 F300.00
G2 X93.5000 Y65.0000 Z-17.8700 I-0.2942 J-1.4709 F1200.00
G1 X93.5000 Y59.0000 Z-17.8700 F1200.00
G2 X92.0000 Y57.5000 Z-17.8700 I-1.5000 J0.0000 F1200.00
G1 X64.4718 Y57.5000 Z-17.8700 F1200.00
G1 X12.5000 Y21.2178 Z-17.8700 F1200.00
G1 X12.5000 Y1.0000 Z-17.8700 F1200.00
G2 X11.0000 Y-0.5000 Z-17.8700 I-1.5000 J0.0000 F1200.00
G1 X1.0000 Y-0.5000 Z-17.8700 F1200.00
G2 X-0.5000 Y1.0000 Z-17.8700 I0.0000 J1.5000 F1200.00
G1 X-0.5000 Y27.0189 Z-17.8700 F1200.00
G2 X0.1414 Y28.2488 Z-17.8700 I1.5000 J-0.0000 F1200.00
G1 X63.1414 Y72.2299 Z-17.8700 F1200.00
G2 X64.0000 Y72.5000 Z-17.8700 I0.8586 J-1.2299 F1200.00
G1 X68.0000 Y72.5000 Z-17.8700 F1200.00
G2 X69.5000 Y71.0000 Z-17.8700 I-0.0000 J-1.5000 F1200.00
G1 X69.5000 Y66.5000 Z-17.8700 F1200.00
G1 X92.0000 Y66.5000 Z-17.8700 F1200.00
G2 X92.2942 Y66.4709 Z-17.8700 I-0.0000 J-1.5000 F1200.00
G1 X92.2942 Y66.4709 Z-18.3700 F300.00
G2 X93.5000 Y65.0000 Z-18.3700 I-0.2942 J-1.4709 F1200.00
G1 X93.5000 Y59.0000 Z-18.3700 F1200.00
G2 X92.0000 Y57.5000 Z-18.3700 I-1.5000 J0.0000 F1200.00
G1 X64.4718 Y57.5000 Z-18.3700 F1200.00
G1 X12.5000 Y21.2178 Z-18.3700 F1200.00
G1 X12.5000 Y1.0000 Z-18.3700 F1200.00
G2 X11.0000 Y-0.5000 Z-18.3700 I-1.5000 J0.0000 F1200.00
G1 X1.0000 Y-0.5000 Z-18.3700 F1200.00
G2 X-0.5000 Y1.0000 Z-18.3700 I0.0000 J1.5000 F1200.00
G1 X-0.5000 Y27.0189 Z-18.3700 F1200.00
G2 X0.1414 Y28.2488 Z-18.3700 I1.5000 J-0.0000 F1200.00
G1 X63.1414 Y72.2299 Z-18.3700 F1200.00
G2 X64.0000 Y72.5000 Z-18.3700 I0.8586 J-1.2299 F1200.00
G1 X68.0000 Y72.5000 Z-18.3700 F1200.00
G2 X69.5000 Y71.0000 Z-18.3700 I-0.0000 J-1.5000 F1200.00
G1 X69.5000 Y66.5000 Z-18.3700 F1200.00
G1 X92.0000 Y66.5000 Z-18.3700 F1200.00
G2 X92.2942 Y66.4709 Z-18.3700 I-0.0000 J-1.5000 F1200.00
G1 X92.2942 Y66.4709 Z-18.8700 F300.00
G2 X93.5000 Y65.0000 Z-18.8700 I-0.2942 J-1.4709 F1200.00
G1 X93.5000 Y59.0000 Z-18.8700 F1200.00
G2 X92.0000 Y57.5000 Z-18.8700 I-1.5000 J0.0000 F1200.00
G1 X80.2259 Y57.5000 Z-18.8700 F1200.00
G1 X79.7259 Y57.5000 Z-18.3700 F750.00
G1 X76.7459 Y57.5000 Z-18.3700 F1200.00
G1 X76.2459 Y57.5000 Z-18.8700 F750.00
G1 X64.4718 Y57.5000 Z-18.8700 F1200.00
G1 X40.1176 Y40.4980 Z-18.8700 F1200.00
G1 X39.7076 Y40.2118 Z-18.3700 F750.00
G1 X37.2642 Y38.5060 Z-18.3700 F1200.00
G1 X36.8542 Y38.2198 Z-18.8700 F750.00
G1 X12.5000 Y21.2178 Z-18.8700 F1200.00
G1 X12.5000 Y13.0989 Z-18.8700 F1200.00
G1 X12.5000 Y12.5989 Z-18.3700 F750.00
G1 X12.5000 Y9.6189 Z-18.3700 F1200.00
G1 X12.5000 Y9.1189 Z-18.8700 F750.00
G1 X12.5000 Y1.0000 Z-18.8700 F1200.00
G2 X11.0000 Y-0.5000 Z-18.8700 I-1.5000 J0.0000 F1200.00
G1 X1.0000 Y-0.5000 Z-18.8700 F1200.00
G2 X-0.5000 Y1.0000 Z-18.8700 I0.0000 J1.5000 F1200.00
G1 X-0.5000 Y27.0189 Z-18.8700 F1200.00
G2 X0.1414 Y28.2488 Z-18.8700 I1.5000 J-0.0000 F1200.00
G1 X14.2596 Y38.1050 Z-18.8700 F1200.00
G1 X14.6696 Y38.3912 Z-18.3700 F750.00
G1 X17.1131 Y40.0970 Z-18.3700 F1200.00
G1 X17.5231 Y40.3832 Z-18.8700 F750.00
G1 X45.7596 Y60.0955 Z-18.8700 F1200.00
G1 X46.1696 Y60.3817 Z-18.3700 F750.00
G1 X48.6131 Y62.0876 Z-18.3700 F1200.00
G1 X49.0231 Y62.3738 Z-18.8700 F750.00
G1 X63.1414 Y72.2299 Z-18.8700 F1200.00
G2 X64.0000 Y72.5000 Z-18.8700 I0.8586 J-1.2299 F1200.00
G1 X68.0000 Y72.5000 Z-18.8700 F1200.00
G2 X69.5000 Y71.0000 Z-18.8700 I-0.0000 J-1.5000 F1200.00
G1 X69.5000 Y66.5000 Z-18.8700 F1200.00
G1 X92.0000 Y66.5000 Z-18.8700 F1200.00
G2 X92.2942 Y66.4709 Z-18.8700 I-0.0000 J-1.5000 F1200.00
G1 X92.2942 Y66.4709 Z-19.3700 F300.00
G2 X93.5000 Y65.0000 Z-19.3700 I-0.2942 J-1.4709 F1200.00
G1 X93.5000 Y59.0000 Z-19.3700 F1200.00
G2 X92.0000 Y57.5000 Z-19.3700 I-1.5000 J0.0000 F1200.00
G1 X80.7259 Y57.5000 Z-19.3700 F1200.00
G1 X79.7259 Y57.5000 Z-18.3700 F750.00
G1 X76.7459 Y57.5000 Z-18.3700 F1200.00
G1 X75.7459 Y57.5000 Z-19.3700 F750.00
G1 X64.4718 Y57.5000 Z-19.3700 F1200.00
G1 X40.5276 Y40.7842 Z-19.3700 F1200.00
G1 X39.7076 Y40.2118 Z-18.3700 F750.00
G1 X37.2642 Y38.5060 Z-18.3700 F1200.00
G1 X36.4442 Y37.9336 Z-19.3700 F750.00
G1 X12.5000 Y21.2178 Z-19.3700 F1200.00
G1 X12.5000 Y13.5989 Z-19.3700 F1200.00
G1 X12.5000 Y12.5989 Z-18.3700 F750.00
G1 X12.5000 Y9.6189 Z-18.3700 F1200.00
G1 X12.5000 Y8.6189 Z-19.3700 F750.00
G1 X12.5000 Y1.0000 Z-19.3700 F1200.00
G2 X11.0000 Y-0.5000 Z-19.3700 I-1.5000 J0.0000 F1200.00
G1 X1.0000 Y-0.5000 Z-19.3700 F1200.00
G2 X-0.5000 Y1.0000 Z-19.3700 I0.0000 J1.5000 F1200.00
G1 X-0.5000 Y27.0189 Z-19.3700 F1200.00
G2 X0.1414 Y28.2488 Z-19.3700 I1.5000 J-0.0000 F1200.00
G1 X13.8497 Y37.8188 Z-19.3700 F1200.00
G1 X14.6696 Y38.3912 Z-18.3700 F750.00
G1 X17.1131 Y40.0970 Z-18.3700 F1200.00
G1 X17.9331 Y40.6694 Z-19.3700 F750.00
G1 X45.3497 Y59.8093 Z-19.3700 F1200.00
G1 X46.1696 Y60.3817 Z-18.3700 F750.00
G1 X48.6131 Y62.0876 Z-18.3700 F1200.00
G1 X49.4331 Y62.6600 Z-19.3700 F750.00
G1 X63.1414 Y72.2299 Z-19.3700 F1200.00
G2 X64.0000 Y72.5000 Z-19.3700 I0.8586 J-1.2299 F1200.00
G1 X68.0000 Y72.5000 Z-19.3700 F1200.00
G2 X69.5000 Y71.0000 Z-19.3700 I-0.0000 J-1.5000 F1200.00
G1 X69.5000 Y66.5000 Z-19.3700 F1200.00
G1 X92.0000 Y66.5000 Z-19.3700 F1200.00
G2 X92.2942 Y66.4709 Z-19.3700 I-0.0000 J-1.5000 F1200.00
G0 X92.2942 Y66.4709 Z13.3700
(finish operation: TagDressup001)
(begin postamble)
M5
G17 G90
; M2
