(Exported by FreeCAD)
(Post Processor: grbl_post)
(Output Time:2019-09-17 10:39:30.796580)
(begin preamble)
G17 G90
G21
(begin operation: T2: end mill 3mm)
(Path: T2: end mill 3mm)
(T2: end mill 3mm)
(begin toolchange)
; M6 T2
M3 S10000.0000
(finish operation: T2: end mill 3mm)
(begin operation: roughing)
(Path: roughing)
(roughing)
G0 Z5.0000
G0 X70.1938 Y40.4127
G0 Z3.0000
G1 X70.1938 Y40.4127 Z-0.5000 F300.00
G1 X90.5000 Y26.2367 Z-0.5000 F1000.00
G1 X90.5000 Y2.5000 Z-0.5000 F1000.00
G1 X83.5000 Y2.5000 Z-0.5000 F1000.00
G1 X83.5000 Y22.0000 Z-0.5000 F1000.00
G3 X82.8586 Y23.2299 Z-0.5000 I-1.5000 J-0.0000 F1000.00
G1 X29.8586 Y60.2299 Z-0.5000 F1000.00
G3 X29.0000 Y60.5000 Z-0.5000 I-0.8586 J-1.2299 F1000.00
G1 X26.5000 Y60.5000 Z-0.5000 F1000.00
G1 X26.5000 Y65.0000 Z-0.5000 F1000.00
G3 X25.0000 Y66.5000 Z-0.5000 I-1.5000 J0.0000 F1000.00
G1 X2.5000 Y66.5000 Z-0.5000 F1000.00
G1 X2.5000 Y69.5000 Z-0.5000 F1000.00
G1 X28.5282 Y69.5000 Z-0.5000 F1000.00
G1 X70.1938 Y40.4127 Z-0.5000 F1000.00
G0 X70.1938 Y40.4127 Z5.0000
G0 X90.5000 Y25.1690 Z5.0000
G0 X90.5000 Y25.1690 Z2.5000
G1 X90.5000 Y25.1690 Z-0.5000 F300.00
G1 X90.5000 Y26.2367 Z-0.5000 F1000.00
G1 X86.9635 Y28.7056 Z-0.5000 F1000.00
G1 X90.5000 Y25.1690 Z-0.5000 F1000.00
G1 X90.5000 Y20.9264 Z-0.5000 F1000.00
G1 X72.9097 Y38.5167 Z-0.5000 F1000.00
G1 X58.8560 Y48.3278 Z-0.5000 F1000.00
G1 X90.5000 Y16.6838 Z-0.5000 F1000.00
G1 X90.5000 Y12.4411 Z-0.5000 F1000.00
G1 X83.5000 Y19.4411 Z-0.5000 F1000.00
G1 X83.5000 Y22.0000 Z-0.5000 F1000.00
G3 X82.8586 Y23.2299 Z-0.5000 I-1.5000 J0.0000 F1000.00
G1 X72.4327 Y30.5084 Z-0.5000 F1000.00
G1 X44.8022 Y58.1389 Z-0.5000 F1000.00
G1 X30.7485 Y67.9500 Z-0.5000 F1000.00
G1 X58.3790 Y40.3195 Z-0.5000 F1000.00
G1 X44.3252 Y50.1306 Z-0.5000 F1000.00
G1 X24.9558 Y69.5000 Z-0.5000 F1000.00
G1 X20.7132 Y69.5000 Z-0.5000 F1000.00
G1 X23.7132 Y66.5000 Z-0.5000 F1000.00
G1 X25.0000 Y66.5000 Z-0.5000 F1000.00
G2 X26.5000 Y65.0000 Z-0.5000 I-0.0000 J-1.5000 F1000.00
G1 X26.5000 Y63.7132 Z-0.5000 F1000.00
G1 X30.2715 Y59.9417 Z-0.5000 F1000.00
G1 X29.8586 Y60.2299 Z-0.5000 F1000.00
G3 X29.0000 Y60.5000 Z-0.5000 I-0.8586 J-1.2299 F1000.00
G1 X26.5000 Y60.5000 Z-0.5000 F1000.00
G1 X26.5000 Y63.7132 Z-0.5000 F1000.00
G0 X26.5000 Y63.7132 Z5.0000
G0 X20.7132 Y69.5000 Z5.0000
G0 X20.7132 Y69.5000 Z2.5000
G1 X20.7132 Y69.5000 Z-0.5000 F300.00
G1 X23.7132 Y66.5000 Z-0.5000 F1000.00
G1 X19.4706 Y66.5000 Z-0.5000 F1000.00
G1 X16.4706 Y69.5000 Z-0.5000 F1000.00
G1 X12.2279 Y69.5000 Z-0.5000 F1000.00
G1 X15.2279 Y66.5000 Z-0.5000 F1000.00
G1 X10.9853 Y66.5000 Z-0.5000 F1000.00
G1 X7.9853 Y69.5000 Z-0.5000 F1000.00
G1 X3.7426 Y69.5000 Z-0.5000 F1000.00
G1 X6.7426 Y66.5000 Z-0.5000 F1000.00
G1 X2.5000 Y66.5000 Z-0.5000 F1000.00
G0 X2.5000 Y66.5000 Z5.0000
G0 X83.5000 Y6.7132 Z5.0000
G0 X83.5000 Y6.7132 Z2.5000
G1 X83.5000 Y6.7132 Z-0.5000 F300.00
G1 X83.5000 Y2.5000 Z-0.5000 F1000.00
G1 X87.7132 Y2.5000 Z-0.5000 F1000.00
G1 X83.5000 Y6.7132 Z-0.5000 F1000.00
G1 X83.5000 Y10.9558 Z-0.5000 F1000.00
G1 X90.5000 Y3.9558 Z-0.5000 F1000.00
G1 X90.5000 Y8.1985 Z-0.5000 F1000.00
G1 X83.5000 Y15.1985 Z-0.5000 F1000.00
G1 X83.5000 Y19.4411 Z-0.5000 F1000.00
G1 X90.5000 Y12.4411 Z-0.5000 F1000.00
G1 X90.5000 Y12.4411 Z-1.0000 F300.00
G1 X90.5000 Y2.5000 Z-1.0000 F1000.00
G1 X83.5000 Y2.5000 Z-1.0000 F1000.00
G1 X83.5000 Y22.0000 Z-1.0000 F1000.00
G3 X82.8586 Y23.2299 Z-1.0000 I-1.5000 J-0.0000 F1000.00
G1 X29.8586 Y60.2299 Z-1.0000 F1000.00
G3 X29.0000 Y60.5000 Z-1.0000 I-0.8586 J-1.2299 F1000.00
G1 X26.5000 Y60.5000 Z-1.0000 F1000.00
G1 X26.5000 Y65.0000 Z-1.0000 F1000.00
G3 X25.0000 Y66.5000 Z-1.0000 I-1.5000 J0.0000 F1000.00
G1 X2.5000 Y66.5000 Z-1.0000 F1000.00
G1 X2.5000 Y69.5000 Z-1.0000 F1000.00
G1 X28.5282 Y69.5000 Z-1.0000 F1000.00
G1 X90.5000 Y26.2367 Z-1.0000 F1000.00
G1 X90.5000 Y12.4411 Z-1.0000 F1000.00
G1 X90.5000 Y12.4411 Z-1.0000 F300.00
G1 X83.5000 Y19.4411 Z-1.0000 F1000.00
G1 X83.5000 Y15.1985 Z-1.0000 F1000.00
G1 X90.5000 Y8.1985 Z-1.0000 F1000.00
G1 X90.5000 Y3.9558 Z-1.0000 F1000.00
G1 X83.5000 Y10.9558 Z-1.0000 F1000.00
G1 X83.5000 Y6.7132 Z-1.0000 F1000.00
G1 X87.7132 Y2.5000 Z-1.0000 F1000.00
G1 X83.5000 Y2.5000 Z-1.0000 F1000.00
G1 X83.5000 Y6.7132 Z-1.0000 F1000.00
G0 X83.5000 Y6.7132 Z5.0000
G0 X90.5000 Y25.1690 Z5.0000
G0 X90.5000 Y25.1690 Z2.0000
G1 X90.5000 Y25.1690 Z-1.0000 F300.00
G1 X90.5000 Y26.2367 Z-1.0000 F1000.00
G1 X86.9635 Y28.7056 Z-1.0000 F1000.00
G1 X90.5000 Y25.1690 Z-1.0000 F1000.00
G1 X90.5000 Y20.9264 Z-1.0000 F1000.00
G1 X72.9097 Y38.5167 Z-1.0000 F1000.00
G1 X58.8560 Y48.3278 Z-1.0000 F1000.00
G1 X90.5000 Y16.6838 Z-1.0000 F1000.00
G1 X90.5000 Y12.4411 Z-1.0000 F1000.00
G1 X83.5000 Y19.4411 Z-1.0000 F1000.00
G1 X83.5000 Y22.0000 Z-1.0000 F1000.00
G3 X82.8586 Y23.2299 Z-1.0000 I-1.5000 J0.0000 F1000.00
G1 X72.4327 Y30.5084 Z-1.0000 F1000.00
G1 X44.8022 Y58.1389 Z-1.0000 F1000.00
G1 X30.7485 Y67.9500 Z-1.0000 F1000.00
G1 X58.3790 Y40.3195 Z-1.0000 F1000.00
G1 X44.3252 Y50.1306 Z-1.0000 F1000.00
G1 X24.9558 Y69.5000 Z-1.0000 F1000.00
G1 X20.7132 Y69.5000 Z-1.0000 F1000.00
G1 X23.7132 Y66.5000 Z-1.0000 F1000.00
G1 X25.0000 Y66.5000 Z-1.0000 F1000.00
G2 X26.5000 Y65.0000 Z-1.0000 I-0.0000 J-1.5000 F1000.00
G1 X26.5000 Y63.7132 Z-1.0000 F1000.00
G1 X30.2715 Y59.9417 Z-1.0000 F1000.00
G1 X29.8586 Y60.2299 Z-1.0000 F1000.00
G3 X29.0000 Y60.5000 Z-1.0000 I-0.8586 J-1.2299 F1000.00
G1 X26.5000 Y60.5000 Z-1.0000 F1000.00
G1 X26.5000 Y63.7132 Z-1.0000 F1000.00
G0 X26.5000 Y63.7132 Z5.0000
G0 X20.7132 Y69.5000 Z5.0000
G0 X20.7132 Y69.5000 Z2.0000
G1 X20.7132 Y69.5000 Z-1.0000 F300.00
G1 X23.7132 Y66.5000 Z-1.0000 F1000.00
G1 X19.4706 Y66.5000 Z-1.0000 F1000.00
G1 X16.4706 Y69.5000 Z-1.0000 F1000.00
G1 X12.2279 Y69.5000 Z-1.0000 F1000.00
G1 X15.2279 Y66.5000 Z-1.0000 F1000.00
G1 X10.9853 Y66.5000 Z-1.0000 F1000.00
G1 X7.9853 Y69.5000 Z-1.0000 F1000.00
G1 X3.7426 Y69.5000 Z-1.0000 F1000.00
G1 X6.7426 Y66.5000 Z-1.0000 F1000.00
G1 X2.5000 Y66.5000 Z-1.0000 F1000.00
G1 X2.5000 Y66.5000 Z-1.5000 F300.00
G1 X6.7426 Y66.5000 Z-1.5000 F1000.00
G1 X3.7426 Y69.5000 Z-1.5000 F1000.00
G1 X7.9853 Y69.5000 Z-1.5000 F1000.00
G1 X10.9853 Y66.5000 Z-1.5000 F1000.00
G1 X15.2279 Y66.5000 Z-1.5000 F1000.00
G1 X12.2279 Y69.5000 Z-1.5000 F1000.00
G1 X16.4706 Y69.5000 Z-1.5000 F1000.00
G1 X19.4706 Y66.5000 Z-1.5000 F1000.00
G1 X23.7132 Y66.5000 Z-1.5000 F1000.00
G1 X20.7132 Y69.5000 Z-1.5000 F1000.00
G1 X20.7132 Y69.5000 Z-1.5000 F300.00
G1 X28.5282 Y69.5000 Z-1.5000 F1000.00
G1 X90.5000 Y26.2367 Z-1.5000 F1000.00
G1 X90.5000 Y2.5000 Z-1.5000 F1000.00
G1 X83.5000 Y2.5000 Z-1.5000 F1000.00
G1 X83.5000 Y22.0000 Z-1.5000 F1000.00
G3 X82.8586 Y23.2299 Z-1.5000 I-1.5000 J-0.0000 F1000.00
G1 X29.8586 Y60.2299 Z-1.5000 F1000.00
G3 X29.0000 Y60.5000 Z-1.5000 I-0.8586 J-1.2299 F1000.00
G1 X26.5000 Y60.5000 Z-1.5000 F1000.00
G1 X26.5000 Y65.0000 Z-1.5000 F1000.00
G3 X25.0000 Y66.5000 Z-1.5000 I-1.5000 J0.0000 F1000.00
G1 X2.5000 Y66.5000 Z-1.5000 F1000.00
G1 X2.5000 Y69.5000 Z-1.5000 F1000.00
G1 X20.7132 Y69.5000 Z-1.5000 F1000.00
G0 X20.7132 Y69.5000 Z5.0000
G0 X26.5000 Y63.7132 Z5.0000
G0 X26.5000 Y63.7132 Z1.5000
G1 X26.5000 Y63.7132 Z-1.5000 F300.00
G1 X26.5000 Y60.5000 Z-1.5000 F1000.00
G1 X29.0000 Y60.5000 Z-1.5000 F1000.00
G2 X29.8586 Y60.2299 Z-1.5000 I0.0000 J-1.5000 F1000.00
G1 X30.2715 Y59.9417 Z-1.5000 F1000.00
G1 X26.5000 Y63.7132 Z-1.5000 F1000.00
G1 X26.5000 Y65.0000 Z-1.5000 F1000.00
G3 X25.0000 Y66.5000 Z-1.5000 I-1.5000 J0.0000 F1000.00
G1 X23.7132 Y66.5000 Z-1.5000 F1000.00
G1 X20.7132 Y69.5000 Z-1.5000 F1000.00
G1 X24.9558 Y69.5000 Z-1.5000 F1000.00
G1 X44.3252 Y50.1306 Z-1.5000 F1000.00
G1 X58.3790 Y40.3195 Z-1.5000 F1000.00
G1 X30.7485 Y67.9500 Z-1.5000 F1000.00
G1 X44.8022 Y58.1389 Z-1.5000 F1000.00
G1 X72.4327 Y30.5084 Z-1.5000 F1000.00
G1 X82.8586 Y23.2299 Z-1.5000 F1000.00
G2 X83.5000 Y22.0000 Z-1.5000 I-0.8586 J-1.2299 F1000.00
G1 X83.5000 Y19.4411 Z-1.5000 F1000.00
G1 X90.5000 Y12.4411 Z-1.5000 F1000.00
G1 X90.5000 Y16.6838 Z-1.5000 F1000.00
G1 X58.8560 Y48.3278 Z-1.5000 F1000.00
G1 X72.9097 Y38.5167 Z-1.5000 F1000.00
G1 X90.5000 Y20.9264 Z-1.5000 F1000.00
G1 X90.5000 Y25.1690 Z-1.5000 F1000.00
G1 X86.9635 Y28.7056 Z-1.5000 F1000.00
G1 X90.5000 Y26.2367 Z-1.5000 F1000.00
G1 X90.5000 Y25.1690 Z-1.5000 F1000.00
G0 X90.5000 Y25.1690 Z5.0000
G0 X90.5000 Y12.4411 Z5.0000
G0 X90.5000 Y12.4411 Z1.5000
G1 X90.5000 Y12.4411 Z-1.5000 F300.00
G1 X83.5000 Y19.4411 Z-1.5000 F1000.00
G1 X83.5000 Y15.1985 Z-1.5000 F1000.00
G1 X90.5000 Y8.1985 Z-1.5000 F1000.00
G1 X90.5000 Y3.9558 Z-1.5000 F1000.00
G1 X83.5000 Y10.9558 Z-1.5000 F1000.00
G1 X83.5000 Y6.7132 Z-1.5000 F1000.00
G1 X87.7132 Y2.5000 Z-1.5000 F1000.00
G1 X83.5000 Y2.5000 Z-1.5000 F1000.00
G1 X83.5000 Y6.7132 Z-1.5000 F1000.00
G1 X83.5000 Y6.7132 Z-2.0000 F300.00
G1 X83.5000 Y2.5000 Z-2.0000 F1000.00
G1 X87.7132 Y2.5000 Z-2.0000 F1000.00
G1 X83.5000 Y6.7132 Z-2.0000 F1000.00
G1 X83.5000 Y10.9558 Z-2.0000 F1000.00
G1 X90.5000 Y3.9558 Z-2.0000 F1000.00
G1 X90.5000 Y8.1985 Z-2.0000 F1000.00
G1 X83.5000 Y15.1985 Z-2.0000 F1000.00
G1 X83.5000 Y19.4411 Z-2.0000 F1000.00
G1 X90.5000 Y12.4411 Z-2.0000 F1000.00
G1 X90.5000 Y12.4411 Z-2.0000 F300.00
G1 X90.5000 Y2.5000 Z-2.0000 F1000.00
G1 X83.5000 Y2.5000 Z-2.0000 F1000.00
G1 X83.5000 Y22.0000 Z-2.0000 F1000.00
G3 X82.8586 Y23.2299 Z-2.0000 I-1.5000 J-0.0000 F1000.00
G1 X29.8586 Y60.2299 Z-2.0000 F1000.00
G3 X29.0000 Y60.5000 Z-2.0000 I-0.8586 J-1.2299 F1000.00
G1 X26.5000 Y60.5000 Z-2.0000 F1000.00
G1 X26.5000 Y65.0000 Z-2.0000 F1000.00
G3 X25.0000 Y66.5000 Z-2.0000 I-1.5000 J0.0000 F1000.00
G1 X2.5000 Y66.5000 Z-2.0000 F1000.00
G1 X2.5000 Y69.5000 Z-2.0000 F1000.00
G1 X28.5282 Y69.5000 Z-2.0000 F1000.00
G1 X90.5000 Y26.2367 Z-2.0000 F1000.00
G1 X90.5000 Y12.4411 Z-2.0000 F1000.00
G0 X90.5000 Y12.4411 Z5.0000
G0 X90.5000 Y25.1690 Z5.0000
G0 X90.5000 Y25.1690 Z1.0000
G1 X90.5000 Y25.1690 Z-2.0000 F300.00
G1 X90.5000 Y26.2367 Z-2.0000 F1000.00
G1 X86.9635 Y28.7056 Z-2.0000 F1000.00
G1 X90.5000 Y25.1690 Z-2.0000 F1000.00
G1 X90.5000 Y20.9264 Z-2.0000 F1000.00
G1 X72.9097 Y38.5167 Z-2.0000 F1000.00
G1 X58.8560 Y48.3278 Z-2.0000 F1000.00
G1 X90.5000 Y16.6838 Z-2.0000 F1000.00
G1 X90.5000 Y12.4411 Z-2.0000 F1000.00
G1 X83.5000 Y19.4411 Z-2.0000 F1000.00
G1 X83.5000 Y22.0000 Z-2.0000 F1000.00
G3 X82.8586 Y23.2299 Z-2.0000 I-1.5000 J0.0000 F1000.00
G1 X72.4327 Y30.5084 Z-2.0000 F1000.00
G1 X44.8022 Y58.1389 Z-2.0000 F1000.00
G1 X30.7485 Y67.9500 Z-2.0000 F1000.00
G1 X58.3790 Y40.3195 Z-2.0000 F1000.00
G1 X44.3252 Y50.1306 Z-2.0000 F1000.00
G1 X24.9558 Y69.5000 Z-2.0000 F1000.00
G1 X20.7132 Y69.5000 Z-2.0000 F1000.00
G1 X23.7132 Y66.5000 Z-2.0000 F1000.00
G1 X25.0000 Y66.5000 Z-2.0000 F1000.00
G2 X26.5000 Y65.0000 Z-2.0000 I-0.0000 J-1.5000 F1000.00
G1 X26.5000 Y63.7132 Z-2.0000 F1000.00
G1 X30.2715 Y59.9417 Z-2.0000 F1000.00
G1 X29.8586 Y60.2299 Z-2.0000 F1000.00
G3 X29.0000 Y60.5000 Z-2.0000 I-0.8586 J-1.2299 F1000.00
G1 X26.5000 Y60.5000 Z-2.0000 F1000.00
G1 X26.5000 Y63.7132 Z-2.0000 F1000.00
G0 X26.5000 Y63.7132 Z5.0000
G0 X20.7132 Y69.5000 Z5.0000
G0 X20.7132 Y69.5000 Z1.0000
G1 X20.7132 Y69.5000 Z-2.0000 F300.00
G1 X23.7132 Y66.5000 Z-2.0000 F1000.00
G1 X19.4706 Y66.5000 Z-2.0000 F1000.00
G1 X16.4706 Y69.5000 Z-2.0000 F1000.00
G1 X12.2279 Y69.5000 Z-2.0000 F1000.00
G1 X15.2279 Y66.5000 Z-2.0000 F1000.00
G1 X10.9853 Y66.5000 Z-2.0000 F1000.00
G1 X7.9853 Y69.5000 Z-2.0000 F1000.00
G1 X3.7426 Y69.5000 Z-2.0000 F1000.00
G1 X6.7426 Y66.5000 Z-2.0000 F1000.00
G1 X2.5000 Y66.5000 Z-2.0000 F1000.00
G0 Z5.0000
(finish operation: roughing)
(begin operation: roughing001)
(Path: roughing001)
(roughing001)
G0 Z5.0000
G0 X70.1938 Y40.4127
G0 Z3.0000
G1 X70.1938 Y40.4127 Z-2.5000 F300.00
G1 X90.5000 Y26.2367 Z-2.5000 F1000.00
G1 X90.5000 Y2.5000 Z-2.5000 F1000.00
G1 X83.5000 Y2.5000 Z-2.5000 F1000.00
G1 X83.5000 Y22.0000 Z-2.5000 F1000.00
G3 X82.8586 Y23.2299 Z-2.5000 I-1.5000 J-0.0000 F1000.00
G1 X29.8586 Y60.2299 Z-2.5000 F1000.00
G3 X29.0000 Y60.5000 Z-2.5000 I-0.8586 J-1.2299 F1000.00
G1 X26.5000 Y60.5000 Z-2.5000 F1000.00
G1 X26.5000 Y65.0000 Z-2.5000 F1000.00
G3 X25.0000 Y66.5000 Z-2.5000 I-1.5000 J0.0000 F1000.00
G1 X2.5000 Y66.5000 Z-2.5000 F1000.00
G1 X2.5000 Y69.5000 Z-2.5000 F1000.00
G1 X28.5282 Y69.5000 Z-2.5000 F1000.00
G1 X70.1938 Y40.4127 Z-2.5000 F1000.00
G0 X70.1938 Y40.4127 Z5.0000
G0 X90.5000 Y25.1690 Z5.0000
G0 X90.5000 Y25.1690 Z0.5000
G1 X90.5000 Y25.1690 Z-2.5000 F300.00
G1 X90.5000 Y26.2367 Z-2.5000 F1000.00
G1 X86.9635 Y28.7056 Z-2.5000 F1000.00
G1 X90.5000 Y25.1690 Z-2.5000 F1000.00
G1 X90.5000 Y20.9264 Z-2.5000 F1000.00
G1 X72.9097 Y38.5167 Z-2.5000 F1000.00
G1 X58.8560 Y48.3278 Z-2.5000 F1000.00
G1 X90.5000 Y16.6838 Z-2.5000 F1000.00
G1 X90.5000 Y12.4411 Z-2.5000 F1000.00
G1 X83.5000 Y19.4411 Z-2.5000 F1000.00
G1 X83.5000 Y22.0000 Z-2.5000 F1000.00
G3 X82.8586 Y23.2299 Z-2.5000 I-1.5000 J0.0000 F1000.00
G1 X72.4327 Y30.5084 Z-2.5000 F1000.00
G1 X44.8022 Y58.1389 Z-2.5000 F1000.00
G1 X30.7485 Y67.9500 Z-2.5000 F1000.00
G1 X58.3790 Y40.3195 Z-2.5000 F1000.00
G1 X44.3252 Y50.1306 Z-2.5000 F1000.00
G1 X24.9558 Y69.5000 Z-2.5000 F1000.00
G1 X20.7132 Y69.5000 Z-2.5000 F1000.00
G1 X23.7132 Y66.5000 Z-2.5000 F1000.00
G1 X25.0000 Y66.5000 Z-2.5000 F1000.00
G2 X26.5000 Y65.0000 Z-2.5000 I-0.0000 J-1.5000 F1000.00
G1 X26.5000 Y63.7132 Z-2.5000 F1000.00
G1 X30.2715 Y59.9417 Z-2.5000 F1000.00
G1 X29.8586 Y60.2299 Z-2.5000 F1000.00
G3 X29.0000 Y60.5000 Z-2.5000 I-0.8586 J-1.2299 F1000.00
G1 X26.5000 Y60.5000 Z-2.5000 F1000.00
G1 X26.5000 Y63.7132 Z-2.5000 F1000.00
G0 X26.5000 Y63.7132 Z5.0000
G0 X20.7132 Y69.5000 Z5.0000
G0 X20.7132 Y69.5000 Z0.5000
G1 X20.7132 Y69.5000 Z-2.5000 F300.00
G1 X23.7132 Y66.5000 Z-2.5000 F1000.00
G1 X19.4706 Y66.5000 Z-2.5000 F1000.00
G1 X16.4706 Y69.5000 Z-2.5000 F1000.00
G1 X12.2279 Y69.5000 Z-2.5000 F1000.00
G1 X15.2279 Y66.5000 Z-2.5000 F1000.00
G1 X10.9853 Y66.5000 Z-2.5000 F1000.00
G1 X7.9853 Y69.5000 Z-2.5000 F1000.00
G1 X3.7426 Y69.5000 Z-2.5000 F1000.00
G1 X6.7426 Y66.5000 Z-2.5000 F1000.00
G1 X2.5000 Y66.5000 Z-2.5000 F1000.00
G0 X2.5000 Y66.5000 Z5.0000
G0 X83.5000 Y6.7132 Z5.0000
G0 X83.5000 Y6.7132 Z0.5000
G1 X83.5000 Y6.7132 Z-2.5000 F300.00
G1 X83.5000 Y2.5000 Z-2.5000 F1000.00
G1 X87.7132 Y2.5000 Z-2.5000 F1000.00
G1 X83.5000 Y6.7132 Z-2.5000 F1000.00
G1 X83.5000 Y10.9558 Z-2.5000 F1000.00
G1 X90.5000 Y3.9558 Z-2.5000 F1000.00
G1 X90.5000 Y8.1985 Z-2.5000 F1000.00
G1 X83.5000 Y15.1985 Z-2.5000 F1000.00
G1 X83.5000 Y19.4411 Z-2.5000 F1000.00
G1 X90.5000 Y12.4411 Z-2.5000 F1000.00
G1 X90.5000 Y12.4411 Z-3.0000 F300.00
G1 X90.5000 Y2.5000 Z-3.0000 F1000.00
G1 X83.5000 Y2.5000 Z-3.0000 F1000.00
G1 X83.5000 Y22.0000 Z-3.0000 F1000.00
G3 X82.8586 Y23.2299 Z-3.0000 I-1.5000 J-0.0000 F1000.00
G1 X29.8586 Y60.2299 Z-3.0000 F1000.00
G3 X29.0000 Y60.5000 Z-3.0000 I-0.8586 J-1.2299 F1000.00
G1 X26.5000 Y60.5000 Z-3.0000 F1000.00
G1 X26.5000 Y65.0000 Z-3.0000 F1000.00
G3 X25.0000 Y66.5000 Z-3.0000 I-1.5000 J0.0000 F1000.00
G1 X2.5000 Y66.5000 Z-3.0000 F1000.00
G1 X2.5000 Y69.5000 Z-3.0000 F1000.00
G1 X28.5282 Y69.5000 Z-3.0000 F1000.00
G1 X90.5000 Y26.2367 Z-3.0000 F1000.00
G1 X90.5000 Y12.4411 Z-3.0000 F1000.00
G1 X90.5000 Y12.4411 Z-3.0000 F300.00
G1 X83.5000 Y19.4411 Z-3.0000 F1000.00
G1 X83.5000 Y15.1985 Z-3.0000 F1000.00
G1 X90.5000 Y8.1985 Z-3.0000 F1000.00
G1 X90.5000 Y3.9558 Z-3.0000 F1000.00
G1 X83.5000 Y10.9558 Z-3.0000 F1000.00
G1 X83.5000 Y6.7132 Z-3.0000 F1000.00
G1 X87.7132 Y2.5000 Z-3.0000 F1000.00
G1 X83.5000 Y2.5000 Z-3.0000 F1000.00
G1 X83.5000 Y6.7132 Z-3.0000 F1000.00
G0 X83.5000 Y6.7132 Z5.0000
G0 X90.5000 Y25.1690 Z5.0000
G0 X90.5000 Y25.1690 Z0.0000
G1 X90.5000 Y25.1690 Z-3.0000 F300.00
G1 X90.5000 Y26.2367 Z-3.0000 F1000.00
G1 X86.9635 Y28.7056 Z-3.0000 F1000.00
G1 X90.5000 Y25.1690 Z-3.0000 F1000.00
G1 X90.5000 Y20.9264 Z-3.0000 F1000.00
G1 X72.9097 Y38.5167 Z-3.0000 F1000.00
G1 X58.8560 Y48.3278 Z-3.0000 F1000.00
G1 X90.5000 Y16.6838 Z-3.0000 F1000.00
G1 X90.5000 Y12.4411 Z-3.0000 F1000.00
G1 X83.5000 Y19.4411 Z-3.0000 F1000.00
G1 X83.5000 Y22.0000 Z-3.0000 F1000.00
G3 X82.8586 Y23.2299 Z-3.0000 I-1.5000 J0.0000 F1000.00
G1 X72.4327 Y30.5084 Z-3.0000 F1000.00
G1 X44.8022 Y58.1389 Z-3.0000 F1000.00
G1 X30.7485 Y67.9500 Z-3.0000 F1000.00
G1 X58.3790 Y40.3195 Z-3.0000 F1000.00
G1 X44.3252 Y50.1306 Z-3.0000 F1000.00
G1 X24.9558 Y69.5000 Z-3.0000 F1000.00
G1 X20.7132 Y69.5000 Z-3.0000 F1000.00
G1 X23.7132 Y66.5000 Z-3.0000 F1000.00
G1 X25.0000 Y66.5000 Z-3.0000 F1000.00
G2 X26.5000 Y65.0000 Z-3.0000 I-0.0000 J-1.5000 F1000.00
G1 X26.5000 Y63.7132 Z-3.0000 F1000.00
G1 X30.2715 Y59.9417 Z-3.0000 F1000.00
G1 X29.8586 Y60.2299 Z-3.0000 F1000.00
G3 X29.0000 Y60.5000 Z-3.0000 I-0.8586 J-1.2299 F1000.00
G1 X26.5000 Y60.5000 Z-3.0000 F1000.00
G1 X26.5000 Y63.7132 Z-3.0000 F1000.00
G0 X26.5000 Y63.7132 Z5.0000
G0 X20.7132 Y69.5000 Z5.0000
G0 X20.7132 Y69.5000 Z0.0000
G1 X20.7132 Y69.5000 Z-3.0000 F300.00
G1 X23.7132 Y66.5000 Z-3.0000 F1000.00
G1 X19.4706 Y66.5000 Z-3.0000 F1000.00
G1 X16.4706 Y69.5000 Z-3.0000 F1000.00
G1 X12.2279 Y69.5000 Z-3.0000 F1000.00
G1 X15.2279 Y66.5000 Z-3.0000 F1000.00
G1 X10.9853 Y66.5000 Z-3.0000 F1000.00
G1 X7.9853 Y69.5000 Z-3.0000 F1000.00
G1 X3.7426 Y69.5000 Z-3.0000 F1000.00
G1 X6.7426 Y66.5000 Z-3.0000 F1000.00
G1 X2.5000 Y66.5000 Z-3.0000 F1000.00
G1 X2.5000 Y66.5000 Z-3.5000 F300.00
G1 X6.7426 Y66.5000 Z-3.5000 F1000.00
G1 X3.7426 Y69.5000 Z-3.5000 F1000.00
G1 X7.9853 Y69.5000 Z-3.5000 F1000.00
G1 X10.9853 Y66.5000 Z-3.5000 F1000.00
G1 X15.2279 Y66.5000 Z-3.5000 F1000.00
G1 X12.2279 Y69.5000 Z-3.5000 F1000.00
G1 X16.4706 Y69.5000 Z-3.5000 F1000.00
G1 X19.4706 Y66.5000 Z-3.5000 F1000.00
G1 X23.7132 Y66.5000 Z-3.5000 F1000.00
G1 X20.7132 Y69.5000 Z-3.5000 F1000.00
G1 X20.7132 Y69.5000 Z-3.5000 F300.00
G1 X28.5282 Y69.5000 Z-3.5000 F1000.00
G1 X90.5000 Y26.2367 Z-3.5000 F1000.00
G1 X90.5000 Y2.5000 Z-3.5000 F1000.00
G1 X83.5000 Y2.5000 Z-3.5000 F1000.00
G1 X83.5000 Y22.0000 Z-3.5000 F1000.00
G3 X82.8586 Y23.2299 Z-3.5000 I-1.5000 J-0.0000 F1000.00
G1 X29.8586 Y60.2299 Z-3.5000 F1000.00
G3 X29.0000 Y60.5000 Z-3.5000 I-0.8586 J-1.2299 F1000.00
G1 X26.5000 Y60.5000 Z-3.5000 F1000.00
G1 X26.5000 Y65.0000 Z-3.5000 F1000.00
G3 X25.0000 Y66.5000 Z-3.5000 I-1.5000 J0.0000 F1000.00
G1 X2.5000 Y66.5000 Z-3.5000 F1000.00
G1 X2.5000 Y69.5000 Z-3.5000 F1000.00
G1 X20.7132 Y69.5000 Z-3.5000 F1000.00
G0 X20.7132 Y69.5000 Z5.0000
G0 X26.5000 Y63.7132 Z5.0000
G0 X26.5000 Y63.7132 Z-0.5000
G1 X26.5000 Y63.7132 Z-3.5000 F300.00
G1 X26.5000 Y60.5000 Z-3.5000 F1000.00
G1 X29.0000 Y60.5000 Z-3.5000 F1000.00
G2 X29.8586 Y60.2299 Z-3.5000 I0.0000 J-1.5000 F1000.00
G1 X30.2715 Y59.9417 Z-3.5000 F1000.00
G1 X26.5000 Y63.7132 Z-3.5000 F1000.00
G1 X26.5000 Y65.0000 Z-3.5000 F1000.00
G3 X25.0000 Y66.5000 Z-3.5000 I-1.5000 J0.0000 F1000.00
G1 X23.7132 Y66.5000 Z-3.5000 F1000.00
G1 X20.7132 Y69.5000 Z-3.5000 F1000.00
G1 X24.9558 Y69.5000 Z-3.5000 F1000.00
G1 X44.3252 Y50.1306 Z-3.5000 F1000.00
G1 X58.3790 Y40.3195 Z-3.5000 F1000.00
G1 X30.7485 Y67.9500 Z-3.5000 F1000.00
G1 X44.8022 Y58.1389 Z-3.5000 F1000.00
G1 X72.4327 Y30.5084 Z-3.5000 F1000.00
G1 X82.8586 Y23.2299 Z-3.5000 F1000.00
G2 X83.5000 Y22.0000 Z-3.5000 I-0.8586 J-1.2299 F1000.00
G1 X83.5000 Y19.4411 Z-3.5000 F1000.00
G1 X90.5000 Y12.4411 Z-3.5000 F1000.00
G1 X90.5000 Y16.6838 Z-3.5000 F1000.00
G1 X58.8560 Y48.3278 Z-3.5000 F1000.00
G1 X72.9097 Y38.5167 Z-3.5000 F1000.00
G1 X90.5000 Y20.9264 Z-3.5000 F1000.00
G1 X90.5000 Y25.1690 Z-3.5000 F1000.00
G1 X86.9635 Y28.7056 Z-3.5000 F1000.00
G1 X90.5000 Y26.2367 Z-3.5000 F1000.00
G1 X90.5000 Y25.1690 Z-3.5000 F1000.00
G0 X90.5000 Y25.1690 Z5.0000
G0 X90.5000 Y12.4411 Z5.0000
G0 X90.5000 Y12.4411 Z-0.5000
G1 X90.5000 Y12.4411 Z-3.5000 F300.00
G1 X83.5000 Y19.4411 Z-3.5000 F1000.00
G1 X83.5000 Y15.1985 Z-3.5000 F1000.00
G1 X90.5000 Y8.1985 Z-3.5000 F1000.00
G1 X90.5000 Y3.9558 Z-3.5000 F1000.00
G1 X83.5000 Y10.9558 Z-3.5000 F1000.00
G1 X83.5000 Y6.7132 Z-3.5000 F1000.00
G1 X87.7132 Y2.5000 Z-3.5000 F1000.00
G1 X83.5000 Y2.5000 Z-3.5000 F1000.00
G1 X83.5000 Y6.7132 Z-3.5000 F1000.00
G1 X83.5000 Y6.7132 Z-4.0000 F300.00
G1 X83.5000 Y2.5000 Z-4.0000 F1000.00
G1 X87.7132 Y2.5000 Z-4.0000 F1000.00
G1 X83.5000 Y6.7132 Z-4.0000 F1000.00
G1 X83.5000 Y10.9558 Z-4.0000 F1000.00
G1 X90.5000 Y3.9558 Z-4.0000 F1000.00
G1 X90.5000 Y8.1985 Z-4.0000 F1000.00
G1 X83.5000 Y15.1985 Z-4.0000 F1000.00
G1 X83.5000 Y19.4411 Z-4.0000 F1000.00
G1 X90.5000 Y12.4411 Z-4.0000 F1000.00
G1 X90.5000 Y12.4411 Z-4.0000 F300.00
G1 X90.5000 Y2.5000 Z-4.0000 F1000.00
G1 X83.5000 Y2.5000 Z-4.0000 F1000.00
G1 X83.5000 Y22.0000 Z-4.0000 F1000.00
G3 X82.8586 Y23.2299 Z-4.0000 I-1.5000 J-0.0000 F1000.00
G1 X29.8586 Y60.2299 Z-4.0000 F1000.00
G3 X29.0000 Y60.5000 Z-4.0000 I-0.8586 J-1.2299 F1000.00
G1 X26.5000 Y60.5000 Z-4.0000 F1000.00
G1 X26.5000 Y65.0000 Z-4.0000 F1000.00
G3 X25.0000 Y66.5000 Z-4.0000 I-1.5000 J0.0000 F1000.00
G1 X2.5000 Y66.5000 Z-4.0000 F1000.00
G1 X2.5000 Y69.5000 Z-4.0000 F1000.00
G1 X28.5282 Y69.5000 Z-4.0000 F1000.00
G1 X90.5000 Y26.2367 Z-4.0000 F1000.00
G1 X90.5000 Y12.4411 Z-4.0000 F1000.00
G0 X90.5000 Y12.4411 Z5.0000
G0 X90.5000 Y25.1690 Z5.0000
G0 X90.5000 Y25.1690 Z-1.0000
G1 X90.5000 Y25.1690 Z-4.0000 F300.00
G1 X90.5000 Y26.2367 Z-4.0000 F1000.00
G1 X86.9635 Y28.7056 Z-4.0000 F1000.00
G1 X90.5000 Y25.1690 Z-4.0000 F1000.00
G1 X90.5000 Y20.9264 Z-4.0000 F1000.00
G1 X72.9097 Y38.5167 Z-4.0000 F1000.00
G1 X58.8560 Y48.3278 Z-4.0000 F1000.00
G1 X90.5000 Y16.6838 Z-4.0000 F1000.00
G1 X90.5000 Y12.4411 Z-4.0000 F1000.00
G1 X83.5000 Y19.4411 Z-4.0000 F1000.00
G1 X83.5000 Y22.0000 Z-4.0000 F1000.00
G3 X82.8586 Y23.2299 Z-4.0000 I-1.5000 J0.0000 F1000.00
G1 X72.4327 Y30.5084 Z-4.0000 F1000.00
G1 X44.8022 Y58.1389 Z-4.0000 F1000.00
G1 X30.7485 Y67.9500 Z-4.0000 F1000.00
G1 X58.3790 Y40.3195 Z-4.0000 F1000.00
G1 X44.3252 Y50.1306 Z-4.0000 F1000.00
G1 X24.9558 Y69.5000 Z-4.0000 F1000.00
G1 X20.7132 Y69.5000 Z-4.0000 F1000.00
G1 X23.7132 Y66.5000 Z-4.0000 F1000.00
G1 X25.0000 Y66.5000 Z-4.0000 F1000.00
G2 X26.5000 Y65.0000 Z-4.0000 I-0.0000 J-1.5000 F1000.00
G1 X26.5000 Y63.7132 Z-4.0000 F1000.00
G1 X30.2715 Y59.9417 Z-4.0000 F1000.00
G1 X29.8586 Y60.2299 Z-4.0000 F1000.00
G3 X29.0000 Y60.5000 Z-4.0000 I-0.8586 J-1.2299 F1000.00
G1 X26.5000 Y60.5000 Z-4.0000 F1000.00
G1 X26.5000 Y63.7132 Z-4.0000 F1000.00
G0 X26.5000 Y63.7132 Z5.0000
G0 X20.7132 Y69.5000 Z5.0000
G0 X20.7132 Y69.5000 Z-1.0000
G1 X20.7132 Y69.5000 Z-4.0000 F300.00
G1 X23.7132 Y66.5000 Z-4.0000 F1000.00
G1 X19.4706 Y66.5000 Z-4.0000 F1000.00
G1 X16.4706 Y69.5000 Z-4.0000 F1000.00
G1 X12.2279 Y69.5000 Z-4.0000 F1000.00
G1 X15.2279 Y66.5000 Z-4.0000 F1000.00
G1 X10.9853 Y66.5000 Z-4.0000 F1000.00
G1 X7.9853 Y69.5000 Z-4.0000 F1000.00
G1 X3.7426 Y69.5000 Z-4.0000 F1000.00
G1 X6.7426 Y66.5000 Z-4.0000 F1000.00
G1 X2.5000 Y66.5000 Z-4.0000 F1000.00
G0 Z5.0000
(finish operation: roughing001)
(begin operation: roughing002)
(Path: roughing002)
(roughing002)
G0 Z5.0000
G0 X70.1938 Y40.4127
G0 Z3.0000
G1 X70.1938 Y40.4127 Z-4.5000 F300.00
G1 X90.5000 Y26.2367 Z-4.5000 F1000.00
G1 X90.5000 Y2.5000 Z-4.5000 F1000.00
G1 X83.5000 Y2.5000 Z-4.5000 F1000.00
G1 X83.5000 Y22.0000 Z-4.5000 F1000.00
G3 X82.8586 Y23.2299 Z-4.5000 I-1.5000 J-0.0000 F1000.00
G1 X29.8586 Y60.2299 Z-4.5000 F1000.00
G3 X29.0000 Y60.5000 Z-4.5000 I-0.8586 J-1.2299 F1000.00
G1 X26.5000 Y60.5000 Z-4.5000 F1000.00
G1 X26.5000 Y65.0000 Z-4.5000 F1000.00
G3 X25.0000 Y66.5000 Z-4.5000 I-1.5000 J0.0000 F1000.00
G1 X2.5000 Y66.5000 Z-4.5000 F1000.00
G1 X2.5000 Y69.5000 Z-4.5000 F1000.00
G1 X28.5282 Y69.5000 Z-4.5000 F1000.00
G1 X70.1938 Y40.4127 Z-4.5000 F1000.00
G0 X70.1938 Y40.4127 Z5.0000
G0 X83.5000 Y20.5088 Z5.0000
G0 X83.5000 Y20.5088 Z-1.5000
G1 X83.5000 Y20.5088 Z-4.5000 F300.00
G1 X90.5000 Y13.5088 Z-4.5000 F1000.00
G1 X90.5000 Y9.2661 Z-4.5000 F1000.00
G1 X83.5000 Y16.2661 Z-4.5000 F1000.00
G1 X83.5000 Y12.0235 Z-4.5000 F1000.00
G1 X90.5000 Y5.0235 Z-4.5000 F1000.00
G1 X90.5000 Y2.5000 Z-4.5000 F1000.00
G1 X88.7808 Y2.5000 Z-4.5000 F1000.00
G1 X83.5000 Y7.7808 Z-4.5000 F1000.00
G1 X83.5000 Y3.5382 Z-4.5000 F1000.00
G1 X83.5000 Y2.5000 Z-4.5000 F1000.00
G1 X84.5382 Y2.5000 Z-4.5000 F1000.00
G1 X83.5000 Y3.5382 Z-4.5000 F1000.00
G0 X83.5000 Y3.5382 Z5.0000
G0 X90.5000 Y26.2367 Z5.0000
G0 X90.5000 Y26.2367 Z-1.5000
G1 X90.5000 Y26.2367 Z-4.5000 F300.00
G1 X76.4463 Y36.0478 Z-4.5000 F1000.00
G1 X90.5000 Y21.9940 Z-4.5000 F1000.00
G1 X90.5000 Y17.7514 Z-4.5000 F1000.00
G1 X62.3925 Y45.8589 Z-4.5000 F1000.00
G1 X48.3388 Y55.6700 Z-4.5000 F1000.00
G1 X75.9692 Y28.0395 Z-4.5000 F1000.00
G1 X61.9155 Y37.8506 Z-4.5000 F1000.00
G1 X34.2850 Y65.4811 Z-4.5000 F1000.00
G1 X28.5282 Y69.5000 Z-4.5000 F1000.00
G1 X26.0235 Y69.5000 Z-4.5000 F1000.00
G1 X47.8617 Y47.6617 Z-4.5000 F1000.00
G1 X33.8080 Y57.4728 Z-4.5000 F1000.00
G1 X26.5000 Y64.7808 Z-4.5000 F1000.00
G1 X26.5000 Y60.5382 Z-4.5000 F1000.00
G1 X26.5382 Y60.5000 Z-4.5000 F1000.00
G2 X26.5000 Y60.5382 Z-4.5000 I-0.0191 J0.0191 F1000.00
G0 X26.5000 Y60.5382 Z5.0000
G0 X24.7808 Y66.5000 Z5.0000
G0 X24.7808 Y66.5000 Z-1.5000
G1 X24.7808 Y66.5000 Z-4.5000 F300.00
G1 X21.7808 Y69.5000 Z-4.5000 F1000.00
G1 X17.5382 Y69.5000 Z-4.5000 F1000.00
G1 X20.5382 Y66.5000 Z-4.5000 F1000.00
G1 X16.2956 Y66.5000 Z-4.5000 F1000.00
G1 X13.2956 Y69.5000 Z-4.5000 F1000.00
G1 X9.0529 Y69.5000 Z-4.5000 F1000.00
G1 X12.0529 Y66.5000 Z-4.5000 F1000.00
G1 X7.8103 Y66.5000 Z-4.5000 F1000.00
G1 X4.8103 Y69.5000 Z-4.5000 F1000.00
G1 X2.5000 Y69.5000 Z-4.5000 F1000.00
G1 X2.5000 Y67.5676 Z-4.5000 F1000.00
G1 X3.5676 Y66.5000 Z-4.5000 F1000.00
G1 X2.5000 Y66.5000 Z-4.5000 F1000.00
G1 X2.5000 Y67.5676 Z-4.5000 F1000.00
G1 X2.5000 Y67.5676 Z-5.0000 F300.00
G1 X2.5000 Y66.5000 Z-5.0000 F1000.00
G1 X3.5676 Y66.5000 Z-5.0000 F1000.00
G1 X2.5000 Y67.5676 Z-5.0000 F1000.00
G1 X2.5000 Y69.5000 Z-5.0000 F1000.00
G1 X4.8103 Y69.5000 Z-5.0000 F1000.00
G1 X7.8103 Y66.5000 Z-5.0000 F1000.00
G1 X12.0529 Y66.5000 Z-5.0000 F1000.00
G1 X9.0529 Y69.5000 Z-5.0000 F1000.00
G1 X13.2956 Y69.5000 Z-5.0000 F1000.00
G1 X16.2956 Y66.5000 Z-5.0000 F1000.00
G1 X20.5382 Y66.5000 Z-5.0000 F1000.00
G1 X17.5382 Y69.5000 Z-5.0000 F1000.00
G1 X21.7808 Y69.5000 Z-5.0000 F1000.00
G1 X24.7808 Y66.5000 Z-5.0000 F1000.00
G1 X24.7808 Y66.5000 Z-5.0000 F300.00
G1 X2.5000 Y66.5000 Z-5.0000 F1000.00
G1 X2.5000 Y69.5000 Z-5.0000 F1000.00
G1 X28.5282 Y69.5000 Z-5.0000 F1000.00
G1 X90.5000 Y26.2367 Z-5.0000 F1000.00
G1 X90.5000 Y2.5000 Z-5.0000 F1000.00
G1 X83.5000 Y2.5000 Z-5.0000 F1000.00
G1 X83.5000 Y22.0000 Z-5.0000 F1000.00
G3 X82.8586 Y23.2299 Z-5.0000 I-1.5000 J-0.0000 F1000.00
G1 X29.8586 Y60.2299 Z-5.0000 F1000.00
G3 X29.0000 Y60.5000 Z-5.0000 I-0.8586 J-1.2299 F1000.00
G1 X26.5000 Y60.5000 Z-5.0000 F1000.00
G1 X26.5000 Y65.0000 Z-5.0000 F1000.00
G3 X25.0000 Y66.5000 Z-5.0000 I-1.5000 J0.0000 F1000.00
G1 X24.7808 Y66.5000 Z-5.0000 F1000.00
G0 X24.7808 Y66.5000 Z5.0000
G0 X26.5000 Y60.5382 Z5.0000
G0 X26.5000 Y60.5382 Z-2.0000
G1 X26.5000 Y60.5382 Z-5.0000 F300.00
G3 X26.5382 Y60.5000 Z-5.0000 I0.0191 J-0.0191 F1000.00
G1 X26.5000 Y60.5382 Z-5.0000 F1000.00
G1 X26.5000 Y64.7808 Z-5.0000 F1000.00
G1 X33.8080 Y57.4728 Z-5.0000 F1000.00
G1 X47.8617 Y47.6617 Z-5.0000 F1000.00
G1 X26.0235 Y69.5000 Z-5.0000 F1000.00
G1 X28.5282 Y69.5000 Z-5.0000 F1000.00
G1 X34.2850 Y65.4811 Z-5.0000 F1000.00
G1 X61.9155 Y37.8506 Z-5.0000 F1000.00
G1 X75.9692 Y28.0395 Z-5.0000 F1000.00
G1 X48.3388 Y55.6700 Z-5.0000 F1000.00
G1 X62.3925 Y45.8589 Z-5.0000 F1000.00
G1 X90.5000 Y17.7514 Z-5.0000 F1000.00
G1 X90.5000 Y21.9940 Z-5.0000 F1000.00
G1 X76.4463 Y36.0478 Z-5.0000 F1000.00
G1 X90.5000 Y26.2367 Z-5.0000 F1000.00
G0 X90.5000 Y26.2367 Z5.0000
G0 X83.5000 Y20.5088 Z5.0000
G0 X83.5000 Y20.5088 Z-2.0000
G1 X83.5000 Y20.5088 Z-5.0000 F300.00
G1 X90.5000 Y13.5088 Z-5.0000 F1000.00
G1 X90.5000 Y9.2661 Z-5.0000 F1000.00
G1 X83.5000 Y16.2661 Z-5.0000 F1000.00
G1 X83.5000 Y12.0235 Z-5.0000 F1000.00
G1 X90.5000 Y5.0235 Z-5.0000 F1000.00
G1 X90.5000 Y2.5000 Z-5.0000 F1000.00
G1 X88.7808 Y2.5000 Z-5.0000 F1000.00
G1 X83.5000 Y7.7808 Z-5.0000 F1000.00
G1 X83.5000 Y3.5382 Z-5.0000 F1000.00
G1 X83.5000 Y2.5000 Z-5.0000 F1000.00
G1 X84.5382 Y2.5000 Z-5.0000 F1000.00
G1 X83.5000 Y3.5382 Z-5.0000 F1000.00
G1 X83.5000 Y3.5382 Z-5.5000 F300.00
G1 X84.5382 Y2.5000 Z-5.5000 F1000.00
G1 X83.5000 Y2.5000 Z-5.5000 F1000.00
G1 X83.5000 Y3.5382 Z-5.5000 F1000.00
G1 X83.5000 Y7.7808 Z-5.5000 F1000.00
G1 X88.7808 Y2.5000 Z-5.5000 F1000.00
G1 X90.5000 Y2.5000 Z-5.5000 F1000.00
G1 X90.5000 Y5.0235 Z-5.5000 F1000.00
G1 X83.5000 Y12.0235 Z-5.5000 F1000.00
G1 X83.5000 Y16.2661 Z-5.5000 F1000.00
G1 X90.5000 Y9.2661 Z-5.5000 F1000.00
G1 X90.5000 Y13.5088 Z-5.5000 F1000.00
G1 X83.5000 Y20.5088 Z-5.5000 F1000.00
G0 X83.5000 Y20.5088 Z5.0000
G0 X83.5000 Y20.5088 Z5.0000
G0 X83.5000 Y20.5088 Z-2.5000
G1 X83.5000 Y20.5088 Z-5.5000 F300.00
G1 X83.5000 Y22.0000 Z-5.5000 F1000.00
G3 X82.8586 Y23.2299 Z-5.5000 I-1.5000 J-0.0000 F1000.00
G1 X29.8586 Y60.2299 Z-5.5000 F1000.00
G3 X29.0000 Y60.5000 Z-5.5000 I-0.8586 J-1.2299 F1000.00
G1 X26.5000 Y60.5000 Z-5.5000 F1000.00
G1 X26.5000 Y65.0000 Z-5.5000 F1000.00
G3 X25.0000 Y66.5000 Z-5.5000 I-1.5000 J0.0000 F1000.00
G1 X2.5000 Y66.5000 Z-5.5000 F1000.00
G1 X2.5000 Y69.5000 Z-5.5000 F1000.00
G1 X28.5282 Y69.5000 Z-5.5000 F1000.00
G1 X90.5000 Y26.2367 Z-5.5000 F1000.00
G1 X90.5000 Y2.5000 Z-5.5000 F1000.00
G1 X83.5000 Y2.5000 Z-5.5000 F1000.00
G1 X83.5000 Y20.5088 Z-5.5000 F1000.00
G0 X83.5000 Y20.5088 Z5.0000
G0 X90.5000 Y26.2367 Z5.0000
G0 X90.5000 Y26.2367 Z-2.5000
G1 X90.5000 Y26.2367 Z-5.5000 F300.00
G1 X76.4463 Y36.0478 Z-5.5000 F1000.00
G1 X90.5000 Y21.9940 Z-5.5000 F1000.00
G1 X90.5000 Y17.7514 Z-5.5000 F1000.00
G1 X62.3925 Y45.8589 Z-5.5000 F1000.00
G1 X48.3388 Y55.6700 Z-5.5000 F1000.00
G1 X75.9692 Y28.0395 Z-5.5000 F1000.00
G1 X61.9155 Y37.8506 Z-5.5000 F1000.00
G1 X34.2850 Y65.4811 Z-5.5000 F1000.00
G1 X28.5282 Y69.5000 Z-5.5000 F1000.00
G1 X26.0235 Y69.5000 Z-5.5000 F1000.00
G1 X47.8617 Y47.6617 Z-5.5000 F1000.00
G1 X33.8080 Y57.4728 Z-5.5000 F1000.00
G1 X26.5000 Y64.7808 Z-5.5000 F1000.00
G1 X26.5000 Y60.5382 Z-5.5000 F1000.00
G1 X26.5382 Y60.5000 Z-5.5000 F1000.00
G2 X26.5000 Y60.5382 Z-5.5000 I-0.0191 J0.0191 F1000.00
G0 X26.5000 Y60.5382 Z5.0000
G0 X24.7808 Y66.5000 Z5.0000
G0 X24.7808 Y66.5000 Z-2.5000
G1 X24.7808 Y66.5000 Z-5.5000 F300.00
G1 X21.7808 Y69.5000 Z-5.5000 F1000.00
G1 X17.5382 Y69.5000 Z-5.5000 F1000.00
G1 X20.5382 Y66.5000 Z-5.5000 F1000.00
G1 X16.2956 Y66.5000 Z-5.5000 F1000.00
G1 X13.2956 Y69.5000 Z-5.5000 F1000.00
G1 X9.0529 Y69.5000 Z-5.5000 F1000.00
G1 X12.0529 Y66.5000 Z-5.5000 F1000.00
G1 X7.8103 Y66.5000 Z-5.5000 F1000.00
G1 X4.8103 Y69.5000 Z-5.5000 F1000.00
G1 X2.5000 Y69.5000 Z-5.5000 F1000.00
G1 X2.5000 Y67.5676 Z-5.5000 F1000.00
G1 X3.5676 Y66.5000 Z-5.5000 F1000.00
G1 X2.5000 Y66.5000 Z-5.5000 F1000.00
G1 X2.5000 Y67.5676 Z-5.5000 F1000.00
G1 X2.5000 Y67.5676 Z-6.0000 F300.00
G1 X2.5000 Y66.5000 Z-6.0000 F1000.00
G1 X3.5676 Y66.5000 Z-6.0000 F1000.00
G1 X2.5000 Y67.5676 Z-6.0000 F1000.00
G1 X2.5000 Y69.5000 Z-6.0000 F1000.00
G1 X4.8103 Y69.5000 Z-6.0000 F1000.00
G1 X7.8103 Y66.5000 Z-6.0000 F1000.00
G1 X12.0529 Y66.5000 Z-6.0000 F1000.00
G1 X9.0529 Y69.5000 Z-6.0000 F1000.00
G1 X13.2956 Y69.5000 Z-6.0000 F1000.00
G1 X16.2956 Y66.5000 Z-6.0000 F1000.00
G1 X20.5382 Y66.5000 Z-6.0000 F1000.00
G1 X17.5382 Y69.5000 Z-6.0000 F1000.00
G1 X21.7808 Y69.5000 Z-6.0000 F1000.00
G1 X24.7808 Y66.5000 Z-6.0000 F1000.00
G1 X24.7808 Y66.5000 Z-6.0000 F300.00
G1 X2.5000 Y66.5000 Z-6.0000 F1000.00
G1 X2.5000 Y69.5000 Z-6.0000 F1000.00
G1 X28.5282 Y69.5000 Z-6.0000 F1000.00
G1 X90.5000 Y26.2367 Z-6.0000 F1000.00
G1 X90.5000 Y2.5000 Z-6.0000 F1000.00
G1 X83.5000 Y2.5000 Z-6.0000 F1000.00
G1 X83.5000 Y22.0000 Z-6.0000 F1000.00
G3 X82.8586 Y23.2299 Z-6.0000 I-1.5000 J-0.0000 F1000.00
G1 X29.8586 Y60.2299 Z-6.0000 F1000.00
G3 X29.0000 Y60.5000 Z-6.0000 I-0.8586 J-1.2299 F1000.00
G1 X26.5000 Y60.5000 Z-6.0000 F1000.00
G1 X26.5000 Y65.0000 Z-6.0000 F1000.00
G3 X25.0000 Y66.5000 Z-6.0000 I-1.5000 J0.0000 F1000.00
G1 X24.7808 Y66.5000 Z-6.0000 F1000.00
G0 X24.7808 Y66.5000 Z5.0000
G0 X26.5000 Y60.5382 Z5.0000
G0 X26.5000 Y60.5382 Z-3.0000
G1 X26.5000 Y60.5382 Z-6.0000 F300.00
G3 X26.5382 Y60.5000 Z-6.0000 I0.0191 J-0.0191 F1000.00
G1 X26.5000 Y60.5382 Z-6.0000 F1000.00
G1 X26.5000 Y64.7808 Z-6.0000 F1000.00
G1 X33.8080 Y57.4728 Z-6.0000 F1000.00
G1 X47.8617 Y47.6617 Z-6.0000 F1000.00
G1 X26.0235 Y69.5000 Z-6.0000 F1000.00
G1 X28.5282 Y69.5000 Z-6.0000 F1000.00
G1 X34.2850 Y65.4811 Z-6.0000 F1000.00
G1 X61.9155 Y37.8506 Z-6.0000 F1000.00
G1 X75.9692 Y28.0395 Z-6.0000 F1000.00
G1 X48.3388 Y55.6700 Z-6.0000 F1000.00
G1 X62.3925 Y45.8589 Z-6.0000 F1000.00
G1 X90.5000 Y17.7514 Z-6.0000 F1000.00
G1 X90.5000 Y21.9940 Z-6.0000 F1000.00
G1 X76.4463 Y36.0478 Z-6.0000 F1000.00
G1 X90.5000 Y26.2367 Z-6.0000 F1000.00
G0 X90.5000 Y26.2367 Z5.0000
G0 X83.5000 Y20.5088 Z5.0000
G0 X83.5000 Y20.5088 Z-3.0000
G1 X83.5000 Y20.5088 Z-6.0000 F300.00
G1 X90.5000 Y13.5088 Z-6.0000 F1000.00
G1 X90.5000 Y9.2661 Z-6.0000 F1000.00
G1 X83.5000 Y16.2661 Z-6.0000 F1000.00
G1 X83.5000 Y12.0235 Z-6.0000 F1000.00
G1 X90.5000 Y5.0235 Z-6.0000 F1000.00
G1 X90.5000 Y2.5000 Z-6.0000 F1000.00
G1 X88.7808 Y2.5000 Z-6.0000 F1000.00
G1 X83.5000 Y7.7808 Z-6.0000 F1000.00
G1 X83.5000 Y3.5382 Z-6.0000 F1000.00
G1 X83.5000 Y2.5000 Z-6.0000 F1000.00
G1 X84.5382 Y2.5000 Z-6.0000 F1000.00
G1 X83.5000 Y3.5382 Z-6.0000 F1000.00
G0 Z5.0000
(finish operation: roughing002)
(begin operation: roughing003)
(Path: roughing003)
(roughing003)
G0 Z5.0000
G0 X70.1938 Y40.4127
G0 Z3.0000
G1 X70.1938 Y40.4127 Z-6.5000 F300.00
G1 X90.5000 Y26.2367 Z-6.5000 F1000.00
G1 X90.5000 Y2.5000 Z-6.5000 F1000.00
G1 X83.5000 Y2.5000 Z-6.5000 F1000.00
G1 X83.5000 Y22.0000 Z-6.5000 F1000.00
G3 X82.8586 Y23.2299 Z-6.5000 I-1.5000 J-0.0000 F1000.00
G1 X29.8586 Y60.2299 Z-6.5000 F1000.00
G3 X29.0000 Y60.5000 Z-6.5000 I-0.8586 J-1.2299 F1000.00
G1 X26.5000 Y60.5000 Z-6.5000 F1000.00
G1 X26.5000 Y65.0000 Z-6.5000 F1000.00
G3 X25.0000 Y66.5000 Z-6.5000 I-1.5000 J0.0000 F1000.00
G1 X2.5000 Y66.5000 Z-6.5000 F1000.00
G1 X2.5000 Y69.5000 Z-6.5000 F1000.00
G1 X28.5282 Y69.5000 Z-6.5000 F1000.00
G1 X70.1938 Y40.4127 Z-6.5000 F1000.00
G0 X70.1938 Y40.4127 Z5.0000
G0 X90.5000 Y25.1690 Z5.0000
G0 X90.5000 Y25.1690 Z-3.5000
G1 X90.5000 Y25.1690 Z-6.5000 F300.00
G1 X90.5000 Y26.2367 Z-6.5000 F1000.00
G1 X86.9635 Y28.7056 Z-6.5000 F1000.00
G1 X90.5000 Y25.1690 Z-6.5000 F1000.00
G1 X90.5000 Y20.9264 Z-6.5000 F1000.00
G1 X72.9097 Y38.5167 Z-6.5000 F1000.00
G1 X58.8560 Y48.3278 Z-6.5000 F1000.00
G1 X90.5000 Y16.6838 Z-6.5000 F1000.00
G1 X90.5000 Y12.4411 Z-6.5000 F1000.00
G1 X83.5000 Y19.4411 Z-6.5000 F1000.00
G1 X83.5000 Y22.0000 Z-6.5000 F1000.00
G3 X82.8586 Y23.2299 Z-6.5000 I-1.5000 J0.0000 F1000.00
G1 X72.4327 Y30.5084 Z-6.5000 F1000.00
G1 X44.8022 Y58.1389 Z-6.5000 F1000.00
G1 X30.7485 Y67.9500 Z-6.5000 F1000.00
G1 X58.3790 Y40.3195 Z-6.5000 F1000.00
G1 X44.3252 Y50.1306 Z-6.5000 F1000.00
G1 X24.9558 Y69.5000 Z-6.5000 F1000.00
G1 X20.7132 Y69.5000 Z-6.5000 F1000.00
G1 X23.7132 Y66.5000 Z-6.5000 F1000.00
G1 X25.0000 Y66.5000 Z-6.5000 F1000.00
G2 X26.5000 Y65.0000 Z-6.5000 I-0.0000 J-1.5000 F1000.00
G1 X26.5000 Y63.7132 Z-6.5000 F1000.00
G1 X30.2715 Y59.9417 Z-6.5000 F1000.00
G1 X29.8586 Y60.2299 Z-6.5000 F1000.00
G3 X29.0000 Y60.5000 Z-6.5000 I-0.8586 J-1.2299 F1000.00
G1 X26.5000 Y60.5000 Z-6.5000 F1000.00
G1 X26.5000 Y63.7132 Z-6.5000 F1000.00
G0 X26.5000 Y63.7132 Z5.0000
G0 X20.7132 Y69.5000 Z5.0000
G0 X20.7132 Y69.5000 Z-3.5000
G1 X20.7132 Y69.5000 Z-6.5000 F300.00
G1 X23.7132 Y66.5000 Z-6.5000 F1000.00
G1 X19.4706 Y66.5000 Z-6.5000 F1000.00
G1 X16.4706 Y69.5000 Z-6.5000 F1000.00
G1 X12.2279 Y69.5000 Z-6.5000 F1000.00
G1 X15.2279 Y66.5000 Z-6.5000 F1000.00
G1 X10.9853 Y66.5000 Z-6.5000 F1000.00
G1 X7.9853 Y69.5000 Z-6.5000 F1000.00
G1 X3.7426 Y69.5000 Z-6.5000 F1000.00
G1 X6.7426 Y66.5000 Z-6.5000 F1000.00
G1 X2.5000 Y66.5000 Z-6.5000 F1000.00
G0 X2.5000 Y66.5000 Z5.0000
G0 X83.5000 Y6.7132 Z5.0000
G0 X83.5000 Y6.7132 Z-3.5000
G1 X83.5000 Y6.7132 Z-6.5000 F300.00
G1 X83.5000 Y2.5000 Z-6.5000 F1000.00
G1 X87.7132 Y2.5000 Z-6.5000 F1000.00
G1 X83.5000 Y6.7132 Z-6.5000 F1000.00
G1 X83.5000 Y10.9558 Z-6.5000 F1000.00
G1 X90.5000 Y3.9558 Z-6.5000 F1000.00
G1 X90.5000 Y8.1985 Z-6.5000 F1000.00
G1 X83.5000 Y15.1985 Z-6.5000 F1000.00
G1 X83.5000 Y19.4411 Z-6.5000 F1000.00
G1 X90.5000 Y12.4411 Z-6.5000 F1000.00
G1 X90.5000 Y12.4411 Z-7.0000 F300.00
G1 X83.5000 Y19.4411 Z-7.0000 F1000.00
G1 X83.5000 Y15.1985 Z-7.0000 F1000.00
G1 X90.5000 Y8.1985 Z-7.0000 F1000.00
G1 X90.5000 Y3.9558 Z-7.0000 F1000.00
G1 X83.5000 Y10.9558 Z-7.0000 F1000.00
G1 X83.5000 Y6.7132 Z-7.0000 F1000.00
G1 X87.7132 Y2.5000 Z-7.0000 F1000.00
G1 X83.5000 Y2.5000 Z-7.0000 F1000.00
G1 X83.5000 Y6.7132 Z-7.0000 F1000.00
G1 X83.5000 Y6.7132 Z-7.0000 F300.00
G1 X83.5000 Y22.0000 Z-7.0000 F1000.00
G3 X82.8586 Y23.2299 Z-7.0000 I-1.5000 J-0.0000 F1000.00
G1 X29.8586 Y60.2299 Z-7.0000 F1000.00
G3 X29.0000 Y60.5000 Z-7.0000 I-0.8586 J-1.2299 F1000.00
G1 X26.5000 Y60.5000 Z-7.0000 F1000.00
G1 X26.5000 Y65.0000 Z-7.0000 F1000.00
G3 X25.0000 Y66.5000 Z-7.0000 I-1.5000 J0.0000 F1000.00
G1 X2.5000 Y66.5000 Z-7.0000 F1000.00
G1 X2.5000 Y69.5000 Z-7.0000 F1000.00
G1 X28.5282 Y69.5000 Z-7.0000 F1000.00
G1 X90.5000 Y26.2367 Z-7.0000 F1000.00
G1 X90.5000 Y2.5000 Z-7.0000 F1000.00
G1 X83.5000 Y2.5000 Z-7.0000 F1000.00
G1 X83.5000 Y6.7132 Z-7.0000 F1000.00
G0 X83.5000 Y6.7132 Z5.0000
G0 X90.5000 Y25.1690 Z5.0000
G0 X90.5000 Y25.1690 Z-4.0000
G1 X90.5000 Y25.1690 Z-7.0000 F300.00
G1 X90.5000 Y26.2367 Z-7.0000 F1000.00
G1 X86.9635 Y28.7056 Z-7.0000 F1000.00
G1 X90.5000 Y25.1690 Z-7.0000 F1000.00
G1 X90.5000 Y20.9264 Z-7.0000 F1000.00
G1 X72.9097 Y38.5167 Z-7.0000 F1000.00
G1 X58.8560 Y48.3278 Z-7.0000 F1000.00
G1 X90.5000 Y16.6838 Z-7.0000 F1000.00
G1 X90.5000 Y12.4411 Z-7.0000 F1000.00
G1 X83.5000 Y19.4411 Z-7.0000 F1000.00
G1 X83.5000 Y22.0000 Z-7.0000 F1000.00
G3 X82.8586 Y23.2299 Z-7.0000 I-1.5000 J0.0000 F1000.00
G1 X72.4327 Y30.5084 Z-7.0000 F1000.00
G1 X44.8022 Y58.1389 Z-7.0000 F1000.00
G1 X30.7485 Y67.9500 Z-7.0000 F1000.00
G1 X58.3790 Y40.3195 Z-7.0000 F1000.00
G1 X44.3252 Y50.1306 Z-7.0000 F1000.00
G1 X24.9558 Y69.5000 Z-7.0000 F1000.00
G1 X20.7132 Y69.5000 Z-7.0000 F1000.00
G1 X23.7132 Y66.5000 Z-7.0000 F1000.00
G1 X25.0000 Y66.5000 Z-7.0000 F1000.00
G2 X26.5000 Y65.0000 Z-7.0000 I-0.0000 J-1.5000 F1000.00
G1 X26.5000 Y63.7132 Z-7.0000 F1000.00
G1 X30.2715 Y59.9417 Z-7.0000 F1000.00
G1 X29.8586 Y60.2299 Z-7.0000 F1000.00
G3 X29.0000 Y60.5000 Z-7.0000 I-0.8586 J-1.2299 F1000.00
G1 X26.5000 Y60.5000 Z-7.0000 F1000.00
G1 X26.5000 Y63.7132 Z-7.0000 F1000.00
G0 X26.5000 Y63.7132 Z5.0000
G0 X20.7132 Y69.5000 Z5.0000
G0 X20.7132 Y69.5000 Z-4.0000
G1 X20.7132 Y69.5000 Z-7.0000 F300.00
G1 X23.7132 Y66.5000 Z-7.0000 F1000.00
G1 X19.4706 Y66.5000 Z-7.0000 F1000.00
G1 X16.4706 Y69.5000 Z-7.0000 F1000.00
G1 X12.2279 Y69.5000 Z-7.0000 F1000.00
G1 X15.2279 Y66.5000 Z-7.0000 F1000.00
G1 X10.9853 Y66.5000 Z-7.0000 F1000.00
G1 X7.9853 Y69.5000 Z-7.0000 F1000.00
G1 X3.7426 Y69.5000 Z-7.0000 F1000.00
G1 X6.7426 Y66.5000 Z-7.0000 F1000.00
G1 X2.5000 Y66.5000 Z-7.0000 F1000.00
G1 X2.5000 Y66.5000 Z-7.5000 F300.00
G1 X6.7426 Y66.5000 Z-7.5000 F1000.00
G1 X3.7426 Y69.5000 Z-7.5000 F1000.00
G1 X7.9853 Y69.5000 Z-7.5000 F1000.00
G1 X10.9853 Y66.5000 Z-7.5000 F1000.00
G1 X15.2279 Y66.5000 Z-7.5000 F1000.00
G1 X12.2279 Y69.5000 Z-7.5000 F1000.00
G1 X16.4706 Y69.5000 Z-7.5000 F1000.00
G1 X19.4706 Y66.5000 Z-7.5000 F1000.00
G1 X23.7132 Y66.5000 Z-7.5000 F1000.00
G1 X20.7132 Y69.5000 Z-7.5000 F1000.00
G1 X20.7132 Y69.5000 Z-7.5000 F300.00
G1 X28.5282 Y69.5000 Z-7.5000 F1000.00
G1 X90.5000 Y26.2367 Z-7.5000 F1000.00
G1 X90.5000 Y2.5000 Z-7.5000 F1000.00
G1 X83.5000 Y2.5000 Z-7.5000 F1000.00
G1 X83.5000 Y22.0000 Z-7.5000 F1000.00
G3 X82.8586 Y23.2299 Z-7.5000 I-1.5000 J-0.0000 F1000.00
G1 X29.8586 Y60.2299 Z-7.5000 F1000.00
G3 X29.0000 Y60.5000 Z-7.5000 I-0.8586 J-1.2299 F1000.00
G1 X26.5000 Y60.5000 Z-7.5000 F1000.00
G1 X26.5000 Y65.0000 Z-7.5000 F1000.00
G3 X25.0000 Y66.5000 Z-7.5000 I-1.5000 J0.0000 F1000.00
G1 X2.5000 Y66.5000 Z-7.5000 F1000.00
G1 X2.5000 Y69.5000 Z-7.5000 F1000.00
G1 X20.7132 Y69.5000 Z-7.5000 F1000.00
G0 X20.7132 Y69.5000 Z5.0000
G0 X26.5000 Y63.7132 Z5.0000
G0 X26.5000 Y63.7132 Z-4.5000
G1 X26.5000 Y63.7132 Z-7.5000 F300.00
G1 X26.5000 Y60.5000 Z-7.5000 F1000.00
G1 X29.0000 Y60.5000 Z-7.5000 F1000.00
G2 X29.8586 Y60.2299 Z-7.5000 I0.0000 J-1.5000 F1000.00
G1 X30.2715 Y59.9417 Z-7.5000 F1000.00
G1 X26.5000 Y63.7132 Z-7.5000 F1000.00
G1 X26.5000 Y65.0000 Z-7.5000 F1000.00
G3 X25.0000 Y66.5000 Z-7.5000 I-1.5000 J0.0000 F1000.00
G1 X23.7132 Y66.5000 Z-7.5000 F1000.00
G1 X20.7132 Y69.5000 Z-7.5000 F1000.00
G1 X24.9558 Y69.5000 Z-7.5000 F1000.00
G1 X44.3252 Y50.1306 Z-7.5000 F1000.00
G1 X58.3790 Y40.3195 Z-7.5000 F1000.00
G1 X30.7485 Y67.9500 Z-7.5000 F1000.00
G1 X44.8022 Y58.1389 Z-7.5000 F1000.00
G1 X72.4327 Y30.5084 Z-7.5000 F1000.00
G1 X82.8586 Y23.2299 Z-7.5000 F1000.00
G2 X83.5000 Y22.0000 Z-7.5000 I-0.8586 J-1.2299 F1000.00
G1 X83.5000 Y19.4411 Z-7.5000 F1000.00
G1 X90.5000 Y12.4411 Z-7.5000 F1000.00
G1 X90.5000 Y16.6838 Z-7.5000 F1000.00
G1 X58.8560 Y48.3278 Z-7.5000 F1000.00
G1 X72.9097 Y38.5167 Z-7.5000 F1000.00
G1 X90.5000 Y20.9264 Z-7.5000 F1000.00
G1 X90.5000 Y25.1690 Z-7.5000 F1000.00
G1 X86.9635 Y28.7056 Z-7.5000 F1000.00
G1 X90.5000 Y26.2367 Z-7.5000 F1000.00
G1 X90.5000 Y25.1690 Z-7.5000 F1000.00
G0 X90.5000 Y25.1690 Z5.0000
G0 X90.5000 Y12.4411 Z5.0000
G0 X90.5000 Y12.4411 Z-4.5000
G1 X90.5000 Y12.4411 Z-7.5000 F300.00
G1 X83.5000 Y19.4411 Z-7.5000 F1000.00
G1 X83.5000 Y15.1985 Z-7.5000 F1000.00
G1 X90.5000 Y8.1985 Z-7.5000 F1000.00
G1 X90.5000 Y3.9558 Z-7.5000 F1000.00
G1 X83.5000 Y10.9558 Z-7.5000 F1000.00
G1 X83.5000 Y6.7132 Z-7.5000 F1000.00
G1 X87.7132 Y2.5000 Z-7.5000 F1000.00
G1 X83.5000 Y2.5000 Z-7.5000 F1000.00
G1 X83.5000 Y6.7132 Z-7.5000 F1000.00
G1 X83.5000 Y6.7132 Z-8.0000 F300.00
G1 X83.5000 Y2.5000 Z-8.0000 F1000.00
G1 X87.7132 Y2.5000 Z-8.0000 F1000.00
G1 X83.5000 Y6.7132 Z-8.0000 F1000.00
G1 X83.5000 Y10.9558 Z-8.0000 F1000.00
G1 X90.5000 Y3.9558 Z-8.0000 F1000.00
G1 X90.5000 Y8.1985 Z-8.0000 F1000.00
G1 X83.5000 Y15.1985 Z-8.0000 F1000.00
G1 X83.5000 Y19.4411 Z-8.0000 F1000.00
G1 X90.5000 Y12.4411 Z-8.0000 F1000.00
G1 X90.5000 Y12.4411 Z-8.0000 F300.00
G1 X90.5000 Y2.5000 Z-8.0000 F1000.00
G1 X83.5000 Y2.5000 Z-8.0000 F1000.00
G1 X83.5000 Y22.0000 Z-8.0000 F1000.00
G3 X82.8586 Y23.2299 Z-8.0000 I-1.5000 J-0.0000 F1000.00
G1 X29.8586 Y60.2299 Z-8.0000 F1000.00
G3 X29.0000 Y60.5000 Z-8.0000 I-0.8586 J-1.2299 F1000.00
G1 X26.5000 Y60.5000 Z-8.0000 F1000.00
G1 X26.5000 Y65.0000 Z-8.0000 F1000.00
G3 X25.0000 Y66.5000 Z-8.0000 I-1.5000 J0.0000 F1000.00
G1 X2.5000 Y66.5000 Z-8.0000 F1000.00
G1 X2.5000 Y69.5000 Z-8.0000 F1000.00
G1 X28.5282 Y69.5000 Z-8.0000 F1000.00
G1 X90.5000 Y26.2367 Z-8.0000 F1000.00
G1 X90.5000 Y12.4411 Z-8.0000 F1000.00
G0 X90.5000 Y12.4411 Z5.0000
G0 X90.5000 Y25.1690 Z5.0000
G0 X90.5000 Y25.1690 Z-5.0000
G1 X90.5000 Y25.1690 Z-8.0000 F300.00
G1 X90.5000 Y26.2367 Z-8.0000 F1000.00
G1 X86.9635 Y28.7056 Z-8.0000 F1000.00
G1 X90.5000 Y25.1690 Z-8.0000 F1000.00
G1 X90.5000 Y20.9264 Z-8.0000 F1000.00
G1 X72.9097 Y38.5167 Z-8.0000 F1000.00
G1 X58.8560 Y48.3278 Z-8.0000 F1000.00
G1 X90.5000 Y16.6838 Z-8.0000 F1000.00
G1 X90.5000 Y12.4411 Z-8.0000 F1000.00
G1 X83.5000 Y19.4411 Z-8.0000 F1000.00
G1 X83.5000 Y22.0000 Z-8.0000 F1000.00
G3 X82.8586 Y23.2299 Z-8.0000 I-1.5000 J0.0000 F1000.00
G1 X72.4327 Y30.5084 Z-8.0000 F1000.00
G1 X44.8022 Y58.1389 Z-8.0000 F1000.00
G1 X30.7485 Y67.9500 Z-8.0000 F1000.00
G1 X58.3790 Y40.3195 Z-8.0000 F1000.00
G1 X44.3252 Y50.1306 Z-8.0000 F1000.00
G1 X24.9558 Y69.5000 Z-8.0000 F1000.00
G1 X20.7132 Y69.5000 Z-8.0000 F1000.00
G1 X23.7132 Y66.5000 Z-8.0000 F1000.00
G1 X25.0000 Y66.5000 Z-8.0000 F1000.00
G2 X26.5000 Y65.0000 Z-8.0000 I-0.0000 J-1.5000 F1000.00
G1 X26.5000 Y63.7132 Z-8.0000 F1000.00
G1 X30.2715 Y59.9417 Z-8.0000 F1000.00
G1 X29.8586 Y60.2299 Z-8.0000 F1000.00
G3 X29.0000 Y60.5000 Z-8.0000 I-0.8586 J-1.2299 F1000.00
G1 X26.5000 Y60.5000 Z-8.0000 F1000.00
G1 X26.5000 Y63.7132 Z-8.0000 F1000.00
G0 X26.5000 Y63.7132 Z5.0000
G0 X20.7132 Y69.5000 Z5.0000
G0 X20.7132 Y69.5000 Z-5.0000
G1 X20.7132 Y69.5000 Z-8.0000 F300.00
G1 X23.7132 Y66.5000 Z-8.0000 F1000.00
G1 X19.4706 Y66.5000 Z-8.0000 F1000.00
G1 X16.4706 Y69.5000 Z-8.0000 F1000.00
G1 X12.2279 Y69.5000 Z-8.0000 F1000.00
G1 X15.2279 Y66.5000 Z-8.0000 F1000.00
G1 X10.9853 Y66.5000 Z-8.0000 F1000.00
G1 X7.9853 Y69.5000 Z-8.0000 F1000.00
G1 X3.7426 Y69.5000 Z-8.0000 F1000.00
G1 X6.7426 Y66.5000 Z-8.0000 F1000.00
G1 X2.5000 Y66.5000 Z-8.0000 F1000.00
G0 Z5.0000
(finish operation: roughing003)
(begin operation: roughing004)
(Path: roughing004)
(roughing004)
G0 Z5.0000
G0 X70.1938 Y40.4127
G0 Z3.0000
G1 X70.1938 Y40.4127 Z-8.5000 F300.00
G1 X90.5000 Y26.2367 Z-8.5000 F1000.00
G1 X90.5000 Y2.5000 Z-8.5000 F1000.00
G1 X83.5000 Y2.5000 Z-8.5000 F1000.00
G1 X83.5000 Y22.0000 Z-8.5000 F1000.00
G3 X82.8586 Y23.2299 Z-8.5000 I-1.5000 J-0.0000 F1000.00
G1 X29.8586 Y60.2299 Z-8.5000 F1000.00
G3 X29.0000 Y60.5000 Z-8.5000 I-0.8586 J-1.2299 F1000.00
G1 X26.5000 Y60.5000 Z-8.5000 F1000.00
G1 X26.5000 Y65.0000 Z-8.5000 F1000.00
G3 X25.0000 Y66.5000 Z-8.5000 I-1.5000 J0.0000 F1000.00
G1 X2.5000 Y66.5000 Z-8.5000 F1000.00
G1 X2.5000 Y69.5000 Z-8.5000 F1000.00
G1 X28.5282 Y69.5000 Z-8.5000 F1000.00
G1 X70.1938 Y40.4127 Z-8.5000 F1000.00
G0 X70.1938 Y40.4127 Z5.0000
G0 X83.5000 Y20.5088 Z5.0000
G0 X83.5000 Y20.5088 Z-5.5000
G1 X83.5000 Y20.5088 Z-8.5000 F300.00
G1 X90.5000 Y13.5088 Z-8.5000 F1000.00
G1 X90.5000 Y9.2661 Z-8.5000 F1000.00
G1 X83.5000 Y16.2661 Z-8.5000 F1000.00
G1 X83.5000 Y12.0235 Z-8.5000 F1000.00
G1 X90.5000 Y5.0235 Z-8.5000 F1000.00
G1 X90.5000 Y2.5000 Z-8.5000 F1000.00
G1 X88.7808 Y2.5000 Z-8.5000 F1000.00
G1 X83.5000 Y7.7808 Z-8.5000 F1000.00
G1 X83.5000 Y3.5382 Z-8.5000 F1000.00
G1 X83.5000 Y2.5000 Z-8.5000 F1000.00
G1 X84.5382 Y2.5000 Z-8.5000 F1000.00
G1 X83.5000 Y3.5382 Z-8.5000 F1000.00
G0 X83.5000 Y3.5382 Z5.0000
G0 X90.5000 Y26.2367 Z5.0000
G0 X90.5000 Y26.2367 Z-5.5000
G1 X90.5000 Y26.2367 Z-8.5000 F300.00
G1 X76.4463 Y36.0478 Z-8.5000 F1000.00
G1 X90.5000 Y21.9940 Z-8.5000 F1000.00
G1 X90.5000 Y17.7514 Z-8.5000 F1000.00
G1 X62.3925 Y45.8589 Z-8.5000 F1000.00
G1 X48.3388 Y55.6700 Z-8.5000 F1000.00
G1 X75.9692 Y28.0395 Z-8.5000 F1000.00
G1 X61.9155 Y37.8506 Z-8.5000 F1000.00
G1 X34.2850 Y65.4811 Z-8.5000 F1000.00
G1 X28.5282 Y69.5000 Z-8.5000 F1000.00
G1 X26.0235 Y69.5000 Z-8.5000 F1000.00
G1 X47.8617 Y47.6617 Z-8.5000 F1000.00
G1 X33.8080 Y57.4728 Z-8.5000 F1000.00
G1 X26.5000 Y64.7808 Z-8.5000 F1000.00
G1 X26.5000 Y60.5382 Z-8.5000 F1000.00
G1 X26.5382 Y60.5000 Z-8.5000 F1000.00
G2 X26.5000 Y60.5382 Z-8.5000 I-0.0191 J0.0191 F1000.00
G0 X26.5000 Y60.5382 Z5.0000
G0 X24.7808 Y66.5000 Z5.0000
G0 X24.7808 Y66.5000 Z-5.5000
G1 X24.7808 Y66.5000 Z-8.5000 F300.00
G1 X21.7808 Y69.5000 Z-8.5000 F1000.00
G1 X17.5382 Y69.5000 Z-8.5000 F1000.00
G1 X20.5382 Y66.5000 Z-8.5000 F1000.00
G1 X16.2956 Y66.5000 Z-8.5000 F1000.00
G1 X13.2956 Y69.5000 Z-8.5000 F1000.00
G1 X9.0529 Y69.5000 Z-8.5000 F1000.00
G1 X12.0529 Y66.5000 Z-8.5000 F1000.00
G1 X7.8103 Y66.5000 Z-8.5000 F1000.00
G1 X4.8103 Y69.5000 Z-8.5000 F1000.00
G1 X2.5000 Y69.5000 Z-8.5000 F1000.00
G1 X2.5000 Y67.5676 Z-8.5000 F1000.00
G1 X3.5676 Y66.5000 Z-8.5000 F1000.00
G1 X2.5000 Y66.5000 Z-8.5000 F1000.00
G1 X2.5000 Y67.5676 Z-8.5000 F1000.00
G1 X2.5000 Y67.5676 Z-9.0000 F300.00
G1 X2.5000 Y66.5000 Z-9.0000 F1000.00
G1 X3.5676 Y66.5000 Z-9.0000 F1000.00
G1 X2.5000 Y67.5676 Z-9.0000 F1000.00
G1 X2.5000 Y69.5000 Z-9.0000 F1000.00
G1 X4.8103 Y69.5000 Z-9.0000 F1000.00
G1 X7.8103 Y66.5000 Z-9.0000 F1000.00
G1 X12.0529 Y66.5000 Z-9.0000 F1000.00
G1 X9.0529 Y69.5000 Z-9.0000 F1000.00
G1 X13.2956 Y69.5000 Z-9.0000 F1000.00
G1 X16.2956 Y66.5000 Z-9.0000 F1000.00
G1 X20.5382 Y66.5000 Z-9.0000 F1000.00
G1 X17.5382 Y69.5000 Z-9.0000 F1000.00
G1 X21.7808 Y69.5000 Z-9.0000 F1000.00
G1 X24.7808 Y66.5000 Z-9.0000 F1000.00
G1 X24.7808 Y66.5000 Z-9.0000 F300.00
G1 X2.5000 Y66.5000 Z-9.0000 F1000.00
G1 X2.5000 Y69.5000 Z-9.0000 F1000.00
G1 X28.5282 Y69.5000 Z-9.0000 F1000.00
G1 X90.5000 Y26.2367 Z-9.0000 F1000.00
G1 X90.5000 Y2.5000 Z-9.0000 F1000.00
G1 X83.5000 Y2.5000 Z-9.0000 F1000.00
G1 X83.5000 Y22.0000 Z-9.0000 F1000.00
G3 X82.8586 Y23.2299 Z-9.0000 I-1.5000 J-0.0000 F1000.00
G1 X29.8586 Y60.2299 Z-9.0000 F1000.00
G3 X29.0000 Y60.5000 Z-9.0000 I-0.8586 J-1.2299 F1000.00
G1 X26.5000 Y60.5000 Z-9.0000 F1000.00
G1 X26.5000 Y65.0000 Z-9.0000 F1000.00
G3 X25.0000 Y66.5000 Z-9.0000 I-1.5000 J0.0000 F1000.00
G1 X24.7808 Y66.5000 Z-9.0000 F1000.00
G0 X24.7808 Y66.5000 Z5.0000
G0 X26.5000 Y60.5382 Z5.0000
G0 X26.5000 Y60.5382 Z-6.0000
G1 X26.5000 Y60.5382 Z-9.0000 F300.00
G3 X26.5382 Y60.5000 Z-9.0000 I0.0191 J-0.0191 F1000.00
G1 X26.5000 Y60.5382 Z-9.0000 F1000.00
G1 X26.5000 Y64.7808 Z-9.0000 F1000.00
G1 X33.8080 Y57.4728 Z-9.0000 F1000.00
G1 X47.8617 Y47.6617 Z-9.0000 F1000.00
G1 X26.0235 Y69.5000 Z-9.0000 F1000.00
G1 X28.5282 Y69.5000 Z-9.0000 F1000.00
G1 X34.2850 Y65.4811 Z-9.0000 F1000.00
G1 X61.9155 Y37.8506 Z-9.0000 F1000.00
G1 X75.9692 Y28.0395 Z-9.0000 F1000.00
G1 X48.3388 Y55.6700 Z-9.0000 F1000.00
G1 X62.3925 Y45.8589 Z-9.0000 F1000.00
G1 X90.5000 Y17.7514 Z-9.0000 F1000.00
G1 X90.5000 Y21.9940 Z-9.0000 F1000.00
G1 X76.4463 Y36.0478 Z-9.0000 F1000.00
G1 X90.5000 Y26.2367 Z-9.0000 F1000.00
G0 X90.5000 Y26.2367 Z5.0000
G0 X83.5000 Y20.5088 Z5.0000
G0 X83.5000 Y20.5088 Z-6.0000
G1 X83.5000 Y20.5088 Z-9.0000 F300.00
G1 X90.5000 Y13.5088 Z-9.0000 F1000.00
G1 X90.5000 Y9.2661 Z-9.0000 F1000.00
G1 X83.5000 Y16.2661 Z-9.0000 F1000.00
G1 X83.5000 Y12.0235 Z-9.0000 F1000.00
G1 X90.5000 Y5.0235 Z-9.0000 F1000.00
G1 X90.5000 Y2.5000 Z-9.0000 F1000.00
G1 X88.7808 Y2.5000 Z-9.0000 F1000.00
G1 X83.5000 Y7.7808 Z-9.0000 F1000.00
G1 X83.5000 Y3.5382 Z-9.0000 F1000.00
G1 X83.5000 Y2.5000 Z-9.0000 F1000.00
G1 X84.5382 Y2.5000 Z-9.0000 F1000.00
G1 X83.5000 Y3.5382 Z-9.0000 F1000.00
G0 Z5.0000
(finish operation: roughing004)
(begin operation: roughing005)
(Path: roughing005)
(roughing005)
G0 Z5.0000
G0 X70.1938 Y40.4127
G0 Z3.0000
G1 X70.1938 Y40.4127 Z-9.5000 F300.00
G1 X90.5000 Y26.2367 Z-9.5000 F1000.00
G1 X90.5000 Y2.5000 Z-9.5000 F1000.00
G1 X83.5000 Y2.5000 Z-9.5000 F1000.00
G1 X83.5000 Y22.0000 Z-9.5000 F1000.00
G3 X82.8586 Y23.2299 Z-9.5000 I-1.5000 J-0.0000 F1000.00
G1 X29.8586 Y60.2299 Z-9.5000 F1000.00
G3 X29.0000 Y60.5000 Z-9.5000 I-0.8586 J-1.2299 F1000.00
G1 X26.5000 Y60.5000 Z-9.5000 F1000.00
G1 X26.5000 Y65.0000 Z-9.5000 F1000.00
G3 X25.0000 Y66.5000 Z-9.5000 I-1.5000 J0.0000 F1000.00
G1 X2.5000 Y66.5000 Z-9.5000 F1000.00
G1 X2.5000 Y69.5000 Z-9.5000 F1000.00
G1 X28.5282 Y69.5000 Z-9.5000 F1000.00
G1 X70.1938 Y40.4127 Z-9.5000 F1000.00
G0 X70.1938 Y40.4127 Z5.0000
G0 X90.5000 Y2.5000 Z5.0000
G0 X90.5000 Y2.5000 Z-6.5000
G1 X90.5000 Y2.5000 Z-9.5000 F300.00
G1 X90.5000 Y4.6213 Z-9.5000 F1000.00
G1 X88.3787 Y2.5000 Z-9.5000 F1000.00
G1 X86.2574 Y2.5000 Z-9.5000 F1000.00
G1 X90.5000 Y6.7426 Z-9.5000 F1000.00
G1 X90.5000 Y8.8640 Z-9.5000 F1000.00
G1 X84.1360 Y2.5000 Z-9.5000 F1000.00
G1 X83.5000 Y2.5000 Z-9.5000 F1000.00
G1 X83.5000 Y3.9853 Z-9.5000 F1000.00
G1 X90.5000 Y10.9853 Z-9.5000 F1000.00
G1 X90.5000 Y13.1066 Z-9.5000 F1000.00
G1 X83.5000 Y6.1066 Z-9.5000 F1000.00
G1 X83.5000 Y8.2279 Z-9.5000 F1000.00
G1 X90.5000 Y15.2279 Z-9.5000 F1000.00
G1 X90.5000 Y17.3492 Z-9.5000 F1000.00
G1 X83.5000 Y10.3492 Z-9.5000 F1000.00
G1 X83.5000 Y12.4706 Z-9.5000 F1000.00
G1 X90.5000 Y19.4706 Z-9.5000 F1000.00
G1 X90.5000 Y21.5919 Z-9.5000 F1000.00
G1 X83.5000 Y14.5919 Z-9.5000 F1000.00
G1 X83.5000 Y16.7132 Z-9.5000 F1000.00
G1 X90.5000 Y23.7132 Z-9.5000 F1000.00
G1 X90.5000 Y25.8345 Z-9.5000 F1000.00
G1 X83.5000 Y18.8345 Z-9.5000 F1000.00
G1 X83.5000 Y20.9558 Z-9.5000 F1000.00
G1 X89.4876 Y26.9434 Z-9.5000 F1000.00
G1 X88.2384 Y27.8155 Z-9.5000 F1000.00
G1 X83.2500 Y22.8272 Z-9.5000 F1000.00
G3 X82.8586 Y23.2299 Z-9.5000 I-1.2301 J-0.8038 F1000.00
G1 X82.0771 Y23.7756 Z-9.5000 F1000.00
G1 X86.9892 Y28.6876 Z-9.5000 F1000.00
G1 X85.7399 Y29.5597 Z-9.5000 F1000.00
G1 X80.8278 Y24.6477 Z-9.5000 F1000.00
G1 X79.5786 Y25.5198 Z-9.5000 F1000.00
G1 X84.4907 Y30.4318 Z-9.5000 F1000.00
G1 X83.2415 Y31.3039 Z-9.5000 F1000.00
G1 X78.3294 Y26.3919 Z-9.5000 F1000.00
G1 X77.0802 Y27.2640 Z-9.5000 F1000.00
G1 X81.9923 Y32.1760 Z-9.5000 F1000.00
G1 X80.7430 Y33.0481 Z-9.5000 F1000.00
G1 X75.8310 Y28.1360 Z-9.5000 F1000.00
G1 X74.5817 Y29.0081 Z-9.5000 F1000.00
G1 X79.4938 Y33.9202 Z-9.5000 F1000.00
G1 X78.2446 Y34.7923 Z-9.5000 F1000.00
G1 X73.3325 Y29.8802 Z-9.5000 F1000.00
G1 X72.0833 Y30.7523 Z-9.5000 F1000.00
G1 X76.9954 Y35.6644 Z-9.5000 F1000.00
G1 X75.7462 Y36.5365 Z-9.5000 F1000.00
G1 X70.8341 Y31.6244 Z-9.5000 F1000.00
G1 X69.5849 Y32.4965 Z-9.5000 F1000.00
G1 X74.4969 Y37.4086 Z-9.5000 F1000.00
G1 X73.2477 Y38.2807 Z-9.5000 F1000.00
G1 X68.3356 Y33.3686 Z-9.5000 F1000.00
G1 X67.0864 Y34.2407 Z-9.5000 F1000.00
G1 X71.9985 Y39.1528 Z-9.5000 F1000.00
G1 X70.7493 Y40.0249 Z-9.5000 F1000.00
G1 X65.8372 Y35.1128 Z-9.5000 F1000.00
G1 X64.5880 Y35.9849 Z-9.5000 F1000.00
G1 X69.5000 Y40.8970 Z-9.5000 F1000.00
G1 X68.2508 Y41.7691 Z-9.5000 F1000.00
G1 X63.3387 Y36.8570 Z-9.5000 F1000.00
G1 X62.0895 Y37.7291 Z-9.5000 F1000.00
G1 X67.0016 Y42.6412 Z-9.5000 F1000.00
G1 X65.7524 Y43.5133 Z-9.5000 F1000.00
G1 X60.8403 Y38.6012 Z-9.5000 F1000.00
G1 X59.5911 Y39.4733 Z-9.5000 F1000.00
G1 X64.5032 Y44.3854 Z-9.5000 F1000.00
G1 X63.2539 Y45.2575 Z-9.5000 F1000.00
G1 X58.3419 Y40.3454 Z-9.5000 F1000.00
G1 X57.0926 Y41.2175 Z-9.5000 F1000.00
G1 X62.0047 Y46.1296 Z-9.5000 F1000.00
G1 X60.7555 Y47.0017 Z-9.5000 F1000.00
G1 X55.8434 Y42.0896 Z-9.5000 F1000.00
G1 X54.5942 Y42.9617 Z-9.5000 F1000.00
G1 X59.5063 Y47.8738 Z-9.5000 F1000.00
G1 X58.2571 Y48.7459 Z-9.5000 F1000.00
G1 X53.3450 Y43.8338 Z-9.5000 F1000.00
G1 X52.0957 Y44.7059 Z-9.5000 F1000.00
G1 X57.0078 Y49.6180 Z-9.5000 F1000.00
G1 X55.7586 Y50.4901 Z-9.5000 F1000.00
G1 X50.8465 Y45.5780 Z-9.5000 F1000.00
G1 X49.5973 Y46.4501 Z-9.5000 F1000.00
G1 X54.5094 Y51.3622 Z-9.5000 F1000.00
G1 X53.2602 Y52.2343 Z-9.5000 F1000.00
G1 X48.3481 Y47.3222 Z-9.5000 F1000.00
G1 X47.0989 Y48.1943 Z-9.5000 F1000.00
G1 X52.0109 Y53.1064 Z-9.5000 F1000.00
G1 X50.7617 Y53.9785 Z-9.5000 F1000.00
G1 X45.8496 Y49.0664 Z-9.5000 F1000.00
G1 X44.6004 Y49.9385 Z-9.5000 F1000.00
G1 X49.5125 Y54.8506 Z-9.5000 F1000.00
G1 X48.2633 Y55.7227 Z-9.5000 F1000.00
G1 X43.3512 Y50.8106 Z-9.5000 F1000.00
G1 X42.1020 Y51.6827 Z-9.5000 F1000.00
G1 X47.0141 Y56.5948 Z-9.5000 F1000.00
G1 X45.7648 Y57.4669 Z-9.5000 F1000.00
G1 X40.8527 Y52.5548 Z-9.5000 F1000.00
G1 X39.6035 Y53.4269 Z-9.5000 F1000.00
G1 X44.5156 Y58.3390 Z-9.5000 F1000.00
G1 X43.2664 Y59.2111 Z-9.5000 F1000.00
G1 X38.3543 Y54.2990 Z-9.5000 F1000.00
G1 X37.1051 Y55.1711 Z-9.5000 F1000.00
G1 X42.0172 Y60.0832 Z-9.5000 F1000.00
G1 X40.7679 Y60.9553 Z-9.5000 F1000.00
G1 X35.8559 Y56.0432 Z-9.5000 F1000.00
G1 X34.6066 Y56.9153 Z-9.5000 F1000.00
G1 X39.5187 Y61.8274 Z-9.5000 F1000.00
G1 X38.2695 Y62.6995 Z-9.5000 F1000.00
G1 X33.3574 Y57.7874 Z-9.5000 F1000.00
G1 X32.1082 Y58.6595 Z-9.5000 F1000.00
G1 X37.0203 Y63.5716 Z-9.5000 F1000.00
G1 X35.7711 Y64.4437 Z-9.5000 F1000.00
G1 X30.8590 Y59.5316 Z-9.5000 F1000.00
G3 X29.6620 Y60.3460 Z-9.5000 I-5.9333 J-7.4335 F1000.00
G1 X29.5835 Y60.3774 Z-9.5000 F1000.00
G1 X34.5218 Y65.3158 Z-9.5000 F1000.00
G1 X33.2726 Y66.1879 Z-9.5000 F1000.00
G1 X27.5847 Y60.5000 Z-9.5000 F1000.00
G1 X26.5000 Y60.5000 Z-9.5000 F1000.00
G1 X26.5000 Y61.5366 Z-9.5000 F1000.00
G1 X32.0234 Y67.0600 Z-9.5000 F1000.00
G1 X30.7742 Y67.9321 Z-9.5000 F1000.00
G1 X26.5000 Y63.6579 Z-9.5000 F1000.00
G1 X26.5000 Y65.0000 Z-9.5000 F1000.00
G3 X26.3567 Y65.6359 Z-9.5000 I-1.4647 J0.0040 F1000.00
G1 X29.5249 Y68.8042 Z-9.5000 F1000.00
G1 X28.5282 Y69.5000 Z-9.5000 F1000.00
G1 X28.0995 Y69.5000 Z-9.5000 F1000.00
G1 X25.0894 Y66.4899 Z-9.5000 F1000.00
G1 X25.0000 Y66.5000 Z-9.5000 F1000.00
G1 X22.9781 Y66.5000 Z-9.5000 F1000.00
G1 X25.9781 Y69.5000 Z-9.5000 F1000.00
G1 X23.8568 Y69.5000 Z-9.5000 F1000.00
G1 X20.8568 Y66.5000 Z-9.5000 F1000.00
G1 X18.7355 Y66.5000 Z-9.5000 F1000.00
G1 X21.7355 Y69.5000 Z-9.5000 F1000.00
G1 X19.6142 Y69.5000 Z-9.5000 F1000.00
G1 X16.6142 Y66.5000 Z-9.5000 F1000.00
G1 X14.4929 Y66.5000 Z-9.5000 F1000.00
G1 X17.4929 Y69.5000 Z-9.5000 F1000.00
G1 X15.3715 Y69.5000 Z-9.5000 F1000.00
G1 X12.3715 Y66.5000 Z-9.5000 F1000.00
G1 X10.2502 Y66.5000 Z-9.5000 F1000.00
G1 X13.2502 Y69.5000 Z-9.5000 F1000.00
G1 X11.1289 Y69.5000 Z-9.5000 F1000.00
G1 X8.1289 Y66.5000 Z-9.5000 F1000.00
G1 X6.0076 Y66.5000 Z-9.5000 F1000.00
G1 X9.0076 Y69.5000 Z-9.5000 F1000.00
G1 X6.8863 Y69.5000 Z-9.5000 F1000.00
G1 X3.8863 Y66.5000 Z-9.5000 F1000.00
G1 X2.5000 Y66.5000 Z-9.5000 F1000.00
G1 X2.5000 Y67.2351 Z-9.5000 F1000.00
G1 X4.7649 Y69.5000 Z-9.5000 F1000.00
G1 X2.6436 Y69.5000 Z-9.5000 F1000.00
G1 X2.5000 Y69.3564 Z-9.5000 F1000.00
G1 X2.5000 Y69.5000 Z-9.5000 F1000.00
G1 X2.6436 Y69.5000 Z-9.5000 F1000.00
G1 X2.6436 Y69.5000 Z-10.0000 F300.00
G1 X2.5000 Y69.5000 Z-10.0000 F1000.00
G1 X2.5000 Y69.3564 Z-10.0000 F1000.00
G1 X2.6436 Y69.5000 Z-10.0000 F1000.00
G1 X4.7649 Y69.5000 Z-10.0000 F1000.00
G1 X2.5000 Y67.2351 Z-10.0000 F1000.00
G1 X2.5000 Y66.5000 Z-10.0000 F1000.00
G1 X3.8863 Y66.5000 Z-10.0000 F1000.00
G1 X6.8863 Y69.5000 Z-10.0000 F1000.00
G1 X9.0076 Y69.5000 Z-10.0000 F1000.00
G1 X6.0076 Y66.5000 Z-10.0000 F1000.00
G1 X8.1289 Y66.5000 Z-10.0000 F1000.00
G1 X11.1289 Y69.5000 Z-10.0000 F1000.00
G1 X13.2502 Y69.5000 Z-10.0000 F1000.00
G1 X10.2502 Y66.5000 Z-10.0000 F1000.00
G1 X12.3715 Y66.5000 Z-10.0000 F1000.00
G1 X15.3715 Y69.5000 Z-10.0000 F1000.00
G1 X17.4929 Y69.5000 Z-10.0000 F1000.00
G1 X14.4929 Y66.5000 Z-10.0000 F1000.00
G1 X16.6142 Y66.5000 Z-10.0000 F1000.00
G1 X19.6142 Y69.5000 Z-10.0000 F1000.00
G1 X21.7355 Y69.5000 Z-10.0000 F1000.00
G1 X18.7355 Y66.5000 Z-10.0000 F1000.00
G1 X20.8568 Y66.5000 Z-10.0000 F1000.00
G1 X23.8568 Y69.5000 Z-10.0000 F1000.00
G1 X25.9781 Y69.5000 Z-10.0000 F1000.00
G1 X22.9781 Y66.5000 Z-10.0000 F1000.00
G1 X25.0000 Y66.5000 Z-10.0000 F1000.00
G1 X25.0894 Y66.4899 Z-10.0000 F1000.00
G1 X28.0995 Y69.5000 Z-10.0000 F1000.00
G1 X28.5282 Y69.5000 Z-10.0000 F1000.00
G1 X29.5249 Y68.8042 Z-10.0000 F1000.00
G1 X26.3567 Y65.6359 Z-10.0000 F1000.00
G2 X26.5000 Y65.0000 Z-10.0000 I-1.3214 J-0.6319 F1000.00
G1 X26.5000 Y63.6579 Z-10.0000 F1000.00
G1 X30.7742 Y67.9321 Z-10.0000 F1000.00
G1 X32.0234 Y67.0600 Z-10.0000 F1000.00
G1 X26.5000 Y61.5366 Z-10.0000 F1000.00
G1 X26.5000 Y60.5000 Z-10.0000 F1000.00
G1 X27.5847 Y60.5000 Z-10.0000 F1000.00
G1 X33.2726 Y66.1879 Z-10.0000 F1000.00
G1 X34.5218 Y65.3158 Z-10.0000 F1000.00
G1 X29.5835 Y60.3774 Z-10.0000 F1000.00
G1 X29.6620 Y60.3460 Z-10.0000 F1000.00
G2 X30.8590 Y59.5316 Z-10.0000 I-4.7364 J-8.2479 F1000.00
G1 X35.7711 Y64.4437 Z-10.0000 F1000.00
G1 X37.0203 Y63.5716 Z-10.0000 F1000.00
G1 X32.1082 Y58.6595 Z-10.0000 F1000.00
G1 X33.3574 Y57.7874 Z-10.0000 F1000.00
G1 X38.2695 Y62.6995 Z-10.0000 F1000.00
G1 X39.5187 Y61.8274 Z-10.0000 F1000.00
G1 X34.6066 Y56.9153 Z-10.0000 F1000.00
G1 X35.8559 Y56.0432 Z-10.0000 F1000.00
G1 X40.7679 Y60.9553 Z-10.0000 F1000.00
G1 X42.0172 Y60.0832 Z-10.0000 F1000.00
G1 X37.1051 Y55.1711 Z-10.0000 F1000.00
G1 X38.3543 Y54.2990 Z-10.0000 F1000.00
G1 X43.2664 Y59.2111 Z-10.0000 F1000.00
G1 X44.5156 Y58.3390 Z-10.0000 F1000.00
G1 X39.6035 Y53.4269 Z-10.0000 F1000.00
G1 X40.8527 Y52.5548 Z-10.0000 F1000.00
G1 X45.7648 Y57.4669 Z-10.0000 F1000.00
G1 X47.0141 Y56.5948 Z-10.0000 F1000.00
G1 X42.1020 Y51.6827 Z-10.0000 F1000.00
G1 X43.3512 Y50.8106 Z-10.0000 F1000.00
G1 X48.2633 Y55.7227 Z-10.0000 F1000.00
G1 X49.5125 Y54.8506 Z-10.0000 F1000.00
G1 X44.6004 Y49.9385 Z-10.0000 F1000.00
G1 X45.8496 Y49.0664 Z-10.0000 F1000.00
G1 X50.7617 Y53.9785 Z-10.0000 F1000.00
G1 X52.0109 Y53.1064 Z-10.0000 F1000.00
G1 X47.0989 Y48.1943 Z-10.0000 F1000.00
G1 X48.3481 Y47.3222 Z-10.0000 F1000.00
G1 X53.2602 Y52.2343 Z-10.0000 F1000.00
G1 X54.5094 Y51.3622 Z-10.0000 F1000.00
G1 X49.5973 Y46.4501 Z-10.0000 F1000.00
G1 X50.8465 Y45.5780 Z-10.0000 F1000.00
G1 X55.7586 Y50.4901 Z-10.0000 F1000.00
G1 X57.0078 Y49.6180 Z-10.0000 F1000.00
G1 X52.0957 Y44.7059 Z-10.0000 F1000.00
G1 X53.3450 Y43.8338 Z-10.0000 F1000.00
G1 X58.2571 Y48.7459 Z-10.0000 F1000.00
G1 X59.5063 Y47.8738 Z-10.0000 F1000.00
G1 X54.5942 Y42.9617 Z-10.0000 F1000.00
G1 X55.8434 Y42.0896 Z-10.0000 F1000.00
G1 X60.7555 Y47.0017 Z-10.0000 F1000.00
G1 X62.0047 Y46.1296 Z-10.0000 F1000.00
G1 X57.0926 Y41.2175 Z-10.0000 F1000.00
G1 X58.3419 Y40.3454 Z-10.0000 F1000.00
G1 X63.2539 Y45.2575 Z-10.0000 F1000.00
G1 X64.5032 Y44.3854 Z-10.0000 F1000.00
G1 X59.5911 Y39.4733 Z-10.0000 F1000.00
G1 X60.8403 Y38.6012 Z-10.0000 F1000.00
G1 X65.7524 Y43.5133 Z-10.0000 F1000.00
G1 X67.0016 Y42.6412 Z-10.0000 F1000.00
G1 X62.0895 Y37.7291 Z-10.0000 F1000.00
G1 X63.3387 Y36.8570 Z-10.0000 F1000.00
G1 X68.2508 Y41.7691 Z-10.0000 F1000.00
G1 X69.5000 Y40.8970 Z-10.0000 F1000.00
G1 X64.5880 Y35.9849 Z-10.0000 F1000.00
G1 X65.8372 Y35.1128 Z-10.0000 F1000.00
G1 X70.7493 Y40.0249 Z-10.0000 F1000.00
G1 X71.9985 Y39.1528 Z-10.0000 F1000.00
G1 X67.0864 Y34.2407 Z-10.0000 F1000.00
G1 X68.3356 Y33.3686 Z-10.0000 F1000.00
G1 X73.2477 Y38.2807 Z-10.0000 F1000.00
G1 X74.4969 Y37.4086 Z-10.0000 F1000.00
G1 X69.5849 Y32.4965 Z-10.0000 F1000.00
G1 X70.8341 Y31.6244 Z-10.0000 F1000.00
G1 X75.7462 Y36.5365 Z-10.0000 F1000.00
G1 X76.9954 Y35.6644 Z-10.0000 F1000.00
G1 X72.0833 Y30.7523 Z-10.0000 F1000.00
G1 X73.3325 Y29.8802 Z-10.0000 F1000.00
G1 X78.2446 Y34.7923 Z-10.0000 F1000.00
G1 X79.4938 Y33.9202 Z-10.0000 F1000.00
G1 X74.5817 Y29.0081 Z-10.0000 F1000.00
G1 X75.8310 Y28.1360 Z-10.0000 F1000.00
G1 X80.7430 Y33.0481 Z-10.0000 F1000.00
G1 X81.9923 Y32.1760 Z-10.0000 F1000.00
G1 X77.0802 Y27.2640 Z-10.0000 F1000.00
G1 X78.3294 Y26.3919 Z-10.0000 F1000.00
G1 X83.2415 Y31.3039 Z-10.0000 F1000.00
G1 X84.4907 Y30.4318 Z-10.0000 F1000.00
G1 X79.5786 Y25.5198 Z-10.0000 F1000.00
G1 X80.8278 Y24.6477 Z-10.0000 F1000.00
G1 X85.7399 Y29.5597 Z-10.0000 F1000.00
G1 X86.9892 Y28.6876 Z-10.0000 F1000.00
G1 X82.0771 Y23.7756 Z-10.0000 F1000.00
G1 X82.8586 Y23.2299 Z-10.0000 F1000.00
G2 X83.2500 Y22.8272 Z-10.0000 I-0.8388 J-1.2066 F1000.00
G1 X88.2384 Y27.8155 Z-10.0000 F1000.00
G1 X89.4876 Y26.9434 Z-10.0000 F1000.00
G1 X83.5000 Y20.9558 Z-10.0000 F1000.00
G1 X83.5000 Y18.8345 Z-10.0000 F1000.00
G1 X90.5000 Y25.8345 Z-10.0000 F1000.00
G1 X90.5000 Y23.7132 Z-10.0000 F1000.00
G1 X83.5000 Y16.7132 Z-10.0000 F1000.00
G1 X83.5000 Y14.5919 Z-10.0000 F1000.00
G1 X90.5000 Y21.5919 Z-10.0000 F1000.00
G1 X90.5000 Y19.4706 Z-10.0000 F1000.00
G1 X83.5000 Y12.4706 Z-10.0000 F1000.00
G1 X83.5000 Y10.3492 Z-10.0000 F1000.00
G1 X90.5000 Y17.3492 Z-10.0000 F1000.00
G1 X90.5000 Y15.2279 Z-10.0000 F1000.00
G1 X83.5000 Y8.2279 Z-10.0000 F1000.00
G1 X83.5000 Y6.1066 Z-10.0000 F1000.00
G1 X90.5000 Y13.1066 Z-10.0000 F1000.00
G1 X90.5000 Y10.9853 Z-10.0000 F1000.00
G1 X83.5000 Y3.9853 Z-10.0000 F1000.00
G1 X83.5000 Y2.5000 Z-10.0000 F1000.00
G1 X84.1360 Y2.5000 Z-10.0000 F1000.00
G1 X90.5000 Y8.8640 Z-10.0000 F1000.00
G1 X90.5000 Y6.7426 Z-10.0000 F1000.00
G1 X86.2574 Y2.5000 Z-10.0000 F1000.00
G1 X88.3787 Y2.5000 Z-10.0000 F1000.00
G1 X90.5000 Y4.6213 Z-10.0000 F1000.00
G1 X90.5000 Y2.5000 Z-10.0000 F1000.00
G1 X90.5000 Y2.5000 Z-10.0000 F300.00
G1 X83.5000 Y2.5000 Z-10.0000 F1000.00
G1 X83.5000 Y22.0000 Z-10.0000 F1000.00
G3 X82.8586 Y23.2299 Z-10.0000 I-1.5000 J-0.0000 F1000.00
G1 X29.8586 Y60.2299 Z-10.0000 F1000.00
G3 X29.0000 Y60.5000 Z-10.0000 I-0.8586 J-1.2299 F1000.00
G1 X26.5000 Y60.5000 Z-10.0000 F1000.00
G1 X26.5000 Y65.0000 Z-10.0000 F1000.00
G3 X25.0000 Y66.5000 Z-10.0000 I-1.5000 J0.0000 F1000.00
G1 X2.5000 Y66.5000 Z-10.0000 F1000.00
G1 X2.5000 Y69.5000 Z-10.0000 F1000.00
G1 X28.5282 Y69.5000 Z-10.0000 F1000.00
G1 X90.5000 Y26.2367 Z-10.0000 F1000.00
G1 X90.5000 Y2.5000 Z-10.0000 F1000.00
G0 Z5.0000
(finish operation: roughing005)
(begin operation: contour)
(Path: contour)
G0 Z5.0000
G0 X72.5200 Y42.4475 Z5.0000
G0 X72.5200 Y42.4475 Z3.0000
G1 X72.5200 Y42.4475 Z0.5000 F300.00
G1 X92.8586 Y28.2488 Z0.5000 F1000.00
G2 X93.5000 Y27.0189 Z0.5000 I-0.8586 J-1.2299 F1000.00
G1 X93.5000 Y1.0000 Z0.5000 F1000.00
G2 X92.0000 Y-0.5000 Z0.5000 I-1.5000 J0.0000 F1000.00
G1 X82.0000 Y-0.5000 Z0.5000 F1000.00
G2 X80.5000 Y1.0000 Z0.5000 I0.0000 J1.5000 F1000.00
G1 X80.5000 Y21.2178 Z0.5000 F1000.00
G1 X28.5282 Y57.5000 Z0.5000 F1000.00
G1 X25.0000 Y57.5000 Z0.5000 F1000.00
G2 X23.5000 Y59.0000 Z0.5000 I0.0000 J1.5000 F1000.00
G1 X23.5000 Y63.5000 Z0.5000 F1000.00
G1 X1.0000 Y63.5000 Z0.5000 F1000.00
G2 X-0.5000 Y65.0000 Z0.5000 I0.0000 J1.5000 F1000.00
G1 X-0.5000 Y71.0000 Z0.5000 F1000.00
G2 X1.0000 Y72.5000 Z0.5000 I1.5000 J-0.0000 F1000.00
G1 X29.0000 Y72.5000 Z0.5000 F1000.00
G2 X29.8586 Y72.2299 Z0.5000 I0.0000 J-1.5000 F1000.00
G1 X72.5200 Y42.4475 Z0.5000 F1000.00
G1 X72.5200 Y42.4475 Z0.0000 F300.00
G1 X92.8586 Y28.2488 Z-0.0000 F1000.00
G2 X93.5000 Y27.0189 Z-0.0000 I-0.8586 J-1.2299 F1000.00
G1 X93.5000 Y1.0000 Z0.0000 F1000.00
G2 X92.0000 Y-0.5000 Z0.0000 I-1.5000 J0.0000 F1000.00
G1 X82.0000 Y-0.5000 Z0.0000 F1000.00
G2 X80.5000 Y1.0000 Z0.0000 I0.0000 J1.5000 F1000.00
G1 X80.5000 Y21.2178 Z-0.0000 F1000.00
G1 X28.5282 Y57.5000 Z-0.0000 F1000.00
G1 X25.0000 Y57.5000 Z-0.0000 F1000.00
G2 X23.5000 Y59.0000 Z-0.0000 I0.0000 J1.5000 F1000.00
G1 X23.5000 Y63.5000 Z-0.0000 F1000.00
G1 X1.0000 Y63.5000 Z-0.0000 F1000.00
G2 X-0.5000 Y65.0000 Z-0.0000 I0.0000 J1.5000 F1000.00
G1 X-0.5000 Y71.0000 Z-0.0000 F1000.00
G2 X1.0000 Y72.5000 Z-0.0000 I1.5000 J-0.0000 F1000.00
G1 X29.0000 Y72.5000 Z-0.0000 F1000.00
G2 X29.8586 Y72.2299 Z-0.0000 I0.0000 J-1.5000 F1000.00
G1 X72.5200 Y42.4475 Z-0.0000 F1000.00
G1 X72.5200 Y42.4475 Z-0.5000 F300.00
G1 X92.8586 Y28.2488 Z-0.5000 F1000.00
G2 X93.5000 Y27.0189 Z-0.5000 I-0.8586 J-1.2299 F1000.00
G1 X93.5000 Y1.0000 Z-0.5000 F1000.00
G2 X92.0000 Y-0.5000 Z-0.5000 I-1.5000 J0.0000 F1000.00
G1 X82.0000 Y-0.5000 Z-0.5000 F1000.00
G2 X80.5000 Y1.0000 Z-0.5000 I0.0000 J1.5000 F1000.00
G1 X80.5000 Y21.2178 Z-0.5000 F1000.00
G1 X28.5282 Y57.5000 Z-0.5000 F1000.00
G1 X25.0000 Y57.5000 Z-0.5000 F1000.00
G2 X23.5000 Y59.0000 Z-0.5000 I0.0000 J1.5000 F1000.00
G1 X23.5000 Y63.5000 Z-0.5000 F1000.00
G1 X1.0000 Y63.5000 Z-0.5000 F1000.00
G2 X-0.5000 Y65.0000 Z-0.5000 I0.0000 J1.5000 F1000.00
G1 X-0.5000 Y71.0000 Z-0.5000 F1000.00
G2 X1.0000 Y72.5000 Z-0.5000 I1.5000 J-0.0000 F1000.00
G1 X29.0000 Y72.5000 Z-0.5000 F1000.00
G2 X29.8586 Y72.2299 Z-0.5000 I0.0000 J-1.5000 F1000.00
G1 X72.5200 Y42.4475 Z-0.5000 F1000.00
G1 X72.5200 Y42.4475 Z-1.0000 F300.00
G1 X92.8586 Y28.2488 Z-1.0000 F1000.00
G2 X93.5000 Y27.0189 Z-1.0000 I-0.8586 J-1.2299 F1000.00
G1 X93.5000 Y1.0000 Z-1.0000 F1000.00
G2 X92.0000 Y-0.5000 Z-1.0000 I-1.5000 J0.0000 F1000.00
G1 X82.0000 Y-0.5000 Z-1.0000 F1000.00
G2 X80.5000 Y1.0000 Z-1.0000 I0.0000 J1.5000 F1000.00
G1 X80.5000 Y21.2178 Z-1.0000 F1000.00
G1 X28.5282 Y57.5000 Z-1.0000 F1000.00
G1 X25.0000 Y57.5000 Z-1.0000 F1000.00
G2 X23.5000 Y59.0000 Z-1.0000 I0.0000 J1.5000 F1000.00
G1 X23.5000 Y63.5000 Z-1.0000 F1000.00
G1 X1.0000 Y63.5000 Z-1.0000 F1000.00
G2 X-0.5000 Y65.0000 Z-1.0000 I0.0000 J1.5000 F1000.00
G1 X-0.5000 Y71.0000 Z-1.0000 F1000.00
G2 X1.0000 Y72.5000 Z-1.0000 I1.5000 J-0.0000 F1000.00
G1 X29.0000 Y72.5000 Z-1.0000 F1000.00
G2 X29.8586 Y72.2299 Z-1.0000 I0.0000 J-1.5000 F1000.00
G1 X72.5200 Y42.4475 Z-1.0000 F1000.00
G1 X72.5200 Y42.4475 Z-1.5000 F300.00
G1 X92.8586 Y28.2488 Z-1.5000 F1000.00
G2 X93.5000 Y27.0189 Z-1.5000 I-0.8586 J-1.2299 F1000.00
G1 X93.5000 Y1.0000 Z-1.5000 F1000.00
G2 X92.0000 Y-0.5000 Z-1.5000 I-1.5000 J0.0000 F1000.00
G1 X82.0000 Y-0.5000 Z-1.5000 F1000.00
G2 X80.5000 Y1.0000 Z-1.5000 I0.0000 J1.5000 F1000.00
G1 X80.5000 Y21.2178 Z-1.5000 F1000.00
G1 X28.5282 Y57.5000 Z-1.5000 F1000.00
G1 X25.0000 Y57.5000 Z-1.5000 F1000.00
G2 X23.5000 Y59.0000 Z-1.5000 I0.0000 J1.5000 F1000.00
G1 X23.5000 Y63.5000 Z-1.5000 F1000.00
G1 X1.0000 Y63.5000 Z-1.5000 F1000.00
G2 X-0.5000 Y65.0000 Z-1.5000 I0.0000 J1.5000 F1000.00
G1 X-0.5000 Y71.0000 Z-1.5000 F1000.00
G2 X1.0000 Y72.5000 Z-1.5000 I1.5000 J-0.0000 F1000.00
G1 X29.0000 Y72.5000 Z-1.5000 F1000.00
G2 X29.8586 Y72.2299 Z-1.5000 I0.0000 J-1.5000 F1000.00
G1 X72.5200 Y42.4475 Z-1.5000 F1000.00
G1 X72.5200 Y42.4475 Z-2.0000 F300.00
G1 X92.8586 Y28.2488 Z-2.0000 F1000.00
G2 X93.5000 Y27.0189 Z-2.0000 I-0.8586 J-1.2299 F1000.00
G1 X93.5000 Y1.0000 Z-2.0000 F1000.00
G2 X92.0000 Y-0.5000 Z-2.0000 I-1.5000 J0.0000 F1000.00
G1 X82.0000 Y-0.5000 Z-2.0000 F1000.00
G2 X80.5000 Y1.0000 Z-2.0000 I0.0000 J1.5000 F1000.00
G1 X80.5000 Y21.2178 Z-2.0000 F1000.00
G1 X28.5282 Y57.5000 Z-2.0000 F1000.00
G1 X25.0000 Y57.5000 Z-2.0000 F1000.00
G2 X23.5000 Y59.0000 Z-2.0000 I0.0000 J1.5000 F1000.00
G1 X23.5000 Y63.5000 Z-2.0000 F1000.00
G1 X1.0000 Y63.5000 Z-2.0000 F1000.00
G2 X-0.5000 Y65.0000 Z-2.0000 I0.0000 J1.5000 F1000.00
G1 X-0.5000 Y71.0000 Z-2.0000 F1000.00
G2 X1.0000 Y72.5000 Z-2.0000 I1.5000 J-0.0000 F1000.00
G1 X29.0000 Y72.5000 Z-2.0000 F1000.00
G2 X29.8586 Y72.2299 Z-2.0000 I0.0000 J-1.5000 F1000.00
G1 X72.5200 Y42.4475 Z-2.0000 F1000.00
G1 X72.5200 Y42.4475 Z-2.5000 F300.00
G1 X92.8586 Y28.2488 Z-2.5000 F1000.00
G2 X93.5000 Y27.0189 Z-2.5000 I-0.8586 J-1.2299 F1000.00
G1 X93.5000 Y1.0000 Z-2.5000 F1000.00
G2 X92.0000 Y-0.5000 Z-2.5000 I-1.5000 J0.0000 F1000.00
G1 X82.0000 Y-0.5000 Z-2.5000 F1000.00
G2 X80.5000 Y1.0000 Z-2.5000 I0.0000 J1.5000 F1000.00
G1 X80.5000 Y21.2178 Z-2.5000 F1000.00
G1 X28.5282 Y57.5000 Z-2.5000 F1000.00
G1 X25.0000 Y57.5000 Z-2.5000 F1000.00
G2 X23.5000 Y59.0000 Z-2.5000 I0.0000 J1.5000 F1000.00
G1 X23.5000 Y63.5000 Z-2.5000 F1000.00
G1 X1.0000 Y63.5000 Z-2.5000 F1000.00
G2 X-0.5000 Y65.0000 Z-2.5000 I0.0000 J1.5000 F1000.00
G1 X-0.5000 Y71.0000 Z-2.5000 F1000.00
G2 X1.0000 Y72.5000 Z-2.5000 I1.5000 J-0.0000 F1000.00
G1 X29.0000 Y72.5000 Z-2.5000 F1000.00
G2 X29.8586 Y72.2299 Z-2.5000 I0.0000 J-1.5000 F1000.00
G1 X72.5200 Y42.4475 Z-2.5000 F1000.00
G1 X72.5200 Y42.4475 Z-3.0000 F300.00
G1 X92.8586 Y28.2488 Z-3.0000 F1000.00
G2 X93.5000 Y27.0189 Z-3.0000 I-0.8586 J-1.2299 F1000.00
G1 X93.5000 Y1.0000 Z-3.0000 F1000.00
G2 X92.0000 Y-0.5000 Z-3.0000 I-1.5000 J0.0000 F1000.00
G1 X82.0000 Y-0.5000 Z-3.0000 F1000.00
G2 X80.5000 Y1.0000 Z-3.0000 I0.0000 J1.5000 F1000.00
G1 X80.5000 Y21.2178 Z-3.0000 F1000.00
G1 X28.5282 Y57.5000 Z-3.0000 F1000.00
G1 X25.0000 Y57.5000 Z-3.0000 F1000.00
G2 X23.5000 Y59.0000 Z-3.0000 I0.0000 J1.5000 F1000.00
G1 X23.5000 Y63.5000 Z-3.0000 F1000.00
G1 X1.0000 Y63.5000 Z-3.0000 F1000.00
G2 X-0.5000 Y65.0000 Z-3.0000 I0.0000 J1.5000 F1000.00
G1 X-0.5000 Y71.0000 Z-3.0000 F1000.00
G2 X1.0000 Y72.5000 Z-3.0000 I1.5000 J-0.0000 F1000.00
G1 X29.0000 Y72.5000 Z-3.0000 F1000.00
G2 X29.8586 Y72.2299 Z-3.0000 I0.0000 J-1.5000 F1000.00
G1 X72.5200 Y42.4475 Z-3.0000 F1000.00
G1 X72.5200 Y42.4475 Z-3.5000 F300.00
G1 X92.8586 Y28.2488 Z-3.5000 F1000.00
G2 X93.5000 Y27.0189 Z-3.5000 I-0.8586 J-1.2299 F1000.00
G1 X93.5000 Y1.0000 Z-3.5000 F1000.00
G2 X92.0000 Y-0.5000 Z-3.5000 I-1.5000 J0.0000 F1000.00
G1 X82.0000 Y-0.5000 Z-3.5000 F1000.00
G2 X80.5000 Y1.0000 Z-3.5000 I0.0000 J1.5000 F1000.00
G1 X80.5000 Y21.2178 Z-3.5000 F1000.00
G1 X28.5282 Y57.5000 Z-3.5000 F1000.00
G1 X25.0000 Y57.5000 Z-3.5000 F1000.00
G2 X23.5000 Y59.0000 Z-3.5000 I0.0000 J1.5000 F1000.00
G1 X23.5000 Y63.5000 Z-3.5000 F1000.00
G1 X1.0000 Y63.5000 Z-3.5000 F1000.00
G2 X-0.5000 Y65.0000 Z-3.5000 I0.0000 J1.5000 F1000.00
G1 X-0.5000 Y71.0000 Z-3.5000 F1000.00
G2 X1.0000 Y72.5000 Z-3.5000 I1.5000 J-0.0000 F1000.00
G1 X29.0000 Y72.5000 Z-3.5000 F1000.00
G2 X29.8586 Y72.2299 Z-3.5000 I0.0000 J-1.5000 F1000.00
G1 X72.5200 Y42.4475 Z-3.5000 F1000.00
G1 X72.5200 Y42.4475 Z-4.0000 F300.00
G1 X92.8586 Y28.2488 Z-4.0000 F1000.00
G2 X93.5000 Y27.0189 Z-4.0000 I-0.8586 J-1.2299 F1000.00
G1 X93.5000 Y1.0000 Z-4.0000 F1000.00
G2 X92.0000 Y-0.5000 Z-4.0000 I-1.5000 J0.0000 F1000.00
G1 X82.0000 Y-0.5000 Z-4.0000 F1000.00
G2 X80.5000 Y1.0000 Z-4.0000 I0.0000 J1.5000 F1000.00
G1 X80.5000 Y21.2178 Z-4.0000 F1000.00
G1 X28.5282 Y57.5000 Z-4.0000 F1000.00
G1 X25.0000 Y57.5000 Z-4.0000 F1000.00
G2 X23.5000 Y59.0000 Z-4.0000 I0.0000 J1.5000 F1000.00
G1 X23.5000 Y63.5000 Z-4.0000 F1000.00
G1 X1.0000 Y63.5000 Z-4.0000 F1000.00
G2 X-0.5000 Y65.0000 Z-4.0000 I0.0000 J1.5000 F1000.00
G1 X-0.5000 Y71.0000 Z-4.0000 F1000.00
G2 X1.0000 Y72.5000 Z-4.0000 I1.5000 J-0.0000 F1000.00
G1 X29.0000 Y72.5000 Z-4.0000 F1000.00
G2 X29.8586 Y72.2299 Z-4.0000 I0.0000 J-1.5000 F1000.00
G1 X72.5200 Y42.4475 Z-4.0000 F1000.00
G1 X72.5200 Y42.4475 Z-4.5000 F300.00
G1 X92.8586 Y28.2488 Z-4.5000 F1000.00
G2 X93.5000 Y27.0189 Z-4.5000 I-0.8586 J-1.2299 F1000.00
G1 X93.5000 Y1.0000 Z-4.5000 F1000.00
G2 X92.0000 Y-0.5000 Z-4.5000 I-1.5000 J0.0000 F1000.00
G1 X82.0000 Y-0.5000 Z-4.5000 F1000.00
G2 X80.5000 Y1.0000 Z-4.5000 I0.0000 J1.5000 F1000.00
G1 X80.5000 Y21.2178 Z-4.5000 F1000.00
G1 X28.5282 Y57.5000 Z-4.5000 F1000.00
G1 X25.0000 Y57.5000 Z-4.5000 F1000.00
G2 X23.5000 Y59.0000 Z-4.5000 I0.0000 J1.5000 F1000.00
G1 X23.5000 Y63.5000 Z-4.5000 F1000.00
G1 X1.0000 Y63.5000 Z-4.5000 F1000.00
G2 X-0.5000 Y65.0000 Z-4.5000 I0.0000 J1.5000 F1000.00
G1 X-0.5000 Y71.0000 Z-4.5000 F1000.00
G2 X1.0000 Y72.5000 Z-4.5000 I1.5000 J-0.0000 F1000.00
G1 X29.0000 Y72.5000 Z-4.5000 F1000.00
G2 X29.8586 Y72.2299 Z-4.5000 I0.0000 J-1.5000 F1000.00
G1 X72.5200 Y42.4475 Z-4.5000 F1000.00
G1 X72.5200 Y42.4475 Z-5.0000 F300.00
G1 X92.8586 Y28.2488 Z-5.0000 F1000.00
G2 X93.5000 Y27.0189 Z-5.0000 I-0.8586 J-1.2299 F1000.00
G1 X93.5000 Y1.0000 Z-5.0000 F1000.00
G2 X92.0000 Y-0.5000 Z-5.0000 I-1.5000 J0.0000 F1000.00
G1 X82.0000 Y-0.5000 Z-5.0000 F1000.00
G2 X80.5000 Y1.0000 Z-5.0000 I0.0000 J1.5000 F1000.00
G1 X80.5000 Y21.2178 Z-5.0000 F1000.00
G1 X28.5282 Y57.5000 Z-5.0000 F1000.00
G1 X25.0000 Y57.5000 Z-5.0000 F1000.00
G2 X23.5000 Y59.0000 Z-5.0000 I0.0000 J1.5000 F1000.00
G1 X23.5000 Y63.5000 Z-5.0000 F1000.00
G1 X1.0000 Y63.5000 Z-5.0000 F1000.00
G2 X-0.5000 Y65.0000 Z-5.0000 I0.0000 J1.5000 F1000.00
G1 X-0.5000 Y71.0000 Z-5.0000 F1000.00
G2 X1.0000 Y72.5000 Z-5.0000 I1.5000 J-0.0000 F1000.00
G1 X29.0000 Y72.5000 Z-5.0000 F1000.00
G2 X29.8586 Y72.2299 Z-5.0000 I0.0000 J-1.5000 F1000.00
G1 X72.5200 Y42.4475 Z-5.0000 F1000.00
G1 X72.5200 Y42.4475 Z-5.5000 F300.00
G1 X92.8586 Y28.2488 Z-5.5000 F1000.00
G2 X93.5000 Y27.0189 Z-5.5000 I-0.8586 J-1.2299 F1000.00
G1 X93.5000 Y1.0000 Z-5.5000 F1000.00
G2 X92.0000 Y-0.5000 Z-5.5000 I-1.5000 J0.0000 F1000.00
G1 X82.0000 Y-0.5000 Z-5.5000 F1000.00
G2 X80.5000 Y1.0000 Z-5.5000 I0.0000 J1.5000 F1000.00
G1 X80.5000 Y21.2178 Z-5.5000 F1000.00
G1 X28.5282 Y57.5000 Z-5.5000 F1000.00
G1 X25.0000 Y57.5000 Z-5.5000 F1000.00
G2 X23.5000 Y59.0000 Z-5.5000 I0.0000 J1.5000 F1000.00
G1 X23.5000 Y63.5000 Z-5.5000 F1000.00
G1 X1.0000 Y63.5000 Z-5.5000 F1000.00
G2 X-0.5000 Y65.0000 Z-5.5000 I0.0000 J1.5000 F1000.00
G1 X-0.5000 Y71.0000 Z-5.5000 F1000.00
G2 X1.0000 Y72.5000 Z-5.5000 I1.5000 J-0.0000 F1000.00
G1 X29.0000 Y72.5000 Z-5.5000 F1000.00
G2 X29.8586 Y72.2299 Z-5.5000 I0.0000 J-1.5000 F1000.00
G1 X72.5200 Y42.4475 Z-5.5000 F1000.00
G1 X72.5200 Y42.4475 Z-6.0000 F300.00
G1 X92.8586 Y28.2488 Z-6.0000 F1000.00
G2 X93.5000 Y27.0189 Z-6.0000 I-0.8586 J-1.2299 F1000.00
G1 X93.5000 Y1.0000 Z-6.0000 F1000.00
G2 X92.0000 Y-0.5000 Z-6.0000 I-1.5000 J0.0000 F1000.00
G1 X82.0000 Y-0.5000 Z-6.0000 F1000.00
G2 X80.5000 Y1.0000 Z-6.0000 I0.0000 J1.5000 F1000.00
G1 X80.5000 Y21.2178 Z-6.0000 F1000.00
G1 X28.5282 Y57.5000 Z-6.0000 F1000.00
G1 X25.0000 Y57.5000 Z-6.0000 F1000.00
G2 X23.5000 Y59.0000 Z-6.0000 I0.0000 J1.5000 F1000.00
G1 X23.5000 Y63.5000 Z-6.0000 F1000.00
G1 X1.0000 Y63.5000 Z-6.0000 F1000.00
G2 X-0.5000 Y65.0000 Z-6.0000 I0.0000 J1.5000 F1000.00
G1 X-0.5000 Y71.0000 Z-6.0000 F1000.00
G2 X1.0000 Y72.5000 Z-6.0000 I1.5000 J-0.0000 F1000.00
G1 X29.0000 Y72.5000 Z-6.0000 F1000.00
G2 X29.8586 Y72.2299 Z-6.0000 I0.0000 J-1.5000 F1000.00
G1 X72.5200 Y42.4475 Z-6.0000 F1000.00
G1 X72.5200 Y42.4475 Z-6.5000 F300.00
G1 X92.8586 Y28.2488 Z-6.5000 F1000.00
G2 X93.5000 Y27.0189 Z-6.5000 I-0.8586 J-1.2299 F1000.00
G1 X93.5000 Y1.0000 Z-6.5000 F1000.00
G2 X92.0000 Y-0.5000 Z-6.5000 I-1.5000 J0.0000 F1000.00
G1 X82.0000 Y-0.5000 Z-6.5000 F1000.00
G2 X80.5000 Y1.0000 Z-6.5000 I0.0000 J1.5000 F1000.00
G1 X80.5000 Y21.2178 Z-6.5000 F1000.00
G1 X28.5282 Y57.5000 Z-6.5000 F1000.00
G1 X25.0000 Y57.5000 Z-6.5000 F1000.00
G2 X23.5000 Y59.0000 Z-6.5000 I0.0000 J1.5000 F1000.00
G1 X23.5000 Y63.5000 Z-6.5000 F1000.00
G1 X1.0000 Y63.5000 Z-6.5000 F1000.00
G2 X-0.5000 Y65.0000 Z-6.5000 I0.0000 J1.5000 F1000.00
G1 X-0.5000 Y71.0000 Z-6.5000 F1000.00
G2 X1.0000 Y72.5000 Z-6.5000 I1.5000 J-0.0000 F1000.00
G1 X29.0000 Y72.5000 Z-6.5000 F1000.00
G2 X29.8586 Y72.2299 Z-6.5000 I0.0000 J-1.5000 F1000.00
G1 X72.5200 Y42.4475 Z-6.5000 F1000.00
G1 X72.5200 Y42.4475 Z-7.0000 F300.00
G1 X92.8586 Y28.2488 Z-7.0000 F1000.00
G2 X93.5000 Y27.0189 Z-7.0000 I-0.8586 J-1.2299 F1000.00
G1 X93.5000 Y1.0000 Z-7.0000 F1000.00
G2 X92.0000 Y-0.5000 Z-7.0000 I-1.5000 J0.0000 F1000.00
G1 X82.0000 Y-0.5000 Z-7.0000 F1000.00
G2 X80.5000 Y1.0000 Z-7.0000 I0.0000 J1.5000 F1000.00
G1 X80.5000 Y21.2178 Z-7.0000 F1000.00
G1 X28.5282 Y57.5000 Z-7.0000 F1000.00
G1 X25.0000 Y57.5000 Z-7.0000 F1000.00
G2 X23.5000 Y59.0000 Z-7.0000 I0.0000 J1.5000 F1000.00
G1 X23.5000 Y63.5000 Z-7.0000 F1000.00
G1 X1.0000 Y63.5000 Z-7.0000 F1000.00
G2 X-0.5000 Y65.0000 Z-7.0000 I0.0000 J1.5000 F1000.00
G1 X-0.5000 Y71.0000 Z-7.0000 F1000.00
G2 X1.0000 Y72.5000 Z-7.0000 I1.5000 J-0.0000 F1000.00
G1 X29.0000 Y72.5000 Z-7.0000 F1000.00
G2 X29.8586 Y72.2299 Z-7.0000 I0.0000 J-1.5000 F1000.00
G1 X72.5200 Y42.4475 Z-7.0000 F1000.00
G1 X72.5200 Y42.4475 Z-7.5000 F300.00
G1 X92.8586 Y28.2488 Z-7.5000 F1000.00
G2 X93.5000 Y27.0189 Z-7.5000 I-0.8586 J-1.2299 F1000.00
G1 X93.5000 Y1.0000 Z-7.5000 F1000.00
G2 X92.0000 Y-0.5000 Z-7.5000 I-1.5000 J0.0000 F1000.00
G1 X82.0000 Y-0.5000 Z-7.5000 F1000.00
G2 X80.5000 Y1.0000 Z-7.5000 I0.0000 J1.5000 F1000.00
G1 X80.5000 Y21.2178 Z-7.5000 F1000.00
G1 X28.5282 Y57.5000 Z-7.5000 F1000.00
G1 X25.0000 Y57.5000 Z-7.5000 F1000.00
G2 X23.5000 Y59.0000 Z-7.5000 I0.0000 J1.5000 F1000.00
G1 X23.5000 Y63.5000 Z-7.5000 F1000.00
G1 X1.0000 Y63.5000 Z-7.5000 F1000.00
G2 X-0.5000 Y65.0000 Z-7.5000 I0.0000 J1.5000 F1000.00
G1 X-0.5000 Y71.0000 Z-7.5000 F1000.00
G2 X1.0000 Y72.5000 Z-7.5000 I1.5000 J-0.0000 F1000.00
G1 X29.0000 Y72.5000 Z-7.5000 F1000.00
G2 X29.8586 Y72.2299 Z-7.5000 I0.0000 J-1.5000 F1000.00
G1 X72.5200 Y42.4475 Z-7.5000 F1000.00
G1 X72.5200 Y42.4475 Z-8.0000 F300.00
G1 X92.8586 Y28.2488 Z-8.0000 F1000.00
G2 X93.5000 Y27.0189 Z-8.0000 I-0.8586 J-1.2299 F1000.00
G1 X93.5000 Y1.0000 Z-8.0000 F1000.00
G2 X92.0000 Y-0.5000 Z-8.0000 I-1.5000 J0.0000 F1000.00
G1 X82.0000 Y-0.5000 Z-8.0000 F1000.00
G2 X80.5000 Y1.0000 Z-8.0000 I0.0000 J1.5000 F1000.00
G1 X80.5000 Y21.2178 Z-8.0000 F1000.00
G1 X28.5282 Y57.5000 Z-8.0000 F1000.00
G1 X25.0000 Y57.5000 Z-8.0000 F1000.00
G2 X23.5000 Y59.0000 Z-8.0000 I0.0000 J1.5000 F1000.00
G1 X23.5000 Y63.5000 Z-8.0000 F1000.00
G1 X1.0000 Y63.5000 Z-8.0000 F1000.00
G2 X-0.5000 Y65.0000 Z-8.0000 I0.0000 J1.5000 F1000.00
G1 X-0.5000 Y71.0000 Z-8.0000 F1000.00
G2 X1.0000 Y72.5000 Z-8.0000 I1.5000 J-0.0000 F1000.00
G1 X29.0000 Y72.5000 Z-8.0000 F1000.00
G2 X29.8586 Y72.2299 Z-8.0000 I0.0000 J-1.5000 F1000.00
G1 X72.5200 Y42.4475 Z-8.0000 F1000.00
G1 X72.5200 Y42.4475 Z-8.5000 F300.00
G1 X92.8586 Y28.2488 Z-8.5000 F1000.00
G2 X93.5000 Y27.0189 Z-8.5000 I-0.8586 J-1.2299 F1000.00
G1 X93.5000 Y1.0000 Z-8.5000 F1000.00
G2 X92.0000 Y-0.5000 Z-8.5000 I-1.5000 J0.0000 F1000.00
G1 X82.0000 Y-0.5000 Z-8.5000 F1000.00
G2 X80.5000 Y1.0000 Z-8.5000 I0.0000 J1.5000 F1000.00
G1 X80.5000 Y21.2178 Z-8.5000 F1000.00
G1 X28.5282 Y57.5000 Z-8.5000 F1000.00
G1 X25.0000 Y57.5000 Z-8.5000 F1000.00
G2 X23.5000 Y59.0000 Z-8.5000 I0.0000 J1.5000 F1000.00
G1 X23.5000 Y63.5000 Z-8.5000 F1000.00
G1 X1.0000 Y63.5000 Z-8.5000 F1000.00
G2 X-0.5000 Y65.0000 Z-8.5000 I0.0000 J1.5000 F1000.00
G1 X-0.5000 Y71.0000 Z-8.5000 F1000.00
G2 X1.0000 Y72.5000 Z-8.5000 I1.5000 J-0.0000 F1000.00
G1 X29.0000 Y72.5000 Z-8.5000 F1000.00
G2 X29.8586 Y72.2299 Z-8.5000 I0.0000 J-1.5000 F1000.00
G1 X72.5200 Y42.4475 Z-8.5000 F1000.00
G1 X72.5200 Y42.4475 Z-9.0000 F300.00
G1 X92.8586 Y28.2488 Z-9.0000 F1000.00
G2 X93.5000 Y27.0189 Z-9.0000 I-0.8586 J-1.2299 F1000.00
G1 X93.5000 Y1.0000 Z-9.0000 F1000.00
G2 X92.0000 Y-0.5000 Z-9.0000 I-1.5000 J0.0000 F1000.00
G1 X82.0000 Y-0.5000 Z-9.0000 F1000.00
G2 X80.5000 Y1.0000 Z-9.0000 I0.0000 J1.5000 F1000.00
G1 X80.5000 Y21.2178 Z-9.0000 F1000.00
G1 X28.5282 Y57.5000 Z-9.0000 F1000.00
G1 X25.0000 Y57.5000 Z-9.0000 F1000.00
G2 X23.5000 Y59.0000 Z-9.0000 I0.0000 J1.5000 F1000.00
G1 X23.5000 Y63.5000 Z-9.0000 F1000.00
G1 X1.0000 Y63.5000 Z-9.0000 F1000.00
G2 X-0.5000 Y65.0000 Z-9.0000 I0.0000 J1.5000 F1000.00
G1 X-0.5000 Y71.0000 Z-9.0000 F1000.00
G2 X1.0000 Y72.5000 Z-9.0000 I1.5000 J-0.0000 F1000.00
G1 X29.0000 Y72.5000 Z-9.0000 F1000.00
G2 X29.8586 Y72.2299 Z-9.0000 I0.0000 J-1.5000 F1000.00
G1 X72.5200 Y42.4475 Z-9.0000 F1000.00
G1 X72.5200 Y42.4475 Z-9.5000 F300.00
G1 X92.8586 Y28.2488 Z-9.5000 F1000.00
G2 X93.5000 Y27.0189 Z-9.5000 I-0.8586 J-1.2299 F1000.00
G1 X93.5000 Y1.0000 Z-9.5000 F1000.00
G2 X92.0000 Y-0.5000 Z-9.5000 I-1.5000 J0.0000 F1000.00
G1 X82.0000 Y-0.5000 Z-9.5000 F1000.00
G2 X80.5000 Y1.0000 Z-9.5000 I0.0000 J1.5000 F1000.00
G1 X80.5000 Y21.2178 Z-9.5000 F1000.00
G1 X28.5282 Y57.5000 Z-9.5000 F1000.00
G1 X25.0000 Y57.5000 Z-9.5000 F1000.00
G2 X23.5000 Y59.0000 Z-9.5000 I0.0000 J1.5000 F1000.00
G1 X23.5000 Y63.5000 Z-9.5000 F1000.00
G1 X1.0000 Y63.5000 Z-9.5000 F1000.00
G2 X-0.5000 Y65.0000 Z-9.5000 I0.0000 J1.5000 F1000.00
G1 X-0.5000 Y71.0000 Z-9.5000 F1000.00
G2 X1.0000 Y72.5000 Z-9.5000 I1.5000 J-0.0000 F1000.00
G1 X29.0000 Y72.5000 Z-9.5000 F1000.00
G2 X29.8586 Y72.2299 Z-9.5000 I0.0000 J-1.5000 F1000.00
G1 X72.5200 Y42.4475 Z-9.5000 F1000.00
G1 X72.5200 Y42.4475 Z-10.0000 F300.00
G1 X92.8586 Y28.2488 Z-10.0000 F1000.00
G2 X93.5000 Y27.0189 Z-10.0000 I-0.8586 J-1.2299 F1000.00
G1 X93.5000 Y1.0000 Z-10.0000 F1000.00
G2 X92.0000 Y-0.5000 Z-10.0000 I-1.5000 J0.0000 F1000.00
G1 X82.0000 Y-0.5000 Z-10.0000 F1000.00
G2 X80.5000 Y1.0000 Z-10.0000 I0.0000 J1.5000 F1000.00
G1 X80.5000 Y21.2178 Z-10.0000 F1000.00
G1 X28.5282 Y57.5000 Z-10.0000 F1000.00
G1 X25.0000 Y57.5000 Z-10.0000 F1000.00
G2 X23.5000 Y59.0000 Z-10.0000 I0.0000 J1.5000 F1000.00
G1 X23.5000 Y63.5000 Z-10.0000 F1000.00
G1 X1.0000 Y63.5000 Z-10.0000 F1000.00
G2 X-0.5000 Y65.0000 Z-10.0000 I0.0000 J1.5000 F1000.00
G1 X-0.5000 Y71.0000 Z-10.0000 F1000.00
G2 X1.0000 Y72.5000 Z-10.0000 I1.5000 J-0.0000 F1000.00
G1 X29.0000 Y72.5000 Z-10.0000 F1000.00
G2 X29.8586 Y72.2299 Z-10.0000 I0.0000 J-1.5000 F1000.00
G1 X72.5200 Y42.4475 Z-10.0000 F1000.00
G1 X72.5200 Y42.4475 Z-10.5000 F300.00
G1 X92.8586 Y28.2488 Z-10.5000 F1000.00
G2 X93.5000 Y27.0189 Z-10.5000 I-0.8586 J-1.2299 F1000.00
G1 X93.5000 Y1.0000 Z-10.5000 F1000.00
G2 X92.0000 Y-0.5000 Z-10.5000 I-1.5000 J0.0000 F1000.00
G1 X82.0000 Y-0.5000 Z-10.5000 F1000.00
G2 X80.5000 Y1.0000 Z-10.5000 I0.0000 J1.5000 F1000.00
G1 X80.5000 Y21.2178 Z-10.5000 F1000.00
G1 X28.5282 Y57.5000 Z-10.5000 F1000.00
G1 X25.0000 Y57.5000 Z-10.5000 F1000.00
G2 X23.5000 Y59.0000 Z-10.5000 I0.0000 J1.5000 F1000.00
G1 X23.5000 Y63.5000 Z-10.5000 F1000.00
G1 X1.0000 Y63.5000 Z-10.5000 F1000.00
G2 X-0.5000 Y65.0000 Z-10.5000 I0.0000 J1.5000 F1000.00
G1 X-0.5000 Y71.0000 Z-10.5000 F1000.00
G2 X1.0000 Y72.5000 Z-10.5000 I1.5000 J-0.0000 F1000.00
G1 X29.0000 Y72.5000 Z-10.5000 F1000.00
G2 X29.8586 Y72.2299 Z-10.5000 I0.0000 J-1.5000 F1000.00
G1 X72.5200 Y42.4475 Z-10.5000 F1000.00
G1 X72.5200 Y42.4475 Z-11.0000 F300.00
G1 X92.8586 Y28.2488 Z-11.0000 F1000.00
G2 X93.5000 Y27.0189 Z-11.0000 I-0.8586 J-1.2299 F1000.00
G1 X93.5000 Y1.0000 Z-11.0000 F1000.00
G2 X92.0000 Y-0.5000 Z-11.0000 I-1.5000 J0.0000 F1000.00
G1 X82.0000 Y-0.5000 Z-11.0000 F1000.00
G2 X80.5000 Y1.0000 Z-11.0000 I0.0000 J1.5000 F1000.00
G1 X80.5000 Y21.2178 Z-11.0000 F1000.00
G1 X28.5282 Y57.5000 Z-11.0000 F1000.00
G1 X25.0000 Y57.5000 Z-11.0000 F1000.00
G2 X23.5000 Y59.0000 Z-11.0000 I0.0000 J1.5000 F1000.00
G1 X23.5000 Y63.5000 Z-11.0000 F1000.00
G1 X1.0000 Y63.5000 Z-11.0000 F1000.00
G2 X-0.5000 Y65.0000 Z-11.0000 I0.0000 J1.5000 F1000.00
G1 X-0.5000 Y71.0000 Z-11.0000 F1000.00
G2 X1.0000 Y72.5000 Z-11.0000 I1.5000 J-0.0000 F1000.00
G1 X29.0000 Y72.5000 Z-11.0000 F1000.00
G2 X29.8586 Y72.2299 Z-11.0000 I0.0000 J-1.5000 F1000.00
G1 X72.5200 Y42.4475 Z-11.0000 F1000.00
G1 X72.5200 Y42.4475 Z-11.5000 F300.00
G1 X92.8586 Y28.2488 Z-11.5000 F1000.00
G2 X93.5000 Y27.0189 Z-11.5000 I-0.8586 J-1.2299 F1000.00
G1 X93.5000 Y1.0000 Z-11.5000 F1000.00
G2 X92.0000 Y-0.5000 Z-11.5000 I-1.5000 J0.0000 F1000.00
G1 X82.0000 Y-0.5000 Z-11.5000 F1000.00
G2 X80.5000 Y1.0000 Z-11.5000 I0.0000 J1.5000 F1000.00
G1 X80.5000 Y21.2178 Z-11.5000 F1000.00
G1 X28.5282 Y57.5000 Z-11.5000 F1000.00
G1 X25.0000 Y57.5000 Z-11.5000 F1000.00
G2 X23.5000 Y59.0000 Z-11.5000 I0.0000 J1.5000 F1000.00
G1 X23.5000 Y63.5000 Z-11.5000 F1000.00
G1 X1.0000 Y63.5000 Z-11.5000 F1000.00
G2 X-0.5000 Y65.0000 Z-11.5000 I0.0000 J1.5000 F1000.00
G1 X-0.5000 Y71.0000 Z-11.5000 F1000.00
G2 X1.0000 Y72.5000 Z-11.5000 I1.5000 J-0.0000 F1000.00
G1 X29.0000 Y72.5000 Z-11.5000 F1000.00
G2 X29.8586 Y72.2299 Z-11.5000 I0.0000 J-1.5000 F1000.00
G1 X72.5200 Y42.4475 Z-11.5000 F1000.00
G1 X72.5200 Y42.4475 Z-12.0000 F300.00
G1 X92.8586 Y28.2488 Z-12.0000 F1000.00
G2 X93.5000 Y27.0189 Z-12.0000 I-0.8586 J-1.2299 F1000.00
G1 X93.5000 Y1.0000 Z-12.0000 F1000.00
G2 X92.0000 Y-0.5000 Z-12.0000 I-1.5000 J0.0000 F1000.00
G1 X82.0000 Y-0.5000 Z-12.0000 F1000.00
G2 X80.5000 Y1.0000 Z-12.0000 I0.0000 J1.5000 F1000.00
G1 X80.5000 Y21.2178 Z-12.0000 F1000.00
G1 X28.5282 Y57.5000 Z-12.0000 F1000.00
G1 X25.0000 Y57.5000 Z-12.0000 F1000.00
G2 X23.5000 Y59.0000 Z-12.0000 I0.0000 J1.5000 F1000.00
G1 X23.5000 Y63.5000 Z-12.0000 F1000.00
G1 X1.0000 Y63.5000 Z-12.0000 F1000.00
G2 X-0.5000 Y65.0000 Z-12.0000 I0.0000 J1.5000 F1000.00
G1 X-0.5000 Y71.0000 Z-12.0000 F1000.00
G2 X1.0000 Y72.5000 Z-12.0000 I1.5000 J-0.0000 F1000.00
G1 X29.0000 Y72.5000 Z-12.0000 F1000.00
G2 X29.8586 Y72.2299 Z-12.0000 I0.0000 J-1.5000 F1000.00
G1 X72.5200 Y42.4475 Z-12.0000 F1000.00
G1 X72.5200 Y42.4475 Z-12.5000 F300.00
G1 X92.8586 Y28.2488 Z-12.5000 F1000.00
G2 X93.5000 Y27.0189 Z-12.5000 I-0.8586 J-1.2299 F1000.00
G1 X93.5000 Y1.0000 Z-12.5000 F1000.00
G2 X92.0000 Y-0.5000 Z-12.5000 I-1.5000 J0.0000 F1000.00
G1 X82.0000 Y-0.5000 Z-12.5000 F1000.00
G2 X80.5000 Y1.0000 Z-12.5000 I0.0000 J1.5000 F1000.00
G1 X80.5000 Y21.2178 Z-12.5000 F1000.00
G1 X28.5282 Y57.5000 Z-12.5000 F1000.00
G1 X25.0000 Y57.5000 Z-12.5000 F1000.00
G2 X23.5000 Y59.0000 Z-12.5000 I0.0000 J1.5000 F1000.00
G1 X23.5000 Y63.5000 Z-12.5000 F1000.00
G1 X1.0000 Y63.5000 Z-12.5000 F1000.00
G2 X-0.5000 Y65.0000 Z-12.5000 I0.0000 J1.5000 F1000.00
G1 X-0.5000 Y71.0000 Z-12.5000 F1000.00
G2 X1.0000 Y72.5000 Z-12.5000 I1.5000 J-0.0000 F1000.00
G1 X29.0000 Y72.5000 Z-12.5000 F1000.00
G2 X29.8586 Y72.2299 Z-12.5000 I0.0000 J-1.5000 F1000.00
G1 X72.5200 Y42.4475 Z-12.5000 F1000.00
G1 X72.5200 Y42.4475 Z-13.0000 F300.00
G1 X92.8586 Y28.2488 Z-13.0000 F1000.00
G2 X93.5000 Y27.0189 Z-13.0000 I-0.8586 J-1.2299 F1000.00
G1 X93.5000 Y1.0000 Z-13.0000 F1000.00
G2 X92.0000 Y-0.5000 Z-13.0000 I-1.5000 J0.0000 F1000.00
G1 X82.0000 Y-0.5000 Z-13.0000 F1000.00
G2 X80.5000 Y1.0000 Z-13.0000 I0.0000 J1.5000 F1000.00
G1 X80.5000 Y21.2178 Z-13.0000 F1000.00
G1 X28.5282 Y57.5000 Z-13.0000 F1000.00
G1 X25.0000 Y57.5000 Z-13.0000 F1000.00
G2 X23.5000 Y59.0000 Z-13.0000 I0.0000 J1.5000 F1000.00
G1 X23.5000 Y63.5000 Z-13.0000 F1000.00
G1 X1.0000 Y63.5000 Z-13.0000 F1000.00
G2 X-0.5000 Y65.0000 Z-13.0000 I0.0000 J1.5000 F1000.00
G1 X-0.5000 Y71.0000 Z-13.0000 F1000.00
G2 X1.0000 Y72.5000 Z-13.0000 I1.5000 J-0.0000 F1000.00
G1 X29.0000 Y72.5000 Z-13.0000 F1000.00
G2 X29.8586 Y72.2299 Z-13.0000 I0.0000 J-1.5000 F1000.00
G1 X72.5200 Y42.4475 Z-13.0000 F1000.00
G1 X72.5200 Y42.4475 Z-13.5000 F300.00
G1 X92.8586 Y28.2488 Z-13.5000 F1000.00
G2 X93.5000 Y27.0189 Z-13.5000 I-0.8586 J-1.2299 F1000.00
G1 X93.5000 Y1.0000 Z-13.5000 F1000.00
G2 X92.0000 Y-0.5000 Z-13.5000 I-1.5000 J0.0000 F1000.00
G1 X82.0000 Y-0.5000 Z-13.5000 F1000.00
G2 X80.5000 Y1.0000 Z-13.5000 I0.0000 J1.5000 F1000.00
G1 X80.5000 Y21.2178 Z-13.5000 F1000.00
G1 X28.5282 Y57.5000 Z-13.5000 F1000.00
G1 X25.0000 Y57.5000 Z-13.5000 F1000.00
G2 X23.5000 Y59.0000 Z-13.5000 I0.0000 J1.5000 F1000.00
G1 X23.5000 Y63.5000 Z-13.5000 F1000.00
G1 X1.0000 Y63.5000 Z-13.5000 F1000.00
G2 X-0.5000 Y65.0000 Z-13.5000 I0.0000 J1.5000 F1000.00
G1 X-0.5000 Y71.0000 Z-13.5000 F1000.00
G2 X1.0000 Y72.5000 Z-13.5000 I1.5000 J-0.0000 F1000.00
G1 X29.0000 Y72.5000 Z-13.5000 F1000.00
G2 X29.8586 Y72.2299 Z-13.5000 I0.0000 J-1.5000 F1000.00
G1 X72.5200 Y42.4475 Z-13.5000 F1000.00
G1 X72.5200 Y42.4475 Z-14.0000 F300.00
G1 X92.8586 Y28.2488 Z-14.0000 F1000.00
G2 X93.5000 Y27.0189 Z-14.0000 I-0.8586 J-1.2299 F1000.00
G1 X93.5000 Y1.0000 Z-14.0000 F1000.00
G2 X92.0000 Y-0.5000 Z-14.0000 I-1.5000 J0.0000 F1000.00
G1 X82.0000 Y-0.5000 Z-14.0000 F1000.00
G2 X80.5000 Y1.0000 Z-14.0000 I0.0000 J1.5000 F1000.00
G1 X80.5000 Y21.2178 Z-14.0000 F1000.00
G1 X28.5282 Y57.5000 Z-14.0000 F1000.00
G1 X25.0000 Y57.5000 Z-14.0000 F1000.00
G2 X23.5000 Y59.0000 Z-14.0000 I0.0000 J1.5000 F1000.00
G1 X23.5000 Y63.5000 Z-14.0000 F1000.00
G1 X1.0000 Y63.5000 Z-14.0000 F1000.00
G2 X-0.5000 Y65.0000 Z-14.0000 I0.0000 J1.5000 F1000.00
G1 X-0.5000 Y71.0000 Z-14.0000 F1000.00
G2 X1.0000 Y72.5000 Z-14.0000 I1.5000 J-0.0000 F1000.00
G1 X29.0000 Y72.5000 Z-14.0000 F1000.00
G2 X29.8586 Y72.2299 Z-14.0000 I0.0000 J-1.5000 F1000.00
G1 X72.5200 Y42.4475 Z-14.0000 F1000.00
G1 X72.5200 Y42.4475 Z-14.5000 F300.00
G1 X92.8586 Y28.2488 Z-14.5000 F1000.00
G2 X93.5000 Y27.0189 Z-14.5000 I-0.8586 J-1.2299 F1000.00
G1 X93.5000 Y1.0000 Z-14.5000 F1000.00
G2 X92.0000 Y-0.5000 Z-14.5000 I-1.5000 J0.0000 F1000.00
G1 X82.0000 Y-0.5000 Z-14.5000 F1000.00
G2 X80.5000 Y1.0000 Z-14.5000 I0.0000 J1.5000 F1000.00
G1 X80.5000 Y21.2178 Z-14.5000 F1000.00
G1 X28.5282 Y57.5000 Z-14.5000 F1000.00
G1 X25.0000 Y57.5000 Z-14.5000 F1000.00
G2 X23.5000 Y59.0000 Z-14.5000 I0.0000 J1.5000 F1000.00
G1 X23.5000 Y63.5000 Z-14.5000 F1000.00
G1 X1.0000 Y63.5000 Z-14.5000 F1000.00
G2 X-0.5000 Y65.0000 Z-14.5000 I0.0000 J1.5000 F1000.00
G1 X-0.5000 Y71.0000 Z-14.5000 F1000.00
G2 X1.0000 Y72.5000 Z-14.5000 I1.5000 J-0.0000 F1000.00
G1 X29.0000 Y72.5000 Z-14.5000 F1000.00
G2 X29.8586 Y72.2299 Z-14.5000 I0.0000 J-1.5000 F1000.00
G1 X72.5200 Y42.4475 Z-14.5000 F1000.00
G1 X72.5200 Y42.4475 Z-15.0000 F300.00
G1 X92.8586 Y28.2488 Z-15.0000 F1000.00
G2 X93.5000 Y27.0189 Z-15.0000 I-0.8586 J-1.2299 F1000.00
G1 X93.5000 Y1.0000 Z-15.0000 F1000.00
G2 X92.0000 Y-0.5000 Z-15.0000 I-1.5000 J0.0000 F1000.00
G1 X82.0000 Y-0.5000 Z-15.0000 F1000.00
G2 X80.5000 Y1.0000 Z-15.0000 I0.0000 J1.5000 F1000.00
G1 X80.5000 Y21.2178 Z-15.0000 F1000.00
G1 X28.5282 Y57.5000 Z-15.0000 F1000.00
G1 X25.0000 Y57.5000 Z-15.0000 F1000.00
G2 X23.5000 Y59.0000 Z-15.0000 I0.0000 J1.5000 F1000.00
G1 X23.5000 Y63.5000 Z-15.0000 F1000.00
G1 X1.0000 Y63.5000 Z-15.0000 F1000.00
G2 X-0.5000 Y65.0000 Z-15.0000 I0.0000 J1.5000 F1000.00
G1 X-0.5000 Y71.0000 Z-15.0000 F1000.00
G2 X1.0000 Y72.5000 Z-15.0000 I1.5000 J-0.0000 F1000.00
G1 X29.0000 Y72.5000 Z-15.0000 F1000.00
G2 X29.8586 Y72.2299 Z-15.0000 I0.0000 J-1.5000 F1000.00
G1 X72.5200 Y42.4475 Z-15.0000 F1000.00
G1 X72.5200 Y42.4475 Z-15.5000 F300.00
G1 X92.8586 Y28.2488 Z-15.5000 F1000.00
G2 X93.5000 Y27.0189 Z-15.5000 I-0.8586 J-1.2299 F1000.00
G1 X93.5000 Y1.0000 Z-15.5000 F1000.00
G2 X92.0000 Y-0.5000 Z-15.5000 I-1.5000 J0.0000 F1000.00
G1 X82.0000 Y-0.5000 Z-15.5000 F1000.00
G2 X80.5000 Y1.0000 Z-15.5000 I0.0000 J1.5000 F1000.00
G1 X80.5000 Y21.2178 Z-15.5000 F1000.00
G1 X28.5282 Y57.5000 Z-15.5000 F1000.00
G1 X25.0000 Y57.5000 Z-15.5000 F1000.00
G2 X23.5000 Y59.0000 Z-15.5000 I0.0000 J1.5000 F1000.00
G1 X23.5000 Y63.5000 Z-15.5000 F1000.00
G1 X1.0000 Y63.5000 Z-15.5000 F1000.00
G2 X-0.5000 Y65.0000 Z-15.5000 I0.0000 J1.5000 F1000.00
G1 X-0.5000 Y71.0000 Z-15.5000 F1000.00
G2 X1.0000 Y72.5000 Z-15.5000 I1.5000 J-0.0000 F1000.00
G1 X29.0000 Y72.5000 Z-15.5000 F1000.00
G2 X29.8586 Y72.2299 Z-15.5000 I0.0000 J-1.5000 F1000.00
G1 X72.5200 Y42.4475 Z-15.5000 F1000.00
G1 X72.5200 Y42.4475 Z-16.0000 F300.00
G1 X92.8586 Y28.2488 Z-16.0000 F1000.00
G2 X93.5000 Y27.0189 Z-16.0000 I-0.8586 J-1.2299 F1000.00
G1 X93.5000 Y1.0000 Z-16.0000 F1000.00
G2 X92.0000 Y-0.5000 Z-16.0000 I-1.5000 J0.0000 F1000.00
G1 X82.0000 Y-0.5000 Z-16.0000 F1000.00
G2 X80.5000 Y1.0000 Z-16.0000 I0.0000 J1.5000 F1000.00
G1 X80.5000 Y21.2178 Z-16.0000 F1000.00
G1 X28.5282 Y57.5000 Z-16.0000 F1000.00
G1 X25.0000 Y57.5000 Z-16.0000 F1000.00
G2 X23.5000 Y59.0000 Z-16.0000 I0.0000 J1.5000 F1000.00
G1 X23.5000 Y63.5000 Z-16.0000 F1000.00
G1 X1.0000 Y63.5000 Z-16.0000 F1000.00
G2 X-0.5000 Y65.0000 Z-16.0000 I0.0000 J1.5000 F1000.00
G1 X-0.5000 Y71.0000 Z-16.0000 F1000.00
G2 X1.0000 Y72.5000 Z-16.0000 I1.5000 J-0.0000 F1000.00
G1 X29.0000 Y72.5000 Z-16.0000 F1000.00
G2 X29.8586 Y72.2299 Z-16.0000 I0.0000 J-1.5000 F1000.00
G1 X72.5200 Y42.4475 Z-16.0000 F1000.00
G1 X72.5200 Y42.4475 Z-16.5000 F300.00
G1 X92.8586 Y28.2488 Z-16.5000 F1000.00
G2 X93.5000 Y27.0189 Z-16.5000 I-0.8586 J-1.2299 F1000.00
G1 X93.5000 Y1.0000 Z-16.5000 F1000.00
G2 X92.0000 Y-0.5000 Z-16.5000 I-1.5000 J0.0000 F1000.00
G1 X82.0000 Y-0.5000 Z-16.5000 F1000.00
G2 X80.5000 Y1.0000 Z-16.5000 I0.0000 J1.5000 F1000.00
G1 X80.5000 Y21.2178 Z-16.5000 F1000.00
G1 X28.5282 Y57.5000 Z-16.5000 F1000.00
G1 X25.0000 Y57.5000 Z-16.5000 F1000.00
G2 X23.5000 Y59.0000 Z-16.5000 I0.0000 J1.5000 F1000.00
G1 X23.5000 Y63.5000 Z-16.5000 F1000.00
G1 X1.0000 Y63.5000 Z-16.5000 F1000.00
G2 X-0.5000 Y65.0000 Z-16.5000 I0.0000 J1.5000 F1000.00
G1 X-0.5000 Y71.0000 Z-16.5000 F1000.00
G2 X1.0000 Y72.5000 Z-16.5000 I1.5000 J-0.0000 F1000.00
G1 X29.0000 Y72.5000 Z-16.5000 F1000.00
G2 X29.8586 Y72.2299 Z-16.5000 I0.0000 J-1.5000 F1000.00
G1 X72.5200 Y42.4475 Z-16.5000 F1000.00
G1 X72.5200 Y42.4475 Z-17.0000 F300.00
G1 X92.8586 Y28.2488 Z-17.0000 F1000.00
G2 X93.5000 Y27.0189 Z-17.0000 I-0.8586 J-1.2299 F1000.00
G1 X93.5000 Y1.0000 Z-17.0000 F1000.00
G2 X92.0000 Y-0.5000 Z-17.0000 I-1.5000 J0.0000 F1000.00
G1 X82.0000 Y-0.5000 Z-17.0000 F1000.00
G2 X80.5000 Y1.0000 Z-17.0000 I0.0000 J1.5000 F1000.00
G1 X80.5000 Y21.2178 Z-17.0000 F1000.00
G1 X28.5282 Y57.5000 Z-17.0000 F1000.00
G1 X25.0000 Y57.5000 Z-17.0000 F1000.00
G2 X23.5000 Y59.0000 Z-17.0000 I0.0000 J1.5000 F1000.00
G1 X23.5000 Y63.5000 Z-17.0000 F1000.00
G1 X1.0000 Y63.5000 Z-17.0000 F1000.00
G2 X-0.5000 Y65.0000 Z-17.0000 I0.0000 J1.5000 F1000.00
G1 X-0.5000 Y71.0000 Z-17.0000 F1000.00
G2 X1.0000 Y72.5000 Z-17.0000 I1.5000 J-0.0000 F1000.00
G1 X29.0000 Y72.5000 Z-17.0000 F1000.00
G2 X29.8586 Y72.2299 Z-17.0000 I0.0000 J-1.5000 F1000.00
G1 X72.5200 Y42.4475 Z-17.0000 F1000.00
G1 X72.5200 Y42.4475 Z-17.5000 F300.00
G1 X92.8586 Y28.2488 Z-17.5000 F1000.00
G2 X93.5000 Y27.0189 Z-17.5000 I-0.8586 J-1.2299 F1000.00
G1 X93.5000 Y1.0000 Z-17.5000 F1000.00
G2 X92.0000 Y-0.5000 Z-17.5000 I-1.5000 J0.0000 F1000.00
G1 X82.0000 Y-0.5000 Z-17.5000 F1000.00
G2 X80.5000 Y1.0000 Z-17.5000 I0.0000 J1.5000 F1000.00
G1 X80.5000 Y21.2178 Z-17.5000 F1000.00
G1 X28.5282 Y57.5000 Z-17.5000 F1000.00
G1 X25.0000 Y57.5000 Z-17.5000 F1000.00
G2 X23.5000 Y59.0000 Z-17.5000 I0.0000 J1.5000 F1000.00
G1 X23.5000 Y63.5000 Z-17.5000 F1000.00
G1 X1.0000 Y63.5000 Z-17.5000 F1000.00
G2 X-0.5000 Y65.0000 Z-17.5000 I0.0000 J1.5000 F1000.00
G1 X-0.5000 Y71.0000 Z-17.5000 F1000.00
G2 X1.0000 Y72.5000 Z-17.5000 I1.5000 J-0.0000 F1000.00
G1 X29.0000 Y72.5000 Z-17.5000 F1000.00
G2 X29.8586 Y72.2299 Z-17.5000 I0.0000 J-1.5000 F1000.00
G1 X72.5200 Y42.4475 Z-17.5000 F1000.00
G1 X72.5200 Y42.4475 Z-18.0000 F300.00
G1 X92.8586 Y28.2488 Z-18.0000 F1000.00
G2 X93.5000 Y27.0189 Z-18.0000 I-0.8586 J-1.2299 F1000.00
G1 X93.5000 Y1.0000 Z-18.0000 F1000.00
G2 X92.0000 Y-0.5000 Z-18.0000 I-1.5000 J0.0000 F1000.00
G1 X82.0000 Y-0.5000 Z-18.0000 F1000.00
G2 X80.5000 Y1.0000 Z-18.0000 I0.0000 J1.5000 F1000.00
G1 X80.5000 Y21.2178 Z-18.0000 F1000.00
G1 X28.5282 Y57.5000 Z-18.0000 F1000.00
G1 X25.0000 Y57.5000 Z-18.0000 F1000.00
G2 X23.5000 Y59.0000 Z-18.0000 I0.0000 J1.5000 F1000.00
G1 X23.5000 Y63.5000 Z-18.0000 F1000.00
G1 X1.0000 Y63.5000 Z-18.0000 F1000.00
G2 X-0.5000 Y65.0000 Z-18.0000 I0.0000 J1.5000 F1000.00
G1 X-0.5000 Y71.0000 Z-18.0000 F1000.00
G2 X1.0000 Y72.5000 Z-18.0000 I1.5000 J-0.0000 F1000.00
G1 X29.0000 Y72.5000 Z-18.0000 F1000.00
G2 X29.8586 Y72.2299 Z-18.0000 I0.0000 J-1.5000 F1000.00
G1 X72.5200 Y42.4475 Z-18.0000 F1000.00
G1 X72.5200 Y42.4475 Z-18.5000 F300.00
G1 X80.2351 Y37.0614 Z-18.5000 F1000.00
G1 X80.6451 Y36.7752 Z-18.0000 F650.00
G1 X83.0722 Y35.0809 Z-18.0000 F1000.00
G1 X83.4822 Y34.7947 Z-18.5000 F650.00
G1 X92.8586 Y28.2488 Z-18.5000 F1000.00
G2 X93.5000 Y27.0189 Z-18.5000 I-0.8586 J-1.2299 F1000.00
G1 X93.5000 Y1.0000 Z-18.5000 F1000.00
G2 X92.0000 Y-0.5000 Z-18.5000 I-1.5000 J0.0000 F1000.00
G1 X82.0000 Y-0.5000 Z-18.5000 F1000.00
G2 X80.5000 Y1.0000 Z-18.5000 I0.0000 J1.5000 F1000.00
G1 X80.5000 Y11.4200 Z-18.5000 F1000.00
G1 X80.5000 Y11.9200 Z-18.0000 F650.00
G1 X80.5000 Y14.8800 Z-18.0000 F1000.00
G1 X80.5000 Y15.3800 Z-18.5000 F650.00
G1 X80.5000 Y21.2178 Z-18.5000 F1000.00
G1 X56.1376 Y38.2255 Z-18.5000 F1000.00
G1 X55.7276 Y38.5117 Z-18.0000 F650.00
G1 X53.3006 Y40.2061 Z-18.0000 F1000.00
G1 X52.8906 Y40.4923 Z-18.5000 F650.00
G1 X28.5282 Y57.5000 Z-18.5000 F1000.00
G1 X25.0000 Y57.5000 Z-18.5000 F1000.00
G2 X23.5000 Y59.0000 Z-18.5000 I0.0000 J1.5000 F1000.00
G1 X23.5000 Y63.5000 Z-18.5000 F1000.00
G1 X20.6900 Y63.5000 Z-18.5000 F1000.00
G1 X20.1900 Y63.5000 Z-18.0000 F650.00
G1 X17.2300 Y63.5000 Z-18.0000 F1000.00
G1 X16.7300 Y63.5000 Z-18.5000 F650.00
G1 X1.0000 Y63.5000 Z-18.5000 F1000.00
G2 X-0.5000 Y65.0000 Z-18.5000 I0.0000 J1.5000 F1000.00
G1 X-0.5000 Y71.0000 Z-18.5000 F1000.00
G2 X1.0000 Y72.5000 Z-18.5000 I1.5000 J-0.0000 F1000.00
G1 X29.0000 Y72.5000 Z-18.5000 F1000.00
G2 X29.8586 Y72.2299 Z-18.5000 I0.0000 J-1.5000 F1000.00
G1 X49.5658 Y58.4721 Z-18.5000 F1000.00
G1 X49.9758 Y58.1859 Z-18.0000 F650.00
G1 X52.4028 Y56.4915 Z-18.0000 F1000.00
G1 X52.8128 Y56.2053 Z-18.5000 F650.00
G1 X72.5200 Y42.4475 Z-18.5000 F1000.00
G1 X72.5200 Y42.4475 Z-19.0000 F300.00
G1 X79.8251 Y37.3477 Z-19.0000 F1000.00
G1 X80.6451 Y36.7752 Z-18.0000 F650.00
G1 X83.0722 Y35.0809 Z-18.0000 F1000.00
G1 X83.8921 Y34.5084 Z-19.0000 F650.00
G1 X92.8586 Y28.2488 Z-19.0000 F1000.00
G2 X93.5000 Y27.0189 Z-19.0000 I-0.8586 J-1.2299 F1000.00
G1 X93.5000 Y1.0000 Z-19.0000 F1000.00
G2 X92.0000 Y-0.5000 Z-19.0000 I-1.5000 J0.0000 F1000.00
G1 X82.0000 Y-0.5000 Z-19.0000 F1000.00
G2 X80.5000 Y1.0000 Z-19.0000 I0.0000 J1.5000 F1000.00
G1 X80.5000 Y10.9200 Z-19.0000 F1000.00
G1 X80.5000 Y11.9200 Z-18.0000 F650.00
G1 X80.5000 Y14.8800 Z-18.0000 F1000.00
G1 X80.5000 Y15.8800 Z-19.0000 F650.00
G1 X80.5000 Y21.2178 Z-19.0000 F1000.00
G1 X56.5476 Y37.9393 Z-19.0000 F1000.00
G1 X55.7276 Y38.5117 Z-18.0000 F650.00
G1 X53.3006 Y40.2061 Z-18.0000 F1000.00
G1 X52.4806 Y40.7785 Z-19.0000 F650.00
G1 X28.5282 Y57.5000 Z-19.0000 F1000.00
G1 X25.0000 Y57.5000 Z-19.0000 F1000.00
G2 X23.5000 Y59.0000 Z-19.0000 I0.0000 J1.5000 F1000.00
G1 X23.5000 Y63.5000 Z-19.0000 F1000.00
G1 X21.1900 Y63.5000 Z-19.0000 F1000.00
G1 X20.1900 Y63.5000 Z-18.0000 F650.00
G1 X17.2300 Y63.5000 Z-18.0000 F1000.00
G1 X16.2300 Y63.5000 Z-19.0000 F650.00
G1 X1.0000 Y63.5000 Z-19.0000 F1000.00
G2 X-0.5000 Y65.0000 Z-19.0000 I0.0000 J1.5000 F1000.00
G1 X-0.5000 Y71.0000 Z-19.0000 F1000.00
G2 X1.0000 Y72.5000 Z-19.0000 I1.5000 J-0.0000 F1000.00
G1 X29.0000 Y72.5000 Z-19.0000 F1000.00
G2 X29.8586 Y72.2299 Z-19.0000 I0.0000 J-1.5000 F1000.00
G1 X49.1558 Y58.7583 Z-19.0000 F1000.00
G1 X49.9758 Y58.1859 Z-18.0000 F650.00
