(Exported by FreeCAD)
(Post Processor: grbl_post)
(Output Time:2019-09-16 18:22:15.230479)
(begin preamble)
G17 G90
G21
(begin operation: T2: end mill 3mm004)
(Path: T2: end mill 3mm004)
(T2: end mill 3mm004)
(begin toolchange)
M6 T2
M3 S10000.0000
(finish operation: T2: end mill 3mm004)
(begin operation: roughing_001)
(Path: roughing_001)
(roughing_001)
G0 Z5.0000
G0 X190.1321 Y-7.1308
G0 Z3.0000
G1 X190.1321 Y-7.1308 Z-0.5000 F300.00
G1 X211.1319 Y13.8693 Z-0.5000 F1200.00
G3 X214.4047 Y20.5360 Z-0.5000 I-8.1186 J8.1223 F1200.00
G1 X183.4725 Y-10.3962 Z-0.5000 F1200.00
G2 X179.9755 Y-10.4992 Z-0.5000 I-2.4848 J24.9637 F1200.00
G1 X214.3384 Y23.8637 Z-0.5000 F1200.00
G3 X213.5758 Y26.4952 Z-0.5000 I-10.1992 J-1.5295 F1200.00
G1 X176.5814 Y-10.4992 Z-0.5000 F1200.00
G1 X173.1872 Y-10.4992 Z-0.5000 F1200.00
G1 X212.3635 Y28.6771 Z-0.5000 F1200.00
G3 X210.7785 Y30.4861 Z-0.5000 I-10.0336 J-7.1924 F1200.00
G1 X169.7931 Y-10.4992 Z-0.5000 F1200.00
G1 X166.3990 Y-10.4992 Z-0.5000 F1200.00
G1 X209.0814 Y32.1832 Z-0.5000 F1200.00
G1 X207.3843 Y33.8802 Z-0.5000 F1200.00
G1 X163.0048 Y-10.4993 Z-0.5000 F1200.00
G1 X159.6107 Y-10.4993 Z-0.5000 F1200.00
G1 X205.6873 Y35.5773 Z-0.5000 F1200.00
G1 X203.9902 Y37.2743 Z-0.5000 F1200.00
G1 X156.2166 Y-10.4993 Z-0.5000 F1200.00
G1 X152.8224 Y-10.4993 Z-0.5000 F1200.00
G1 X202.2931 Y38.9714 Z-0.5000 F1200.00
G1 X200.5961 Y40.6684 Z-0.5000 F1200.00
G1 X149.4283 Y-10.4993 Z-0.5000 F1200.00
G1 X146.0342 Y-10.4994 Z-0.5000 F1200.00
G1 X198.8990 Y42.3655 Z-0.5000 F1200.00
G1 X197.2019 Y44.0625 Z-0.5000 F1200.00
G1 X142.6400 Y-10.4994 Z-0.5000 F1200.00
G1 X139.2459 Y-10.4994 Z-0.5000 F1200.00
G1 X214.2135 Y64.4682 Z-0.5000 F1200.00
G3 X214.4409 Y68.0897 Z-0.5000 I-10.6220 J2.4851 F1200.00
G1 X135.8518 Y-10.4994 Z-0.5000 F1200.00
G1 X132.4576 Y-10.4994 Z-0.5000 F1200.00
G1 X213.8229 Y70.8658 Z-0.5000 F1200.00
G3 X212.7104 Y73.1474 Z-0.5000 I-9.6727 J-3.3046 F1200.00
G1 X129.0635 Y-10.4994 Z-0.5000 F1200.00
G1 X125.6694 Y-10.4995 Z-0.5000 F1200.00
G1 X211.2134 Y75.0446 Z-0.5000 F1200.00
G3 X209.5198 Y76.7451 Z-0.5000 I-21.4043 J-19.6237 F1200.00
G1 X122.2753 Y-10.4995 Z-0.5000 F1200.00
G1 X118.8811 Y-10.4995 Z-0.5000 F1200.00
G1 X207.8228 Y78.4422 Z-0.5000 F1200.00
G1 X206.1257 Y80.1392 Z-0.5000 F1200.00
G1 X115.4870 Y-10.4995 Z-0.5000 F1200.00
G1 X112.0929 Y-10.4995 Z-0.5000 F1200.00
G1 X204.4287 Y81.8363 Z-0.5000 F1200.00
G1 X202.7316 Y83.5333 Z-0.5000 F1200.00
G1 X108.6987 Y-10.4996 Z-0.5000 F1200.00
G1 X105.3046 Y-10.4996 Z-0.5000 F1200.00
G1 X201.0346 Y85.2304 Z-0.5000 F1200.00
G1 X199.3375 Y86.9274 Z-0.5000 F1200.00
G1 X101.9105 Y-10.4996 Z-0.5000 F1200.00
G1 X98.5163 Y-10.4996 Z-0.5000 F1200.00
G1 X197.6405 Y88.6245 Z-0.5000 F1200.00
G1 X195.9434 Y90.3215 Z-0.5000 F1200.00
G1 X95.1222 Y-10.4996 Z-0.5000 F1200.00
G1 X91.7281 Y-10.4997 Z-0.5000 F1200.00
G1 X194.2463 Y92.0186 Z-0.5000 F1200.00
G1 X192.5493 Y93.7157 Z-0.5000 F1200.00
G1 X88.3339 Y-10.4997 Z-0.5000 F1200.00
G1 X84.9398 Y-10.4997 Z-0.5000 F1200.00
G1 X190.8522 Y95.4127 Z-0.5000 F1200.00
G3 X189.0898 Y97.0444 Z-0.5000 I-9.0672 J-8.0258 F1200.00
G1 X81.5457 Y-10.4998 Z-0.5000 F1200.00
G1 X78.1515 Y-10.4998 Z-0.5000 F1200.00
G1 X187.0002 Y98.3489 Z-0.5000 F1200.00
G3 X184.4802 Y99.2230 Z-0.5000 I-4.6976 J-9.4728 F1200.00
G1 X74.7574 Y-10.4998 Z-0.5000 F1200.00
G1 X71.3633 Y-10.4998 Z-0.5000 F1200.00
G1 X181.3629 Y99.4998 Z-0.5000 F1200.00
G1 X177.9687 Y99.4998 Z-0.5000 F1200.00
G1 X67.9691 Y-10.4998 Z-0.5000 F1200.00
G1 X64.5750 Y-10.4999 Z-0.5000 F1200.00
G1 X174.5746 Y99.4998 Z-0.5000 F1200.00
G1 X171.1805 Y99.4998 Z-0.5000 F1200.00
G1 X61.1809 Y-10.4999 Z-0.5000 F1200.00
G1 X57.7867 Y-10.4999 Z-0.5000 F1200.00
G1 X167.7864 Y99.4998 Z-0.5000 F1200.00
G1 X164.3923 Y99.4998 Z-0.5000 F1200.00
G1 X54.3926 Y-10.4999 Z-0.5000 F1200.00
G1 X50.9985 Y-10.4999 Z-0.5000 F1200.00
G1 X160.9982 Y99.4998 Z-0.5000 F1200.00
G1 X157.6041 Y99.4998 Z-0.5000 F1200.00
G1 X47.6043 Y-10.5000 Z-0.5000 F1200.00
G1 X44.2102 Y-10.5000 Z-0.5000 F1200.00
G1 X154.2100 Y99.4998 Z-0.5000 F1200.00
G1 X150.8158 Y99.4998 Z-0.5000 F1200.00
G1 X40.8161 Y-10.5000 Z-0.5000 F1200.00
G2 X37.6693 Y-10.2526 Z-0.5000 I-0.6019 J12.4803 F1200.00
G1 X147.4217 Y99.4998 Z-0.5000 F1200.00
G1 X144.0276 Y99.4998 Z-0.5000 F1200.00
G1 X35.1229 Y-9.4049 Z-0.5000 F1200.00
G2 X33.0111 Y-8.1226 Z-0.5000 I4.2202 J9.3303 F1200.00
G1 X140.6335 Y99.4998 Z-0.5000 F1200.00
G1 X137.2394 Y99.4998 Z-0.5000 F1200.00
G1 X31.2382 Y-6.5014 Z-0.5000 F1200.00
G1 X29.5411 Y-4.8043 Z-0.5000 F1200.00
G1 X133.8453 Y99.4998 Z-0.5000 F1200.00
G1 X130.4512 Y99.4998 Z-0.5000 F1200.00
G1 X27.8441 Y-3.1073 Z-0.5000 F1200.00
G1 X26.1470 Y-1.4103 Z-0.5000 F1200.00
G1 X127.0571 Y99.4998 Z-0.5000 F1200.00
G1 X123.6629 Y99.4998 Z-0.5000 F1200.00
G1 X24.4499 Y0.2868 Z-0.5000 F1200.00
G1 X22.7529 Y1.9838 Z-0.5000 F1200.00
G1 X120.2688 Y99.4998 Z-0.5000 F1200.00
G1 X116.8747 Y99.4998 Z-0.5000 F1200.00
G1 X21.0558 Y3.6809 Z-0.5000 F1200.00
G1 X19.3587 Y5.3779 Z-0.5000 F1200.00
G1 X113.4806 Y99.4998 Z-0.5000 F1200.00
G1 X110.0865 Y99.4998 Z-0.5000 F1200.00
G1 X17.6617 Y7.0750 Z-0.5000 F1200.00
G1 X15.9646 Y8.7720 Z-0.5000 F1200.00
G1 X106.6924 Y99.4998 Z-0.5000 F1200.00
G1 X103.2983 Y99.4998 Z-0.5000 F1200.00
G1 X14.2675 Y10.4691 Z-0.5000 F1200.00
G1 X12.5705 Y12.1661 Z-0.5000 F1200.00
G1 X99.9042 Y99.4998 Z-0.5000 F1200.00
G1 X96.5100 Y99.4998 Z-0.5000 F1200.00
G1 X10.8734 Y13.8632 Z-0.5000 F1200.00
G2 X9.3614 Y15.7453 Z-0.5000 I7.6204 J7.6703 F1200.00
G1 X93.1159 Y99.4998 Z-0.5000 F1200.00
G1 X89.7218 Y99.4998 Z-0.5000 F1200.00
G1 X8.2242 Y18.0021 Z-0.5000 F1200.00
G2 X7.5745 Y20.7465 Z-0.5000 I10.0217 J3.8217 F1200.00
G1 X86.3277 Y99.4998 Z-0.5000 F1200.00
G1 X82.9336 Y99.4998 Z-0.5000 F1200.00
G1 X7.7352 Y24.3014 Z-0.5000 F1200.00
G2 X10.8684 Y30.1316 Z-0.5000 I11.2394 J-2.2832 F1200.00
G1 X25.2373 Y44.5007 Z-0.5000 F1200.00
G1 X24.8889 Y44.8492 Z-0.5000 F1200.00
G1 X79.5395 Y99.4998 Z-0.5000 F1200.00
G1 X76.1454 Y99.4998 Z-0.5000 F1200.00
G1 X23.1918 Y46.5462 Z-0.5000 F1200.00
G1 X21.4947 Y48.2433 Z-0.5000 F1200.00
G1 X72.7513 Y99.4998 Z-0.5000 F1200.00
G1 X69.3571 Y99.4998 Z-0.5000 F1200.00
G1 X19.7977 Y49.9403 Z-0.5000 F1200.00
G1 X18.1006 Y51.6374 Z-0.5000 F1200.00
G1 X65.9630 Y99.4998 Z-0.5000 F1200.00
G1 X62.5689 Y99.4998 Z-0.5000 F1200.00
G1 X16.4036 Y53.3345 Z-0.5000 F1200.00
G1 X14.7065 Y55.0315 Z-0.5000 F1200.00
G1 X59.1748 Y99.4998 Z-0.5000 F1200.00
G1 X55.7807 Y99.4998 Z-0.5000 F1200.00
G1 X13.0095 Y56.7286 Z-0.5000 F1200.00
G1 X11.3124 Y58.4256 Z-0.5000 F1200.00
G1 X52.3866 Y99.4998 Z-0.5000 F1200.00
G1 X48.9925 Y99.4998 Z-0.5000 F1200.00
G1 X9.7158 Y60.2231 Z-0.5000 F1200.00
G2 X8.4804 Y62.3818 Z-0.5000 I8.3831 J6.2307 F1200.00
G1 X45.5984 Y99.4998 Z-0.5000 F1200.00
G1 X42.2042 Y99.4998 Z-0.5000 F1200.00
G1 X7.6889 Y64.9845 Z-0.5000 F1200.00
G2 X7.5771 Y68.2668 Z-0.5000 I10.6340 J2.0053 F1200.00
G1 X38.7311 Y99.4207 Z-0.5000 F1200.00
G3 X33.1361 Y97.2199 Z-0.5000 I1.1967 J-11.2543 F1200.00
G1 X9.7971 Y73.8808 Z-0.5000 F1200.00
G2 X10.8700 Y75.1315 Z-0.5000 I8.0832 J-5.8487 F1200.00
G1 X31.8700 Y96.1315 Z-0.5000 F1200.00
G2 X33.1361 Y97.2199 Z-0.5000 I7.5474 J-7.4996 F1200.00
G1 X33.1361 Y97.2199 Z-1.0000 F300.00
G3 X31.8700 Y96.1315 Z-1.0000 I6.2813 J-8.5879 F1200.00
G1 X10.8700 Y75.1315 Z-1.0000 F1200.00
G3 X9.7971 Y73.8808 Z-1.0000 I7.0103 J-7.0994 F1200.00
G1 X33.1361 Y97.2199 Z-1.0000 F1200.00
G2 X38.7311 Y99.4207 Z-1.0000 I6.7917 J-9.0534 F1200.00
G1 X7.5771 Y68.2668 Z-1.0000 F1200.00
G3 X7.6889 Y64.9845 Z-1.0000 I10.7458 J-1.2770 F1200.00
G1 X42.2042 Y99.4998 Z-1.0000 F1200.00
G1 X45.5984 Y99.4998 Z-1.0000 F1200.00
G1 X8.4804 Y62.3818 Z-1.0000 F1200.00
G3 X9.7158 Y60.2231 Z-1.0000 I9.6186 J4.0720 F1200.00
G1 X48.9925 Y99.4998 Z-1.0000 F1200.00
G1 X52.3866 Y99.4998 Z-1.0000 F1200.00
G1 X11.3124 Y58.4256 Z-1.0000 F1200.00
G1 X13.0095 Y56.7286 Z-1.0000 F1200.00
G1 X55.7807 Y99.4998 Z-1.0000 F1200.00
G1 X59.1748 Y99.4998 Z-1.0000 F1200.00
G1 X14.7065 Y55.0315 Z-1.0000 F1200.00
G1 X16.4036 Y53.3345 Z-1.0000 F1200.00
G1 X62.5689 Y99.4998 Z-1.0000 F1200.00
G1 X65.9630 Y99.4998 Z-1.0000 F1200.00
G1 X18.1006 Y51.6374 Z-1.0000 F1200.00
G1 X19.7977 Y49.9403 Z-1.0000 F1200.00
G1 X69.3571 Y99.4998 Z-1.0000 F1200.00
G1 X72.7513 Y99.4998 Z-1.0000 F1200.00
G1 X21.4947 Y48.2433 Z-1.0000 F1200.00
G1 X23.1918 Y46.5462 Z-1.0000 F1200.00
G1 X76.1454 Y99.4998 Z-1.0000 F1200.00
G1 X79.5395 Y99.4998 Z-1.0000 F1200.00
G1 X24.8889 Y44.8492 Z-1.0000 F1200.00
G1 X25.2373 Y44.5007 Z-1.0000 F1200.00
G1 X10.8684 Y30.1316 Z-1.0000 F1200.00
G3 X7.7352 Y24.3014 Z-1.0000 I8.1061 J-8.1134 F1200.00
G1 X82.9336 Y99.4998 Z-1.0000 F1200.00
G1 X86.3277 Y99.4998 Z-1.0000 F1200.00
G1 X7.5745 Y20.7465 Z-1.0000 F1200.00
G3 X8.2242 Y18.0021 Z-1.0000 I10.6714 J1.0773 F1200.00
G1 X89.7218 Y99.4998 Z-1.0000 F1200.00
G1 X93.1159 Y99.4998 Z-1.0000 F1200.00
G1 X9.3614 Y15.7453 Z-1.0000 F1200.00
G3 X10.8734 Y13.8632 Z-1.0000 I9.1324 J5.7882 F1200.00
G1 X96.5100 Y99.4998 Z-1.0000 F1200.00
G1 X99.9042 Y99.4998 Z-1.0000 F1200.00
G1 X12.5705 Y12.1661 Z-1.0000 F1200.00
G1 X14.2675 Y10.4691 Z-1.0000 F1200.00
G1 X103.2983 Y99.4998 Z-1.0000 F1200.00
G1 X106.6924 Y99.4998 Z-1.0000 F1200.00
G1 X15.9646 Y8.7720 Z-1.0000 F1200.00
G1 X17.6617 Y7.0750 Z-1.0000 F1200.00
G1 X110.0865 Y99.4998 Z-1.0000 F1200.00
G1 X113.4806 Y99.4998 Z-1.0000 F1200.00
G1 X19.3587 Y5.3779 Z-1.0000 F1200.00
G1 X21.0558 Y3.6809 Z-1.0000 F1200.00
G1 X116.8747 Y99.4998 Z-1.0000 F1200.00
G1 X120.2688 Y99.4998 Z-1.0000 F1200.00
G1 X22.7529 Y1.9838 Z-1.0000 F1200.00
G1 X24.4499 Y0.2868 Z-1.0000 F1200.00
G1 X123.6629 Y99.4998 Z-1.0000 F1200.00
G1 X127.0571 Y99.4998 Z-1.0000 F1200.00
G1 X26.1470 Y-1.4103 Z-1.0000 F1200.00
G1 X27.8441 Y-3.1073 Z-1.0000 F1200.00
G1 X130.4512 Y99.4998 Z-1.0000 F1200.00
G1 X133.8453 Y99.4998 Z-1.0000 F1200.00
G1 X29.5411 Y-4.8043 Z-1.0000 F1200.00
G1 X31.2382 Y-6.5014 Z-1.0000 F1200.00
G1 X137.2394 Y99.4998 Z-1.0000 F1200.00
G1 X140.6335 Y99.4998 Z-1.0000 F1200.00
G1 X33.0111 Y-8.1226 Z-1.0000 F1200.00
G3 X35.1229 Y-9.4049 Z-1.0000 I6.3320 J8.0480 F1200.00
G1 X144.0276 Y99.4998 Z-1.0000 F1200.00
G1 X147.4217 Y99.4998 Z-1.0000 F1200.00
G1 X37.6693 Y-10.2526 Z-1.0000 F1200.00
G3 X40.8161 Y-10.5000 Z-1.0000 I2.5448 J12.2329 F1200.00
G1 X150.8158 Y99.4998 Z-1.0000 F1200.00
G1 X154.2100 Y99.4998 Z-1.0000 F1200.00
G1 X44.2102 Y-10.5000 Z-1.0000 F1200.00
G1 X47.6043 Y-10.5000 Z-1.0000 F1200.00
G1 X157.6041 Y99.4998 Z-1.0000 F1200.00
G1 X160.9982 Y99.4998 Z-1.0000 F1200.00
G1 X50.9985 Y-10.4999 Z-1.0000 F1200.00
G1 X54.3926 Y-10.4999 Z-1.0000 F1200.00
G1 X164.3923 Y99.4998 Z-1.0000 F1200.00
G1 X167.7864 Y99.4998 Z-1.0000 F1200.00
G1 X57.7867 Y-10.4999 Z-1.0000 F1200.00
G1 X61.1809 Y-10.4999 Z-1.0000 F1200.00
G1 X171.1805 Y99.4998 Z-1.0000 F1200.00
G1 X174.5746 Y99.4998 Z-1.0000 F1200.00
G1 X64.5750 Y-10.4999 Z-1.0000 F1200.00
G1 X67.9691 Y-10.4998 Z-1.0000 F1200.00
G1 X177.9687 Y99.4998 Z-1.0000 F1200.00
G1 X181.3629 Y99.4998 Z-1.0000 F1200.00
G1 X71.3633 Y-10.4998 Z-1.0000 F1200.00
G1 X74.7574 Y-10.4998 Z-1.0000 F1200.00
G1 X184.4802 Y99.2230 Z-1.0000 F1200.00
G2 X187.0002 Y98.3489 Z-1.0000 I-2.1776 J-10.3470 F1200.00
G1 X78.1515 Y-10.4998 Z-1.0000 F1200.00
G1 X81.5457 Y-10.4998 Z-1.0000 F1200.00
G1 X189.0898 Y97.0444 Z-1.0000 F1200.00
G2 X190.8522 Y95.4127 Z-1.0000 I-7.3048 J-9.6575 F1200.00
G1 X84.9398 Y-10.4997 Z-1.0000 F1200.00
G1 X88.3339 Y-10.4997 Z-1.0000 F1200.00
G1 X192.5493 Y93.7157 Z-1.0000 F1200.00
G1 X194.2463 Y92.0186 Z-1.0000 F1200.00
G1 X91.7281 Y-10.4997 Z-1.0000 F1200.00
G1 X95.1222 Y-10.4996 Z-1.0000 F1200.00
G1 X195.9434 Y90.3215 Z-1.0000 F1200.00
G1 X197.6405 Y88.6245 Z-1.0000 F1200.00
G1 X98.5163 Y-10.4996 Z-1.0000 F1200.00
G1 X101.9105 Y-10.4996 Z-1.0000 F1200.00
G1 X199.3375 Y86.9274 Z-1.0000 F1200.00
G1 X201.0346 Y85.2304 Z-1.0000 F1200.00
G1 X105.3046 Y-10.4996 Z-1.0000 F1200.00
G1 X108.6987 Y-10.4996 Z-1.0000 F1200.00
G1 X202.7316 Y83.5333 Z-1.0000 F1200.00
G1 X204.4287 Y81.8363 Z-1.0000 F1200.00
G1 X112.0929 Y-10.4995 Z-1.0000 F1200.00
G1 X115.4870 Y-10.4995 Z-1.0000 F1200.00
G1 X206.1257 Y80.1392 Z-1.0000 F1200.00
G1 X207.8228 Y78.4422 Z-1.0000 F1200.00
G1 X118.8811 Y-10.4995 Z-1.0000 F1200.00
G1 X122.2753 Y-10.4995 Z-1.0000 F1200.00
G1 X209.5198 Y76.7451 Z-1.0000 F1200.00
G2 X211.2134 Y75.0446 Z-1.0000 I-19.7107 J-21.3243 F1200.00
G1 X125.6694 Y-10.4995 Z-1.0000 F1200.00
G1 X129.0635 Y-10.4994 Z-1.0000 F1200.00
G1 X212.7104 Y73.1474 Z-1.0000 F1200.00
G2 X213.8229 Y70.8658 Z-1.0000 I-8.5601 J-5.5862 F1200.00
G1 X132.4576 Y-10.4994 Z-1.0000 F1200.00
G1 X135.8518 Y-10.4994 Z-1.0000 F1200.00
G1 X214.4409 Y68.0897 Z-1.0000 F1200.00
G2 X214.2135 Y64.4682 Z-1.0000 I-10.8494 J-1.1365 F1200.00
G1 X139.2459 Y-10.4994 Z-1.0000 F1200.00
G1 X142.6400 Y-10.4994 Z-1.0000 F1200.00
G1 X197.2019 Y44.0625 Z-1.0000 F1200.00
G1 X198.8990 Y42.3655 Z-1.0000 F1200.00
G1 X146.0342 Y-10.4994 Z-1.0000 F1200.00
G1 X149.4283 Y-10.4993 Z-1.0000 F1200.00
G1 X200.5961 Y40.6684 Z-1.0000 F1200.00
G1 X202.2931 Y38.9714 Z-1.0000 F1200.00
G1 X152.8224 Y-10.4993 Z-1.0000 F1200.00
G1 X156.2166 Y-10.4993 Z-1.0000 F1200.00
G1 X203.9902 Y37.2743 Z-1.0000 F1200.00
G1 X205.6873 Y35.5773 Z-1.0000 F1200.00
G1 X159.6107 Y-10.4993 Z-1.0000 F1200.00
G1 X163.0048 Y-10.4993 Z-1.0000 F1200.00
G1 X207.3843 Y33.8802 Z-1.0000 F1200.00
G1 X209.0814 Y32.1832 Z-1.0000 F1200.00
G1 X166.3990 Y-10.4992 Z-1.0000 F1200.00
G1 X169.7931 Y-10.4992 Z-1.0000 F1200.00
G1 X210.7785 Y30.4861 Z-1.0000 F1200.00
G2 X212.3635 Y28.6771 Z-1.0000 I-8.4486 J-9.0014 F1200.00
G1 X173.1872 Y-10.4992 Z-1.0000 F1200.00
G1 X176.5814 Y-10.4992 Z-1.0000 F1200.00
G1 X213.5758 Y26.4952 Z-1.0000 F1200.00
G2 X214.3384 Y23.8637 Z-1.0000 I-9.4366 J-4.1610 F1200.00
G1 X179.9755 Y-10.4992 Z-1.0000 F1200.00
G3 X183.4725 Y-10.3962 Z-1.0000 I1.0123 J25.0666 F1200.00
G1 X214.4047 Y20.5360 Z-1.0000 F1200.00
G2 X211.1319 Y13.8693 Z-1.0000 I-11.3914 J1.4556 F1200.00
G1 X190.1321 Y-7.1308 Z-1.0000 F1200.00
G1 X190.1321 Y-7.1308 Z-1.5000 F300.00
G1 X211.1319 Y13.8693 Z-1.5000 F1200.00
G3 X214.4047 Y20.5360 Z-1.5000 I-8.1186 J8.1223 F1200.00
G1 X183.4725 Y-10.3962 Z-1.5000 F1200.00
G2 X179.9755 Y-10.4992 Z-1.5000 I-2.4848 J24.9637 F1200.00
G1 X214.3384 Y23.8637 Z-1.5000 F1200.00
G3 X213.5758 Y26.4952 Z-1.5000 I-10.1992 J-1.5295 F1200.00
G1 X176.5814 Y-10.4992 Z-1.5000 F1200.00
G1 X173.1872 Y-10.4992 Z-1.5000 F1200.00
G1 X212.3635 Y28.6771 Z-1.5000 F1200.00
G3 X210.7785 Y30.4861 Z-1.5000 I-10.0336 J-7.1924 F1200.00
G1 X169.7931 Y-10.4992 Z-1.5000 F1200.00
G1 X166.3990 Y-10.4992 Z-1.5000 F1200.00
G1 X209.0814 Y32.1832 Z-1.5000 F1200.00
G1 X207.3843 Y33.8802 Z-1.5000 F1200.00
G1 X163.0048 Y-10.4993 Z-1.5000 F1200.00
G1 X159.6107 Y-10.4993 Z-1.5000 F1200.00
G1 X205.6873 Y35.5773 Z-1.5000 F1200.00
G1 X203.9902 Y37.2743 Z-1.5000 F1200.00
G1 X156.2166 Y-10.4993 Z-1.5000 F1200.00
G1 X152.8224 Y-10.4993 Z-1.5000 F1200.00
G1 X202.2931 Y38.9714 Z-1.5000 F1200.00
G1 X200.5961 Y40.6684 Z-1.5000 F1200.00
G1 X149.4283 Y-10.4993 Z-1.5000 F1200.00
G1 X146.0342 Y-10.4994 Z-1.5000 F1200.00
G1 X198.8990 Y42.3655 Z-1.5000 F1200.00
G1 X197.2019 Y44.0625 Z-1.5000 F1200.00
G1 X142.6400 Y-10.4994 Z-1.5000 F1200.00
G1 X139.2459 Y-10.4994 Z-1.5000 F1200.00
G1 X214.2135 Y64.4682 Z-1.5000 F1200.00
G3 X214.4409 Y68.0897 Z-1.5000 I-10.6220 J2.4851 F1200.00
G1 X135.8518 Y-10.4994 Z-1.5000 F1200.00
G1 X132.4576 Y-10.4994 Z-1.5000 F1200.00
G1 X213.8229 Y70.8658 Z-1.5000 F1200.00
G3 X212.7104 Y73.1474 Z-1.5000 I-9.6727 J-3.3046 F1200.00
G1 X129.0635 Y-10.4994 Z-1.5000 F1200.00
G1 X125.6694 Y-10.4995 Z-1.5000 F1200.00
G1 X211.2134 Y75.0446 Z-1.5000 F1200.00
G3 X209.5198 Y76.7451 Z-1.5000 I-21.4043 J-19.6237 F1200.00
G1 X122.2753 Y-10.4995 Z-1.5000 F1200.00
G1 X118.8811 Y-10.4995 Z-1.5000 F1200.00
G1 X207.8228 Y78.4422 Z-1.5000 F1200.00
G1 X206.1257 Y80.1392 Z-1.5000 F1200.00
G1 X115.4870 Y-10.4995 Z-1.5000 F1200.00
G1 X112.0929 Y-10.4995 Z-1.5000 F1200.00
G1 X204.4287 Y81.8363 Z-1.5000 F1200.00
G1 X202.7316 Y83.5333 Z-1.5000 F1200.00
G1 X108.6987 Y-10.4996 Z-1.5000 F1200.00
G1 X105.3046 Y-10.4996 Z-1.5000 F1200.00
G1 X201.0346 Y85.2304 Z-1.5000 F1200.00
G1 X199.3375 Y86.9274 Z-1.5000 F1200.00
G1 X101.9105 Y-10.4996 Z-1.5000 F1200.00
G1 X98.5163 Y-10.4996 Z-1.5000 F1200.00
G1 X197.6405 Y88.6245 Z-1.5000 F1200.00
G1 X195.9434 Y90.3215 Z-1.5000 F1200.00
G1 X95.1222 Y-10.4996 Z-1.5000 F1200.00
G1 X91.7281 Y-10.4997 Z-1.5000 F1200.00
G1 X194.2463 Y92.0186 Z-1.5000 F1200.00
G1 X192.5493 Y93.7157 Z-1.5000 F1200.00
G1 X88.3339 Y-10.4997 Z-1.5000 F1200.00
G1 X84.9398 Y-10.4997 Z-1.5000 F1200.00
G1 X190.8522 Y95.4127 Z-1.5000 F1200.00
G3 X189.0898 Y97.0444 Z-1.5000 I-9.0672 J-8.0258 F1200.00
G1 X81.5457 Y-10.4998 Z-1.5000 F1200.00
G1 X78.1515 Y-10.4998 Z-1.5000 F1200.00
G1 X187.0002 Y98.3489 Z-1.5000 F1200.00
G3 X184.4802 Y99.2230 Z-1.5000 I-4.6976 J-9.4728 F1200.00
G1 X74.7574 Y-10.4998 Z-1.5000 F1200.00
G1 X71.3633 Y-10.4998 Z-1.5000 F1200.00
G1 X181.3629 Y99.4998 Z-1.5000 F1200.00
G1 X177.9687 Y99.4998 Z-1.5000 F1200.00
G1 X67.9691 Y-10.4998 Z-1.5000 F1200.00
G1 X64.5750 Y-10.4999 Z-1.5000 F1200.00
G1 X174.5746 Y99.4998 Z-1.5000 F1200.00
G1 X171.1805 Y99.4998 Z-1.5000 F1200.00
G1 X61.1809 Y-10.4999 Z-1.5000 F1200.00
G1 X57.7867 Y-10.4999 Z-1.5000 F1200.00
G1 X167.7864 Y99.4998 Z-1.5000 F1200.00
G1 X164.3923 Y99.4998 Z-1.5000 F1200.00
G1 X54.3926 Y-10.4999 Z-1.5000 F1200.00
G1 X50.9985 Y-10.4999 Z-1.5000 F1200.00
G1 X160.9982 Y99.4998 Z-1.5000 F1200.00
G1 X157.6041 Y99.4998 Z-1.5000 F1200.00
G1 X47.6043 Y-10.5000 Z-1.5000 F1200.00
G1 X44.2102 Y-10.5000 Z-1.5000 F1200.00
G1 X154.2100 Y99.4998 Z-1.5000 F1200.00
G1 X150.8158 Y99.4998 Z-1.5000 F1200.00
G1 X40.8161 Y-10.5000 Z-1.5000 F1200.00
G2 X37.6693 Y-10.2526 Z-1.5000 I-0.6019 J12.4803 F1200.00
G1 X147.4217 Y99.4998 Z-1.5000 F1200.00
G1 X144.0276 Y99.4998 Z-1.5000 F1200.00
G1 X35.1229 Y-9.4049 Z-1.5000 F1200.00
G2 X33.0111 Y-8.1226 Z-1.5000 I4.2202 J9.3303 F1200.00
G1 X140.6335 Y99.4998 Z-1.5000 F1200.00
G1 X137.2394 Y99.4998 Z-1.5000 F1200.00
G1 X31.2382 Y-6.5014 Z-1.5000 F1200.00
G1 X29.5411 Y-4.8043 Z-1.5000 F1200.00
G1 X133.8453 Y99.4998 Z-1.5000 F1200.00
G1 X130.4512 Y99.4998 Z-1.5000 F1200.00
G1 X27.8441 Y-3.1073 Z-1.5000 F1200.00
G1 X26.1470 Y-1.4103 Z-1.5000 F1200.00
G1 X127.0571 Y99.4998 Z-1.5000 F1200.00
G1 X123.6629 Y99.4998 Z-1.5000 F1200.00
G1 X24.4499 Y0.2868 Z-1.5000 F1200.00
G1 X22.7529 Y1.9838 Z-1.5000 F1200.00
G1 X120.2688 Y99.4998 Z-1.5000 F1200.00
G1 X116.8747 Y99.4998 Z-1.5000 F1200.00
G1 X21.0558 Y3.6809 Z-1.5000 F1200.00
G1 X19.3587 Y5.3779 Z-1.5000 F1200.00
G1 X113.4806 Y99.4998 Z-1.5000 F1200.00
G1 X110.0865 Y99.4998 Z-1.5000 F1200.00
G1 X17.6617 Y7.0750 Z-1.5000 F1200.00
G1 X15.9646 Y8.7720 Z-1.5000 F1200.00
G1 X106.6924 Y99.4998 Z-1.5000 F1200.00
G1 X103.2983 Y99.4998 Z-1.5000 F1200.00
G1 X14.2675 Y10.4691 Z-1.5000 F1200.00
G1 X12.5705 Y12.1661 Z-1.5000 F1200.00
G1 X99.9042 Y99.4998 Z-1.5000 F1200.00
G1 X96.5100 Y99.4998 Z-1.5000 F1200.00
G1 X10.8734 Y13.8632 Z-1.5000 F1200.00
G2 X9.3614 Y15.7453 Z-1.5000 I7.6204 J7.6703 F1200.00
G1 X93.1159 Y99.4998 Z-1.5000 F1200.00
G1 X89.7218 Y99.4998 Z-1.5000 F1200.00
G1 X8.2242 Y18.0021 Z-1.5000 F1200.00
G2 X7.5745 Y20.7465 Z-1.5000 I10.0217 J3.8217 F1200.00
G1 X86.3277 Y99.4998 Z-1.5000 F1200.00
G1 X82.9336 Y99.4998 Z-1.5000 F1200.00
G1 X7.7352 Y24.3014 Z-1.5000 F1200.00
G2 X10.8684 Y30.1316 Z-1.5000 I11.2394 J-2.2832 F1200.00
G1 X25.2373 Y44.5007 Z-1.5000 F1200.00
G1 X24.8889 Y44.8492 Z-1.5000 F1200.00
G1 X79.5395 Y99.4998 Z-1.5000 F1200.00
G1 X76.1454 Y99.4998 Z-1.5000 F1200.00
G1 X23.1918 Y46.5462 Z-1.5000 F1200.00
G1 X21.4947 Y48.2433 Z-1.5000 F1200.00
G1 X72.7513 Y99.4998 Z-1.5000 F1200.00
G1 X69.3571 Y99.4998 Z-1.5000 F1200.00
G1 X19.7977 Y49.9403 Z-1.5000 F1200.00
G1 X18.1006 Y51.6374 Z-1.5000 F1200.00
G1 X65.9630 Y99.4998 Z-1.5000 F1200.00
G1 X62.5689 Y99.4998 Z-1.5000 F1200.00
G1 X16.4036 Y53.3345 Z-1.5000 F1200.00
G1 X14.7065 Y55.0315 Z-1.5000 F1200.00
G1 X59.1748 Y99.4998 Z-1.5000 F1200.00
G1 X55.7807 Y99.4998 Z-1.5000 F1200.00
G1 X13.0095 Y56.7286 Z-1.5000 F1200.00
G1 X11.3124 Y58.4256 Z-1.5000 F1200.00
G1 X52.3866 Y99.4998 Z-1.5000 F1200.00
G1 X48.9925 Y99.4998 Z-1.5000 F1200.00
G1 X9.7158 Y60.2231 Z-1.5000 F1200.00
G2 X8.4804 Y62.3818 Z-1.5000 I8.3831 J6.2307 F1200.00
G1 X45.5984 Y99.4998 Z-1.5000 F1200.00
G1 X42.2042 Y99.4998 Z-1.5000 F1200.00
G1 X7.6889 Y64.9845 Z-1.5000 F1200.00
G2 X7.5771 Y68.2668 Z-1.5000 I10.6340 J2.0053 F1200.00
G1 X38.7311 Y99.4207 Z-1.5000 F1200.00
G3 X33.1361 Y97.2199 Z-1.5000 I1.1967 J-11.2543 F1200.00
G1 X9.7971 Y73.8808 Z-1.5000 F1200.00
G2 X10.8700 Y75.1315 Z-1.5000 I8.0832 J-5.8487 F1200.00
G1 X31.8700 Y96.1315 Z-1.5000 F1200.00
G2 X33.1361 Y97.2199 Z-1.5000 I7.5474 J-7.4996 F1200.00
G1 X33.1361 Y97.2199 Z-2.0000 F300.00
G3 X31.8700 Y96.1315 Z-2.0000 I6.2813 J-8.5879 F1200.00
G1 X10.8700 Y75.1315 Z-2.0000 F1200.00
G3 X9.7971 Y73.8808 Z-2.0000 I7.0103 J-7.0994 F1200.00
G1 X33.1361 Y97.2199 Z-2.0000 F1200.00
G2 X38.7311 Y99.4207 Z-2.0000 I6.7917 J-9.0534 F1200.00
G1 X7.5771 Y68.2668 Z-2.0000 F1200.00
G3 X7.6889 Y64.9845 Z-2.0000 I10.7458 J-1.2770 F1200.00
G1 X42.2042 Y99.4998 Z-2.0000 F1200.00
G1 X45.5984 Y99.4998 Z-2.0000 F1200.00
G1 X8.4804 Y62.3818 Z-2.0000 F1200.00
G3 X9.7158 Y60.2231 Z-2.0000 I9.6186 J4.0720 F1200.00
G1 X48.9925 Y99.4998 Z-2.0000 F1200.00
G1 X52.3866 Y99.4998 Z-2.0000 F1200.00
G1 X11.3124 Y58.4256 Z-2.0000 F1200.00
G1 X13.0095 Y56.7286 Z-2.0000 F1200.00
G1 X55.7807 Y99.4998 Z-2.0000 F1200.00
G1 X59.1748 Y99.4998 Z-2.0000 F1200.00
G1 X14.7065 Y55.0315 Z-2.0000 F1200.00
G1 X16.4036 Y53.3345 Z-2.0000 F1200.00
G1 X62.5689 Y99.4998 Z-2.0000 F1200.00
G1 X65.9630 Y99.4998 Z-2.0000 F1200.00
G1 X18.1006 Y51.6374 Z-2.0000 F1200.00
G1 X19.7977 Y49.9403 Z-2.0000 F1200.00
G1 X69.3571 Y99.4998 Z-2.0000 F1200.00
G1 X72.7513 Y99.4998 Z-2.0000 F1200.00
G1 X21.4947 Y48.2433 Z-2.0000 F1200.00
G1 X23.1918 Y46.5462 Z-2.0000 F1200.00
G1 X76.1454 Y99.4998 Z-2.0000 F1200.00
G1 X79.5395 Y99.4998 Z-2.0000 F1200.00
G1 X24.8889 Y44.8492 Z-2.0000 F1200.00
G1 X25.2373 Y44.5007 Z-2.0000 F1200.00
G1 X10.8684 Y30.1316 Z-2.0000 F1200.00
G3 X7.7352 Y24.3014 Z-2.0000 I8.1061 J-8.1134 F1200.00
G1 X82.9336 Y99.4998 Z-2.0000 F1200.00
G1 X86.3277 Y99.4998 Z-2.0000 F1200.00
G1 X7.5745 Y20.7465 Z-2.0000 F1200.00
G3 X8.2242 Y18.0021 Z-2.0000 I10.6714 J1.0773 F1200.00
G1 X89.7218 Y99.4998 Z-2.0000 F1200.00
G1 X93.1159 Y99.4998 Z-2.0000 F1200.00
G1 X9.3614 Y15.7453 Z-2.0000 F1200.00
G3 X10.8734 Y13.8632 Z-2.0000 I9.1324 J5.7882 F1200.00
G1 X96.5100 Y99.4998 Z-2.0000 F1200.00
G1 X99.9042 Y99.4998 Z-2.0000 F1200.00
G1 X12.5705 Y12.1661 Z-2.0000 F1200.00
G1 X14.2675 Y10.4691 Z-2.0000 F1200.00
G1 X103.2983 Y99.4998 Z-2.0000 F1200.00
G1 X106.6924 Y99.4998 Z-2.0000 F1200.00
G1 X15.9646 Y8.7720 Z-2.0000 F1200.00
G1 X17.6617 Y7.0750 Z-2.0000 F1200.00
G1 X110.0865 Y99.4998 Z-2.0000 F1200.00
G1 X113.4806 Y99.4998 Z-2.0000 F1200.00
G1 X19.3587 Y5.3779 Z-2.0000 F1200.00
G1 X21.0558 Y3.6809 Z-2.0000 F1200.00
G1 X116.8747 Y99.4998 Z-2.0000 F1200.00
G1 X120.2688 Y99.4998 Z-2.0000 F1200.00
G1 X22.7529 Y1.9838 Z-2.0000 F1200.00
G1 X24.4499 Y0.2868 Z-2.0000 F1200.00
G1 X123.6629 Y99.4998 Z-2.0000 F1200.00
G1 X127.0571 Y99.4998 Z-2.0000 F1200.00
G1 X26.1470 Y-1.4103 Z-2.0000 F1200.00
G1 X27.8441 Y-3.1073 Z-2.0000 F1200.00
G1 X130.4512 Y99.4998 Z-2.0000 F1200.00
G1 X133.8453 Y99.4998 Z-2.0000 F1200.00
G1 X29.5411 Y-4.8043 Z-2.0000 F1200.00
G1 X31.2382 Y-6.5014 Z-2.0000 F1200.00
G1 X137.2394 Y99.4998 Z-2.0000 F1200.00
G1 X140.6335 Y99.4998 Z-2.0000 F1200.00
G1 X33.0111 Y-8.1226 Z-2.0000 F1200.00
G3 X35.1229 Y-9.4049 Z-2.0000 I6.3320 J8.0480 F1200.00
G1 X144.0276 Y99.4998 Z-2.0000 F1200.00
G1 X147.4217 Y99.4998 Z-2.0000 F1200.00
G1 X37.6693 Y-10.2526 Z-2.0000 F1200.00
G3 X40.8161 Y-10.5000 Z-2.0000 I2.5448 J12.2329 F1200.00
G1 X150.8158 Y99.4998 Z-2.0000 F1200.00
G1 X154.2100 Y99.4998 Z-2.0000 F1200.00
G1 X44.2102 Y-10.5000 Z-2.0000 F1200.00
G1 X47.6043 Y-10.5000 Z-2.0000 F1200.00
G1 X157.6041 Y99.4998 Z-2.0000 F1200.00
G1 X160.9982 Y99.4998 Z-2.0000 F1200.00
G1 X50.9985 Y-10.4999 Z-2.0000 F1200.00
G1 X54.3926 Y-10.4999 Z-2.0000 F1200.00
G1 X164.3923 Y99.4998 Z-2.0000 F1200.00
G1 X167.7864 Y99.4998 Z-2.0000 F1200.00
G1 X57.7867 Y-10.4999 Z-2.0000 F1200.00
G1 X61.1809 Y-10.4999 Z-2.0000 F1200.00
G1 X171.1805 Y99.4998 Z-2.0000 F1200.00
G1 X174.5746 Y99.4998 Z-2.0000 F1200.00
G1 X64.5750 Y-10.4999 Z-2.0000 F1200.00
G1 X67.9691 Y-10.4998 Z-2.0000 F1200.00
G1 X177.9687 Y99.4998 Z-2.0000 F1200.00
G1 X181.3629 Y99.4998 Z-2.0000 F1200.00
G1 X71.3633 Y-10.4998 Z-2.0000 F1200.00
G1 X74.7574 Y-10.4998 Z-2.0000 F1200.00
G1 X184.4802 Y99.2230 Z-2.0000 F1200.00
G2 X187.0002 Y98.3489 Z-2.0000 I-2.1776 J-10.3470 F1200.00
G1 X78.1515 Y-10.4998 Z-2.0000 F1200.00
G1 X81.5457 Y-10.4998 Z-2.0000 F1200.00
G1 X189.0898 Y97.0444 Z-2.0000 F1200.00
G2 X190.8522 Y95.4127 Z-2.0000 I-7.3048 J-9.6575 F1200.00
G1 X84.9398 Y-10.4997 Z-2.0000 F1200.00
G1 X88.3339 Y-10.4997 Z-2.0000 F1200.00
G1 X192.5493 Y93.7157 Z-2.0000 F1200.00
G1 X194.2463 Y92.0186 Z-2.0000 F1200.00
G1 X91.7281 Y-10.4997 Z-2.0000 F1200.00
G1 X95.1222 Y-10.4996 Z-2.0000 F1200.00
G1 X195.9434 Y90.3215 Z-2.0000 F1200.00
G1 X197.6405 Y88.6245 Z-2.0000 F1200.00
G1 X98.5163 Y-10.4996 Z-2.0000 F1200.00
G1 X101.9105 Y-10.4996 Z-2.0000 F1200.00
G1 X199.3375 Y86.9274 Z-2.0000 F1200.00
G1 X201.0346 Y85.2304 Z-2.0000 F1200.00
G1 X105.3046 Y-10.4996 Z-2.0000 F1200.00
G1 X108.6987 Y-10.4996 Z-2.0000 F1200.00
G1 X202.7316 Y83.5333 Z-2.0000 F1200.00
G1 X204.4287 Y81.8363 Z-2.0000 F1200.00
G1 X112.0929 Y-10.4995 Z-2.0000 F1200.00
G1 X115.4870 Y-10.4995 Z-2.0000 F1200.00
G1 X206.1257 Y80.1392 Z-2.0000 F1200.00
G1 X207.8228 Y78.4422 Z-2.0000 F1200.00
G1 X118.8811 Y-10.4995 Z-2.0000 F1200.00
G1 X122.2753 Y-10.4995 Z-2.0000 F1200.00
G1 X209.5198 Y76.7451 Z-2.0000 F1200.00
G2 X211.2134 Y75.0446 Z-2.0000 I-19.7107 J-21.3243 F1200.00
G1 X125.6694 Y-10.4995 Z-2.0000 F1200.00
G1 X129.0635 Y-10.4994 Z-2.0000 F1200.00
G1 X212.7104 Y73.1474 Z-2.0000 F1200.00
G2 X213.8229 Y70.8658 Z-2.0000 I-8.5601 J-5.5862 F1200.00
G1 X132.4576 Y-10.4994 Z-2.0000 F1200.00
G1 X135.8518 Y-10.4994 Z-2.0000 F1200.00
G1 X214.4409 Y68.0897 Z-2.0000 F1200.00
G2 X214.2135 Y64.4682 Z-2.0000 I-10.8494 J-1.1365 F1200.00
G1 X139.2459 Y-10.4994 Z-2.0000 F1200.00
G1 X142.6400 Y-10.4994 Z-2.0000 F1200.00
G1 X197.2019 Y44.0625 Z-2.0000 F1200.00
G1 X198.8990 Y42.3655 Z-2.0000 F1200.00
G1 X146.0342 Y-10.4994 Z-2.0000 F1200.00
G1 X149.4283 Y-10.4993 Z-2.0000 F1200.00
G1 X200.5961 Y40.6684 Z-2.0000 F1200.00
G1 X202.2931 Y38.9714 Z-2.0000 F1200.00
G1 X152.8224 Y-10.4993 Z-2.0000 F1200.00
G1 X156.2166 Y-10.4993 Z-2.0000 F1200.00
G1 X203.9902 Y37.2743 Z-2.0000 F1200.00
G1 X205.6873 Y35.5773 Z-2.0000 F1200.00
G1 X159.6107 Y-10.4993 Z-2.0000 F1200.00
G1 X163.0048 Y-10.4993 Z-2.0000 F1200.00
G1 X207.3843 Y33.8802 Z-2.0000 F1200.00
G1 X209.0814 Y32.1832 Z-2.0000 F1200.00
G1 X166.3990 Y-10.4992 Z-2.0000 F1200.00
G1 X169.7931 Y-10.4992 Z-2.0000 F1200.00
G1 X210.7785 Y30.4861 Z-2.0000 F1200.00
G2 X212.3635 Y28.6771 Z-2.0000 I-8.4486 J-9.0014 F1200.00
G1 X173.1872 Y-10.4992 Z-2.0000 F1200.00
G1 X176.5814 Y-10.4992 Z-2.0000 F1200.00
G1 X213.5758 Y26.4952 Z-2.0000 F1200.00
G2 X214.3384 Y23.8637 Z-2.0000 I-9.4366 J-4.1610 F1200.00
G1 X179.9755 Y-10.4992 Z-2.0000 F1200.00
G3 X183.4725 Y-10.3962 Z-2.0000 I1.0123 J25.0666 F1200.00
G1 X214.4047 Y20.5360 Z-2.0000 F1200.00
G2 X211.1319 Y13.8693 Z-2.0000 I-11.3914 J1.4556 F1200.00
G1 X190.1321 Y-7.1308 Z-2.0000 F1200.00
G0 Z5.0000
(finish operation: roughing_001)
(begin operation: roughing_002)
(Path: roughing_002)
(roughing_002)
G0 Z5.0000
G0 X190.1321 Y-7.1308
G0 Z3.0000
G1 X190.1321 Y-7.1308 Z-2.5000 F300.00
G1 X211.1319 Y13.8693 Z-2.5000 F1200.00
G3 X214.4047 Y20.5360 Z-2.5000 I-8.1186 J8.1223 F1200.00
G1 X183.4725 Y-10.3962 Z-2.5000 F1200.00
G2 X179.9755 Y-10.4992 Z-2.5000 I-2.4848 J24.9637 F1200.00
G1 X214.3384 Y23.8637 Z-2.5000 F1200.00
G3 X213.5758 Y26.4952 Z-2.5000 I-10.1992 J-1.5295 F1200.00
G1 X176.5814 Y-10.4992 Z-2.5000 F1200.00
G1 X173.1872 Y-10.4992 Z-2.5000 F1200.00
G1 X212.3635 Y28.6771 Z-2.5000 F1200.00
G3 X210.7785 Y30.4861 Z-2.5000 I-10.0336 J-7.1924 F1200.00
G1 X169.7931 Y-10.4992 Z-2.5000 F1200.00
G1 X166.3990 Y-10.4992 Z-2.5000 F1200.00
G1 X209.0814 Y32.1832 Z-2.5000 F1200.00
G1 X207.3843 Y33.8802 Z-2.5000 F1200.00
G1 X163.0048 Y-10.4993 Z-2.5000 F1200.00
G1 X159.6107 Y-10.4993 Z-2.5000 F1200.00
G1 X205.6873 Y35.5773 Z-2.5000 F1200.00
G1 X203.9902 Y37.2743 Z-2.5000 F1200.00
G1 X156.2166 Y-10.4993 Z-2.5000 F1200.00
G1 X152.8224 Y-10.4993 Z-2.5000 F1200.00
G1 X202.2931 Y38.9714 Z-2.5000 F1200.00
G1 X200.5961 Y40.6684 Z-2.5000 F1200.00
G1 X149.4283 Y-10.4993 Z-2.5000 F1200.00
G1 X146.0342 Y-10.4994 Z-2.5000 F1200.00
G1 X198.8990 Y42.3655 Z-2.5000 F1200.00
G1 X197.2019 Y44.0625 Z-2.5000 F1200.00
G1 X142.6400 Y-10.4994 Z-2.5000 F1200.00
G1 X139.2459 Y-10.4994 Z-2.5000 F1200.00
G1 X214.2135 Y64.4682 Z-2.5000 F1200.00
G3 X214.4409 Y68.0897 Z-2.5000 I-10.6220 J2.4851 F1200.00
G1 X135.8518 Y-10.4994 Z-2.5000 F1200.00
G1 X132.4576 Y-10.4994 Z-2.5000 F1200.00
G1 X213.8229 Y70.8658 Z-2.5000 F1200.00
G3 X212.7104 Y73.1474 Z-2.5000 I-9.6727 J-3.3046 F1200.00
G1 X129.0635 Y-10.4994 Z-2.5000 F1200.00
G1 X125.6694 Y-10.4995 Z-2.5000 F1200.00
G1 X211.2134 Y75.0446 Z-2.5000 F1200.00
G3 X209.5198 Y76.7451 Z-2.5000 I-21.4043 J-19.6237 F1200.00
G1 X122.2753 Y-10.4995 Z-2.5000 F1200.00
G1 X118.8811 Y-10.4995 Z-2.5000 F1200.00
G1 X207.8228 Y78.4422 Z-2.5000 F1200.00
G1 X206.1257 Y80.1392 Z-2.5000 F1200.00
G1 X115.4870 Y-10.4995 Z-2.5000 F1200.00
G1 X112.0929 Y-10.4995 Z-2.5000 F1200.00
G1 X204.4287 Y81.8363 Z-2.5000 F1200.00
G1 X202.7316 Y83.5333 Z-2.5000 F1200.00
G1 X108.6987 Y-10.4996 Z-2.5000 F1200.00
G1 X105.3046 Y-10.4996 Z-2.5000 F1200.00
G1 X201.0346 Y85.2304 Z-2.5000 F1200.00
G1 X199.3375 Y86.9274 Z-2.5000 F1200.00
G1 X101.9105 Y-10.4996 Z-2.5000 F1200.00
G1 X98.5163 Y-10.4996 Z-2.5000 F1200.00
G1 X197.6405 Y88.6245 Z-2.5000 F1200.00
G1 X195.9434 Y90.3215 Z-2.5000 F1200.00
G1 X95.1222 Y-10.4996 Z-2.5000 F1200.00
G1 X91.7281 Y-10.4997 Z-2.5000 F1200.00
G1 X194.2463 Y92.0186 Z-2.5000 F1200.00
G1 X192.5493 Y93.7157 Z-2.5000 F1200.00
G1 X88.3339 Y-10.4997 Z-2.5000 F1200.00
G1 X84.9398 Y-10.4997 Z-2.5000 F1200.00
G1 X190.8522 Y95.4127 Z-2.5000 F1200.00
G3 X189.0898 Y97.0444 Z-2.5000 I-9.0672 J-8.0258 F1200.00
G1 X81.5457 Y-10.4998 Z-2.5000 F1200.00
G1 X78.1515 Y-10.4998 Z-2.5000 F1200.00
G1 X187.0002 Y98.3489 Z-2.5000 F1200.00
G3 X184.4802 Y99.2230 Z-2.5000 I-4.6976 J-9.4728 F1200.00
G1 X74.7574 Y-10.4998 Z-2.5000 F1200.00
G1 X71.3633 Y-10.4998 Z-2.5000 F1200.00
G1 X181.3629 Y99.4998 Z-2.5000 F1200.00
G1 X177.9687 Y99.4998 Z-2.5000 F1200.00
G1 X67.9691 Y-10.4998 Z-2.5000 F1200.00
G1 X64.5750 Y-10.4999 Z-2.5000 F1200.00
G1 X174.5746 Y99.4998 Z-2.5000 F1200.00
G1 X171.1805 Y99.4998 Z-2.5000 F1200.00
G1 X61.1809 Y-10.4999 Z-2.5000 F1200.00
G1 X57.7867 Y-10.4999 Z-2.5000 F1200.00
G1 X167.7864 Y99.4998 Z-2.5000 F1200.00
G1 X164.3923 Y99.4998 Z-2.5000 F1200.00
G1 X54.3926 Y-10.4999 Z-2.5000 F1200.00
G1 X50.9985 Y-10.4999 Z-2.5000 F1200.00
G1 X160.9982 Y99.4998 Z-2.5000 F1200.00
G1 X157.6041 Y99.4998 Z-2.5000 F1200.00
G1 X47.6043 Y-10.5000 Z-2.5000 F1200.00
G1 X44.2102 Y-10.5000 Z-2.5000 F1200.00
G1 X154.2100 Y99.4998 Z-2.5000 F1200.00
G1 X150.8158 Y99.4998 Z-2.5000 F1200.00
G1 X40.8161 Y-10.5000 Z-2.5000 F1200.00
G2 X37.6693 Y-10.2526 Z-2.5000 I-0.6019 J12.4803 F1200.00
G1 X147.4217 Y99.4998 Z-2.5000 F1200.00
G1 X144.0276 Y99.4998 Z-2.5000 F1200.00
G1 X35.1229 Y-9.4049 Z-2.5000 F1200.00
G2 X33.0111 Y-8.1226 Z-2.5000 I4.2202 J9.3303 F1200.00
G1 X140.6335 Y99.4998 Z-2.5000 F1200.00
G1 X137.2394 Y99.4998 Z-2.5000 F1200.00
G1 X31.2382 Y-6.5014 Z-2.5000 F1200.00
G1 X29.5411 Y-4.8043 Z-2.5000 F1200.00
G1 X133.8453 Y99.4998 Z-2.5000 F1200.00
G1 X130.4512 Y99.4998 Z-2.5000 F1200.00
G1 X27.8441 Y-3.1073 Z-2.5000 F1200.00
G1 X26.1470 Y-1.4103 Z-2.5000 F1200.00
G1 X127.0571 Y99.4998 Z-2.5000 F1200.00
G1 X123.6629 Y99.4998 Z-2.5000 F1200.00
G1 X24.4499 Y0.2868 Z-2.5000 F1200.00
G1 X22.7529 Y1.9838 Z-2.5000 F1200.00
G1 X120.2688 Y99.4998 Z-2.5000 F1200.00
G1 X116.8747 Y99.4998 Z-2.5000 F1200.00
G1 X21.0558 Y3.6809 Z-2.5000 F1200.00
G1 X19.3587 Y5.3779 Z-2.5000 F1200.00
G1 X113.4806 Y99.4998 Z-2.5000 F1200.00
G1 X110.0865 Y99.4998 Z-2.5000 F1200.00
G1 X17.6617 Y7.0750 Z-2.5000 F1200.00
G1 X15.9646 Y8.7720 Z-2.5000 F1200.00
G1 X106.6924 Y99.4998 Z-2.5000 F1200.00
G1 X103.2983 Y99.4998 Z-2.5000 F1200.00
G1 X14.2675 Y10.4691 Z-2.5000 F1200.00
G1 X12.5705 Y12.1661 Z-2.5000 F1200.00
G1 X99.9042 Y99.4998 Z-2.5000 F1200.00
G1 X96.5100 Y99.4998 Z-2.5000 F1200.00
G1 X10.8734 Y13.8632 Z-2.5000 F1200.00
G2 X9.3614 Y15.7453 Z-2.5000 I7.6204 J7.6703 F1200.00
G1 X93.1159 Y99.4998 Z-2.5000 F1200.00
G1 X89.7218 Y99.4998 Z-2.5000 F1200.00
G1 X8.2242 Y18.0021 Z-2.5000 F1200.00
G2 X7.5745 Y20.7465 Z-2.5000 I10.0217 J3.8217 F1200.00
G1 X86.3277 Y99.4998 Z-2.5000 F1200.00
G1 X82.9336 Y99.4998 Z-2.5000 F1200.00
G1 X7.7352 Y24.3014 Z-2.5000 F1200.00
G2 X10.8684 Y30.1316 Z-2.5000 I11.2394 J-2.2832 F1200.00
G1 X25.2373 Y44.5007 Z-2.5000 F1200.00
G1 X24.8889 Y44.8492 Z-2.5000 F1200.00
G1 X79.5395 Y99.4998 Z-2.5000 F1200.00
G1 X76.1454 Y99.4998 Z-2.5000 F1200.00
G1 X23.1918 Y46.5462 Z-2.5000 F1200.00
G1 X21.4947 Y48.2433 Z-2.5000 F1200.00
G1 X72.7513 Y99.4998 Z-2.5000 F1200.00
G1 X69.3571 Y99.4998 Z-2.5000 F1200.00
G1 X19.7977 Y49.9403 Z-2.5000 F1200.00
G1 X18.1006 Y51.6374 Z-2.5000 F1200.00
G1 X65.9630 Y99.4998 Z-2.5000 F1200.00
G1 X62.5689 Y99.4998 Z-2.5000 F1200.00
G1 X16.4036 Y53.3345 Z-2.5000 F1200.00
G1 X14.7065 Y55.0315 Z-2.5000 F1200.00
G1 X59.1748 Y99.4998 Z-2.5000 F1200.00
G1 X55.7807 Y99.4998 Z-2.5000 F1200.00
G1 X13.0095 Y56.7286 Z-2.5000 F1200.00
G1 X11.3124 Y58.4256 Z-2.5000 F1200.00
G1 X52.3866 Y99.4998 Z-2.5000 F1200.00
G1 X48.9925 Y99.4998 Z-2.5000 F1200.00
G1 X9.7158 Y60.2231 Z-2.5000 F1200.00
G2 X8.4804 Y62.3818 Z-2.5000 I8.3831 J6.2307 F1200.00
G1 X45.5984 Y99.4998 Z-2.5000 F1200.00
G1 X42.2042 Y99.4998 Z-2.5000 F1200.00
G1 X7.6889 Y64.9845 Z-2.5000 F1200.00
G2 X7.5771 Y68.2668 Z-2.5000 I10.6340 J2.0053 F1200.00
G1 X38.7311 Y99.4207 Z-2.5000 F1200.00
G3 X33.1361 Y97.2199 Z-2.5000 I1.1967 J-11.2543 F1200.00
G1 X9.7971 Y73.8808 Z-2.5000 F1200.00
G2 X10.8700 Y75.1315 Z-2.5000 I8.0832 J-5.8487 F1200.00
G1 X31.8700 Y96.1315 Z-2.5000 F1200.00
G2 X33.1361 Y97.2199 Z-2.5000 I7.5474 J-7.4996 F1200.00
G1 X33.1361 Y97.2199 Z-3.0000 F300.00
G3 X31.8700 Y96.1315 Z-3.0000 I6.2813 J-8.5879 F1200.00
G1 X10.8700 Y75.1315 Z-3.0000 F1200.00
G3 X9.7971 Y73.8808 Z-3.0000 I7.0103 J-7.0994 F1200.00
G1 X33.1361 Y97.2199 Z-3.0000 F1200.00
G2 X38.7311 Y99.4207 Z-3.0000 I6.7917 J-9.0534 F1200.00
G1 X7.5771 Y68.2668 Z-3.0000 F1200.00
G3 X7.6889 Y64.9845 Z-3.0000 I10.7458 J-1.2770 F1200.00
G1 X42.2042 Y99.4998 Z-3.0000 F1200.00
G1 X45.5984 Y99.4998 Z-3.0000 F1200.00
G1 X8.4804 Y62.3818 Z-3.0000 F1200.00
G3 X9.7158 Y60.2231 Z-3.0000 I9.6186 J4.0720 F1200.00
G1 X48.9925 Y99.4998 Z-3.0000 F1200.00
G1 X52.3866 Y99.4998 Z-3.0000 F1200.00
G1 X11.3124 Y58.4256 Z-3.0000 F1200.00
G1 X13.0095 Y56.7286 Z-3.0000 F1200.00
G1 X55.7807 Y99.4998 Z-3.0000 F1200.00
G1 X59.1748 Y99.4998 Z-3.0000 F1200.00
G1 X14.7065 Y55.0315 Z-3.0000 F1200.00
G1 X16.4036 Y53.3345 Z-3.0000 F1200.00
G1 X62.5689 Y99.4998 Z-3.0000 F1200.00
G1 X65.9630 Y99.4998 Z-3.0000 F1200.00
G1 X18.1006 Y51.6374 Z-3.0000 F1200.00
G1 X19.7977 Y49.9403 Z-3.0000 F1200.00
G1 X69.3571 Y99.4998 Z-3.0000 F1200.00
G1 X72.7513 Y99.4998 Z-3.0000 F1200.00
G1 X21.4947 Y48.2433 Z-3.0000 F1200.00
G1 X23.1918 Y46.5462 Z-3.0000 F1200.00
G1 X76.1454 Y99.4998 Z-3.0000 F1200.00
G1 X79.5395 Y99.4998 Z-3.0000 F1200.00
G1 X24.8889 Y44.8492 Z-3.0000 F1200.00
G1 X25.2373 Y44.5007 Z-3.0000 F1200.00
G1 X10.8684 Y30.1316 Z-3.0000 F1200.00
G3 X7.7352 Y24.3014 Z-3.0000 I8.1061 J-8.1134 F1200.00
G1 X82.9336 Y99.4998 Z-3.0000 F1200.00
G1 X86.3277 Y99.4998 Z-3.0000 F1200.00
G1 X7.5745 Y20.7465 Z-3.0000 F1200.00
G3 X8.2242 Y18.0021 Z-3.0000 I10.6714 J1.0773 F1200.00
G1 X89.7218 Y99.4998 Z-3.0000 F1200.00
G1 X93.1159 Y99.4998 Z-3.0000 F1200.00
G1 X9.3614 Y15.7453 Z-3.0000 F1200.00
G3 X10.8734 Y13.8632 Z-3.0000 I9.1324 J5.7882 F1200.00
G1 X96.5100 Y99.4998 Z-3.0000 F1200.00
G1 X99.9042 Y99.4998 Z-3.0000 F1200.00
G1 X12.5705 Y12.1661 Z-3.0000 F1200.00
G1 X14.2675 Y10.4691 Z-3.0000 F1200.00
G1 X103.2983 Y99.4998 Z-3.0000 F1200.00
G1 X106.6924 Y99.4998 Z-3.0000 F1200.00
G1 X15.9646 Y8.7720 Z-3.0000 F1200.00
G1 X17.6617 Y7.0750 Z-3.0000 F1200.00
G1 X110.0865 Y99.4998 Z-3.0000 F1200.00
G1 X113.4806 Y99.4998 Z-3.0000 F1200.00
G1 X19.3587 Y5.3779 Z-3.0000 F1200.00
G1 X21.0558 Y3.6809 Z-3.0000 F1200.00
G1 X116.8747 Y99.4998 Z-3.0000 F1200.00
G1 X120.2688 Y99.4998 Z-3.0000 F1200.00
G1 X22.7529 Y1.9838 Z-3.0000 F1200.00
G1 X24.4499 Y0.2868 Z-3.0000 F1200.00
G1 X123.6629 Y99.4998 Z-3.0000 F1200.00
G1 X127.0571 Y99.4998 Z-3.0000 F1200.00
G1 X26.1470 Y-1.4103 Z-3.0000 F1200.00
G1 X27.8441 Y-3.1073 Z-3.0000 F1200.00
G1 X130.4512 Y99.4998 Z-3.0000 F1200.00
G1 X133.8453 Y99.4998 Z-3.0000 F1200.00
G1 X29.5411 Y-4.8043 Z-3.0000 F1200.00
G1 X31.2382 Y-6.5014 Z-3.0000 F1200.00
G1 X137.2394 Y99.4998 Z-3.0000 F1200.00
G1 X140.6335 Y99.4998 Z-3.0000 F1200.00
G1 X33.0111 Y-8.1226 Z-3.0000 F1200.00
G3 X35.1229 Y-9.4049 Z-3.0000 I6.3320 J8.0480 F1200.00
G1 X144.0276 Y99.4998 Z-3.0000 F1200.00
G1 X147.4217 Y99.4998 Z-3.0000 F1200.00
G1 X37.6693 Y-10.2526 Z-3.0000 F1200.00
G3 X40.8161 Y-10.5000 Z-3.0000 I2.5448 J12.2329 F1200.00
G1 X150.8158 Y99.4998 Z-3.0000 F1200.00
G1 X154.2100 Y99.4998 Z-3.0000 F1200.00
G1 X44.2102 Y-10.5000 Z-3.0000 F1200.00
G1 X47.6043 Y-10.5000 Z-3.0000 F1200.00
G1 X157.6041 Y99.4998 Z-3.0000 F1200.00
G1 X160.9982 Y99.4998 Z-3.0000 F1200.00
G1 X50.9985 Y-10.4999 Z-3.0000 F1200.00
G1 X54.3926 Y-10.4999 Z-3.0000 F1200.00
G1 X164.3923 Y99.4998 Z-3.0000 F1200.00
G1 X167.7864 Y99.4998 Z-3.0000 F1200.00
G1 X57.7867 Y-10.4999 Z-3.0000 F1200.00
G1 X61.1809 Y-10.4999 Z-3.0000 F1200.00
G1 X171.1805 Y99.4998 Z-3.0000 F1200.00
G1 X174.5746 Y99.4998 Z-3.0000 F1200.00
G1 X64.5750 Y-10.4999 Z-3.0000 F1200.00
G1 X67.9691 Y-10.4998 Z-3.0000 F1200.00
G1 X177.9687 Y99.4998 Z-3.0000 F1200.00
G1 X181.3629 Y99.4998 Z-3.0000 F1200.00
G1 X71.3633 Y-10.4998 Z-3.0000 F1200.00
G1 X74.7574 Y-10.4998 Z-3.0000 F1200.00
G1 X184.4802 Y99.2230 Z-3.0000 F1200.00
G2 X187.0002 Y98.3489 Z-3.0000 I-2.1776 J-10.3470 F1200.00
G1 X78.1515 Y-10.4998 Z-3.0000 F1200.00
G1 X81.5457 Y-10.4998 Z-3.0000 F1200.00
G1 X189.0898 Y97.0444 Z-3.0000 F1200.00
G2 X190.8522 Y95.4127 Z-3.0000 I-7.3048 J-9.6575 F1200.00
G1 X84.9398 Y-10.4997 Z-3.0000 F1200.00
G1 X88.3339 Y-10.4997 Z-3.0000 F1200.00
G1 X192.5493 Y93.7157 Z-3.0000 F1200.00
G1 X194.2463 Y92.0186 Z-3.0000 F1200.00
G1 X91.7281 Y-10.4997 Z-3.0000 F1200.00
G1 X95.1222 Y-10.4996 Z-3.0000 F1200.00
G1 X195.9434 Y90.3215 Z-3.0000 F1200.00
G1 X197.6405 Y88.6245 Z-3.0000 F1200.00
G1 X98.5163 Y-10.4996 Z-3.0000 F1200.00
G1 X101.9105 Y-10.4996 Z-3.0000 F1200.00
G1 X199.3375 Y86.9274 Z-3.0000 F1200.00
G1 X201.0346 Y85.2304 Z-3.0000 F1200.00
G1 X105.3046 Y-10.4996 Z-3.0000 F1200.00
G1 X108.6987 Y-10.4996 Z-3.0000 F1200.00
G1 X202.7316 Y83.5333 Z-3.0000 F1200.00
G1 X204.4287 Y81.8363 Z-3.0000 F1200.00
G1 X112.0929 Y-10.4995 Z-3.0000 F1200.00
G1 X115.4870 Y-10.4995 Z-3.0000 F1200.00
G1 X206.1257 Y80.1392 Z-3.0000 F1200.00
G1 X207.8228 Y78.4422 Z-3.0000 F1200.00
G1 X118.8811 Y-10.4995 Z-3.0000 F1200.00
G1 X122.2753 Y-10.4995 Z-3.0000 F1200.00
G1 X209.5198 Y76.7451 Z-3.0000 F1200.00
G2 X211.2134 Y75.0446 Z-3.0000 I-19.7107 J-21.3243 F1200.00
G1 X125.6694 Y-10.4995 Z-3.0000 F1200.00
G1 X129.0635 Y-10.4994 Z-3.0000 F1200.00
G1 X212.7104 Y73.1474 Z-3.0000 F1200.00
G2 X213.8229 Y70.8658 Z-3.0000 I-8.5601 J-5.5862 F1200.00
G1 X132.4576 Y-10.4994 Z-3.0000 F1200.00
G1 X135.8518 Y-10.4994 Z-3.0000 F1200.00
G1 X214.4409 Y68.0897 Z-3.0000 F1200.00
G2 X214.2135 Y64.4682 Z-3.0000 I-10.8494 J-1.1365 F1200.00
G1 X139.2459 Y-10.4994 Z-3.0000 F1200.00
G1 X142.6400 Y-10.4994 Z-3.0000 F1200.00
G1 X197.2019 Y44.0625 Z-3.0000 F1200.00
G1 X198.8990 Y42.3655 Z-3.0000 F1200.00
G1 X146.0342 Y-10.4994 Z-3.0000 F1200.00
G1 X149.4283 Y-10.4993 Z-3.0000 F1200.00
G1 X200.5961 Y40.6684 Z-3.0000 F1200.00
G1 X202.2931 Y38.9714 Z-3.0000 F1200.00
G1 X152.8224 Y-10.4993 Z-3.0000 F1200.00
G1 X156.2166 Y-10.4993 Z-3.0000 F1200.00
G1 X203.9902 Y37.2743 Z-3.0000 F1200.00
G1 X205.6873 Y35.5773 Z-3.0000 F1200.00
G1 X159.6107 Y-10.4993 Z-3.0000 F1200.00
G1 X163.0048 Y-10.4993 Z-3.0000 F1200.00
G1 X207.3843 Y33.8802 Z-3.0000 F1200.00
G1 X209.0814 Y32.1832 Z-3.0000 F1200.00
G1 X166.3990 Y-10.4992 Z-3.0000 F1200.00
G1 X169.7931 Y-10.4992 Z-3.0000 F1200.00
G1 X210.7785 Y30.4861 Z-3.0000 F1200.00
G2 X212.3635 Y28.6771 Z-3.0000 I-8.4486 J-9.0014 F1200.00
G1 X173.1872 Y-10.4992 Z-3.0000 F1200.00
G1 X176.5814 Y-10.4992 Z-3.0000 F1200.00
G1 X213.5758 Y26.4952 Z-3.0000 F1200.00
G2 X214.3384 Y23.8637 Z-3.0000 I-9.4366 J-4.1610 F1200.00
G1 X179.9755 Y-10.4992 Z-3.0000 F1200.00
G3 X183.4725 Y-10.3962 Z-3.0000 I1.0123 J25.0666 F1200.00
G1 X214.4047 Y20.5360 Z-3.0000 F1200.00
G2 X211.1319 Y13.8693 Z-3.0000 I-11.3914 J1.4556 F1200.00
G1 X190.1321 Y-7.1308 Z-3.0000 F1200.00
G1 X190.1321 Y-7.1308 Z-3.5000 F300.00
G1 X211.1319 Y13.8693 Z-3.5000 F1200.00
G3 X214.4047 Y20.5360 Z-3.5000 I-8.1186 J8.1223 F1200.00
G1 X183.4725 Y-10.3962 Z-3.5000 F1200.00
G2 X179.9755 Y-10.4992 Z-3.5000 I-2.4848 J24.9637 F1200.00
G1 X214.3384 Y23.8637 Z-3.5000 F1200.00
G3 X213.5758 Y26.4952 Z-3.5000 I-10.1992 J-1.5295 F1200.00
G1 X176.5814 Y-10.4992 Z-3.5000 F1200.00
G1 X173.1872 Y-10.4992 Z-3.5000 F1200.00
G1 X212.3635 Y28.6771 Z-3.5000 F1200.00
G3 X210.7785 Y30.4861 Z-3.5000 I-10.0336 J-7.1924 F1200.00
G1 X169.7931 Y-10.4992 Z-3.5000 F1200.00
G1 X166.3990 Y-10.4992 Z-3.5000 F1200.00
G1 X209.0814 Y32.1832 Z-3.5000 F1200.00
G1 X207.3843 Y33.8802 Z-3.5000 F1200.00
G1 X163.0048 Y-10.4993 Z-3.5000 F1200.00
G1 X159.6107 Y-10.4993 Z-3.5000 F1200.00
G1 X205.6873 Y35.5773 Z-3.5000 F1200.00
G1 X203.9902 Y37.2743 Z-3.5000 F1200.00
G1 X156.2166 Y-10.4993 Z-3.5000 F1200.00
G1 X152.8224 Y-10.4993 Z-3.5000 F1200.00
G1 X202.2931 Y38.9714 Z-3.5000 F1200.00
G1 X200.5961 Y40.6684 Z-3.5000 F1200.00
G1 X149.4283 Y-10.4993 Z-3.5000 F1200.00
G1 X146.0342 Y-10.4994 Z-3.5000 F1200.00
G1 X198.8990 Y42.3655 Z-3.5000 F1200.00
G1 X197.2019 Y44.0625 Z-3.5000 F1200.00
G1 X142.6400 Y-10.4994 Z-3.5000 F1200.00
G1 X139.2459 Y-10.4994 Z-3.5000 F1200.00
G1 X214.2135 Y64.4682 Z-3.5000 F1200.00
G3 X214.4409 Y68.0897 Z-3.5000 I-10.6220 J2.4851 F1200.00
G1 X135.8518 Y-10.4994 Z-3.5000 F1200.00
G1 X132.4576 Y-10.4994 Z-3.5000 F1200.00
G1 X213.8229 Y70.8658 Z-3.5000 F1200.00
G3 X212.7104 Y73.1474 Z-3.5000 I-9.6727 J-3.3046 F1200.00
G1 X129.0635 Y-10.4994 Z-3.5000 F1200.00
G1 X125.6694 Y-10.4995 Z-3.5000 F1200.00
G1 X211.2134 Y75.0446 Z-3.5000 F1200.00
G3 X209.5198 Y76.7451 Z-3.5000 I-21.4043 J-19.6237 F1200.00
G1 X122.2753 Y-10.4995 Z-3.5000 F1200.00
G1 X118.8811 Y-10.4995 Z-3.5000 F1200.00
G1 X207.8228 Y78.4422 Z-3.5000 F1200.00
G1 X206.1257 Y80.1392 Z-3.5000 F1200.00
G1 X115.4870 Y-10.4995 Z-3.5000 F1200.00
G1 X112.0929 Y-10.4995 Z-3.5000 F1200.00
G1 X204.4287 Y81.8363 Z-3.5000 F1200.00
G1 X202.7316 Y83.5333 Z-3.5000 F1200.00
G1 X108.6987 Y-10.4996 Z-3.5000 F1200.00
G1 X105.3046 Y-10.4996 Z-3.5000 F1200.00
G1 X201.0346 Y85.2304 Z-3.5000 F1200.00
G1 X199.3375 Y86.9274 Z-3.5000 F1200.00
G1 X101.9105 Y-10.4996 Z-3.5000 F1200.00
G1 X98.5163 Y-10.4996 Z-3.5000 F1200.00
G1 X197.6405 Y88.6245 Z-3.5000 F1200.00
G1 X195.9434 Y90.3215 Z-3.5000 F1200.00
G1 X95.1222 Y-10.4996 Z-3.5000 F1200.00
G1 X91.7281 Y-10.4997 Z-3.5000 F1200.00
G1 X194.2463 Y92.0186 Z-3.5000 F1200.00
G1 X192.5493 Y93.7157 Z-3.5000 F1200.00
G1 X88.3339 Y-10.4997 Z-3.5000 F1200.00
G1 X84.9398 Y-10.4997 Z-3.5000 F1200.00
G1 X190.8522 Y95.4127 Z-3.5000 F1200.00
G3 X189.0898 Y97.0444 Z-3.5000 I-9.0672 J-8.0258 F1200.00
G1 X81.5457 Y-10.4998 Z-3.5000 F1200.00
G1 X78.1515 Y-10.4998 Z-3.5000 F1200.00
G1 X187.0002 Y98.3489 Z-3.5000 F1200.00
G3 X184.4802 Y99.2230 Z-3.5000 I-4.6976 J-9.4728 F1200.00
G1 X74.7574 Y-10.4998 Z-3.5000 F1200.00
G1 X71.3633 Y-10.4998 Z-3.5000 F1200.00
G1 X181.3629 Y99.4998 Z-3.5000 F1200.00
G1 X177.9687 Y99.4998 Z-3.5000 F1200.00
G1 X67.9691 Y-10.4998 Z-3.5000 F1200.00
G1 X64.5750 Y-10.4999 Z-3.5000 F1200.00
G1 X174.5746 Y99.4998 Z-3.5000 F1200.00
G1 X171.1805 Y99.4998 Z-3.5000 F1200.00
G1 X61.1809 Y-10.4999 Z-3.5000 F1200.00
G1 X57.7867 Y-10.4999 Z-3.5000 F1200.00
G1 X167.7864 Y99.4998 Z-3.5000 F1200.00
G1 X164.3923 Y99.4998 Z-3.5000 F1200.00
G1 X54.3926 Y-10.4999 Z-3.5000 F1200.00
G1 X50.9985 Y-10.4999 Z-3.5000 F1200.00
G1 X160.9982 Y99.4998 Z-3.5000 F1200.00
G1 X157.6041 Y99.4998 Z-3.5000 F1200.00
G1 X47.6043 Y-10.5000 Z-3.5000 F1200.00
G1 X44.2102 Y-10.5000 Z-3.5000 F1200.00
G1 X154.2100 Y99.4998 Z-3.5000 F1200.00
G1 X150.8158 Y99.4998 Z-3.5000 F1200.00
G1 X40.8161 Y-10.5000 Z-3.5000 F1200.00
G2 X37.6693 Y-10.2526 Z-3.5000 I-0.6019 J12.4803 F1200.00
G1 X147.4217 Y99.4998 Z-3.5000 F1200.00
G1 X144.0276 Y99.4998 Z-3.5000 F1200.00
G1 X35.1229 Y-9.4049 Z-3.5000 F1200.00
G2 X33.0111 Y-8.1226 Z-3.5000 I4.2202 J9.3303 F1200.00
G1 X140.6335 Y99.4998 Z-3.5000 F1200.00
G1 X137.2394 Y99.4998 Z-3.5000 F1200.00
G1 X31.2382 Y-6.5014 Z-3.5000 F1200.00
G1 X29.5411 Y-4.8043 Z-3.5000 F1200.00
G1 X133.8453 Y99.4998 Z-3.5000 F1200.00
G1 X130.4512 Y99.4998 Z-3.5000 F1200.00
G1 X27.8441 Y-3.1073 Z-3.5000 F1200.00
G1 X26.1470 Y-1.4103 Z-3.5000 F1200.00
G1 X127.0571 Y99.4998 Z-3.5000 F1200.00
G1 X123.6629 Y99.4998 Z-3.5000 F1200.00
G1 X24.4499 Y0.2868 Z-3.5000 F1200.00
G1 X22.7529 Y1.9838 Z-3.5000 F1200.00
G1 X120.2688 Y99.4998 Z-3.5000 F1200.00
G1 X116.8747 Y99.4998 Z-3.5000 F1200.00
G1 X21.0558 Y3.6809 Z-3.5000 F1200.00
G1 X19.3587 Y5.3779 Z-3.5000 F1200.00
G1 X113.4806 Y99.4998 Z-3.5000 F1200.00
G1 X110.0865 Y99.4998 Z-3.5000 F1200.00
G1 X17.6617 Y7.0750 Z-3.5000 F1200.00
G1 X15.9646 Y8.7720 Z-3.5000 F1200.00
G1 X106.6924 Y99.4998 Z-3.5000 F1200.00
G1 X103.2983 Y99.4998 Z-3.5000 F1200.00
G1 X14.2675 Y10.4691 Z-3.5000 F1200.00
G1 X12.5705 Y12.1661 Z-3.5000 F1200.00
G1 X99.9042 Y99.4998 Z-3.5000 F1200.00
G1 X96.5100 Y99.4998 Z-3.5000 F1200.00
G1 X10.8734 Y13.8632 Z-3.5000 F1200.00
G2 X9.3614 Y15.7453 Z-3.5000 I7.6204 J7.6703 F1200.00
G1 X93.1159 Y99.4998 Z-3.5000 F1200.00
G1 X89.7218 Y99.4998 Z-3.5000 F1200.00
G1 X8.2242 Y18.0021 Z-3.5000 F1200.00
G2 X7.5745 Y20.7465 Z-3.5000 I10.0217 J3.8217 F1200.00
G1 X86.3277 Y99.4998 Z-3.5000 F1200.00
G1 X82.9336 Y99.4998 Z-3.5000 F1200.00
G1 X7.7352 Y24.3014 Z-3.5000 F1200.00
G2 X10.8684 Y30.1316 Z-3.5000 I11.2394 J-2.2832 F1200.00
G1 X25.2373 Y44.5007 Z-3.5000 F1200.00
G1 X24.8889 Y44.8492 Z-3.5000 F1200.00
G1 X79.5395 Y99.4998 Z-3.5000 F1200.00
G1 X76.1454 Y99.4998 Z-3.5000 F1200.00
G1 X23.1918 Y46.5462 Z-3.5000 F1200.00
G1 X21.4947 Y48.2433 Z-3.5000 F1200.00
G1 X72.7513 Y99.4998 Z-3.5000 F1200.00
G1 X69.3571 Y99.4998 Z-3.5000 F1200.00
G1 X19.7977 Y49.9403 Z-3.5000 F1200.00
G1 X18.1006 Y51.6374 Z-3.5000 F1200.00
G1 X65.9630 Y99.4998 Z-3.5000 F1200.00
G1 X62.5689 Y99.4998 Z-3.5000 F1200.00
G1 X16.4036 Y53.3345 Z-3.5000 F1200.00
G1 X14.7065 Y55.0315 Z-3.5000 F1200.00
G1 X59.1748 Y99.4998 Z-3.5000 F1200.00
G1 X55.7807 Y99.4998 Z-3.5000 F1200.00
G1 X13.0095 Y56.7286 Z-3.5000 F1200.00
G1 X11.3124 Y58.4256 Z-3.5000 F1200.00
G1 X52.3866 Y99.4998 Z-3.5000 F1200.00
G1 X48.9925 Y99.4998 Z-3.5000 F1200.00
G1 X9.7158 Y60.2231 Z-3.5000 F1200.00
G2 X8.4804 Y62.3818 Z-3.5000 I8.3831 J6.2307 F1200.00
G1 X45.5984 Y99.4998 Z-3.5000 F1200.00
G1 X42.2042 Y99.4998 Z-3.5000 F1200.00
G1 X7.6889 Y64.9845 Z-3.5000 F1200.00
G2 X7.5771 Y68.2668 Z-3.5000 I10.6340 J2.0053 F1200.00
G1 X38.7311 Y99.4207 Z-3.5000 F1200.00
G3 X33.1361 Y97.2199 Z-3.5000 I1.1967 J-11.2543 F1200.00
G1 X9.7971 Y73.8808 Z-3.5000 F1200.00
G2 X10.8700 Y75.1315 Z-3.5000 I8.0832 J-5.8487 F1200.00
G1 X31.8700 Y96.1315 Z-3.5000 F1200.00
G2 X33.1361 Y97.2199 Z-3.5000 I7.5474 J-7.4996 F1200.00
G1 X33.1361 Y97.2199 Z-4.0000 F300.00
G3 X31.8700 Y96.1315 Z-4.0000 I6.2813 J-8.5879 F1200.00
G1 X10.8700 Y75.1315 Z-4.0000 F1200.00
G3 X9.7971 Y73.8808 Z-4.0000 I7.0103 J-7.0994 F1200.00
G1 X33.1361 Y97.2199 Z-4.0000 F1200.00
G2 X38.7311 Y99.4207 Z-4.0000 I6.7917 J-9.0534 F1200.00
G1 X7.5771 Y68.2668 Z-4.0000 F1200.00
G3 X7.6889 Y64.9845 Z-4.0000 I10.7458 J-1.2770 F1200.00
G1 X42.2042 Y99.4998 Z-4.0000 F1200.00
G1 X45.5984 Y99.4998 Z-4.0000 F1200.00
G1 X8.4804 Y62.3818 Z-4.0000 F1200.00
G3 X9.7158 Y60.2231 Z-4.0000 I9.6186 J4.0720 F1200.00
G1 X48.9925 Y99.4998 Z-4.0000 F1200.00
G1 X52.3866 Y99.4998 Z-4.0000 F1200.00
G1 X11.3124 Y58.4256 Z-4.0000 F1200.00
G1 X13.0095 Y56.7286 Z-4.0000 F1200.00
G1 X55.7807 Y99.4998 Z-4.0000 F1200.00
G1 X59.1748 Y99.4998 Z-4.0000 F1200.00
G1 X14.7065 Y55.0315 Z-4.0000 F1200.00
G1 X16.4036 Y53.3345 Z-4.0000 F1200.00
G1 X62.5689 Y99.4998 Z-4.0000 F1200.00
G1 X65.9630 Y99.4998 Z-4.0000 F1200.00
G1 X18.1006 Y51.6374 Z-4.0000 F1200.00
G1 X19.7977 Y49.9403 Z-4.0000 F1200.00
G1 X69.3571 Y99.4998 Z-4.0000 F1200.00
G1 X72.7513 Y99.4998 Z-4.0000 F1200.00
G1 X21.4947 Y48.2433 Z-4.0000 F1200.00
G1 X23.1918 Y46.5462 Z-4.0000 F1200.00
G1 X76.1454 Y99.4998 Z-4.0000 F1200.00
G1 X79.5395 Y99.4998 Z-4.0000 F1200.00
G1 X24.8889 Y44.8492 Z-4.0000 F1200.00
G1 X25.2373 Y44.5007 Z-4.0000 F1200.00
G1 X10.8684 Y30.1316 Z-4.0000 F1200.00
G3 X7.7352 Y24.3014 Z-4.0000 I8.1061 J-8.1134 F1200.00
G1 X82.9336 Y99.4998 Z-4.0000 F1200.00
G1 X86.3277 Y99.4998 Z-4.0000 F1200.00
G1 X7.5745 Y20.7465 Z-4.0000 F1200.00
G3 X8.2242 Y18.0021 Z-4.0000 I10.6714 J1.0773 F1200.00
G1 X89.7218 Y99.4998 Z-4.0000 F1200.00
G1 X93.1159 Y99.4998 Z-4.0000 F1200.00
G1 X9.3614 Y15.7453 Z-4.0000 F1200.00
G3 X10.8734 Y13.8632 Z-4.0000 I9.1324 J5.7882 F1200.00
G1 X96.5100 Y99.4998 Z-4.0000 F1200.00
G1 X99.9042 Y99.4998 Z-4.0000 F1200.00
G1 X12.5705 Y12.1661 Z-4.0000 F1200.00
G1 X14.2675 Y10.4691 Z-4.0000 F1200.00
G1 X103.2983 Y99.4998 Z-4.0000 F1200.00
G1 X106.6924 Y99.4998 Z-4.0000 F1200.00
G1 X15.9646 Y8.7720 Z-4.0000 F1200.00
G1 X17.6617 Y7.0750 Z-4.0000 F1200.00
G1 X110.0865 Y99.4998 Z-4.0000 F1200.00
G1 X113.4806 Y99.4998 Z-4.0000 F1200.00
G1 X19.3587 Y5.3779 Z-4.0000 F1200.00
G1 X21.0558 Y3.6809 Z-4.0000 F1200.00
G1 X116.8747 Y99.4998 Z-4.0000 F1200.00
G1 X120.2688 Y99.4998 Z-4.0000 F1200.00
G1 X22.7529 Y1.9838 Z-4.0000 F1200.00
G1 X24.4499 Y0.2868 Z-4.0000 F1200.00
G1 X123.6629 Y99.4998 Z-4.0000 F1200.00
G1 X127.0571 Y99.4998 Z-4.0000 F1200.00
G1 X26.1470 Y-1.4103 Z-4.0000 F1200.00
G1 X27.8441 Y-3.1073 Z-4.0000 F1200.00
G1 X130.4512 Y99.4998 Z-4.0000 F1200.00
G1 X133.8453 Y99.4998 Z-4.0000 F1200.00
G1 X29.5411 Y-4.8043 Z-4.0000 F1200.00
G1 X31.2382 Y-6.5014 Z-4.0000 F1200.00
G1 X137.2394 Y99.4998 Z-4.0000 F1200.00
G1 X140.6335 Y99.4998 Z-4.0000 F1200.00
G1 X33.0111 Y-8.1226 Z-4.0000 F1200.00
G3 X35.1229 Y-9.4049 Z-4.0000 I6.3320 J8.0480 F1200.00
G1 X144.0276 Y99.4998 Z-4.0000 F1200.00
G1 X147.4217 Y99.4998 Z-4.0000 F1200.00
G1 X37.6693 Y-10.2526 Z-4.0000 F1200.00
G3 X40.8161 Y-10.5000 Z-4.0000 I2.5448 J12.2329 F1200.00
G1 X150.8158 Y99.4998 Z-4.0000 F1200.00
G1 X154.2100 Y99.4998 Z-4.0000 F1200.00
G1 X44.2102 Y-10.5000 Z-4.0000 F1200.00
G1 X47.6043 Y-10.5000 Z-4.0000 F1200.00
G1 X157.6041 Y99.4998 Z-4.0000 F1200.00
G1 X160.9982 Y99.4998 Z-4.0000 F1200.00
G1 X50.9985 Y-10.4999 Z-4.0000 F1200.00
G1 X54.3926 Y-10.4999 Z-4.0000 F1200.00
G1 X164.3923 Y99.4998 Z-4.0000 F1200.00
G1 X167.7864 Y99.4998 Z-4.0000 F1200.00
G1 X57.7867 Y-10.4999 Z-4.0000 F1200.00
G1 X61.1809 Y-10.4999 Z-4.0000 F1200.00
G1 X171.1805 Y99.4998 Z-4.0000 F1200.00
G1 X174.5746 Y99.4998 Z-4.0000 F1200.00
G1 X64.5750 Y-10.4999 Z-4.0000 F1200.00
G1 X67.9691 Y-10.4998 Z-4.0000 F1200.00
G1 X177.9687 Y99.4998 Z-4.0000 F1200.00
G1 X181.3629 Y99.4998 Z-4.0000 F1200.00
G1 X71.3633 Y-10.4998 Z-4.0000 F1200.00
G1 X74.7574 Y-10.4998 Z-4.0000 F1200.00
G1 X184.4802 Y99.2230 Z-4.0000 F1200.00
G2 X187.0002 Y98.3489 Z-4.0000 I-2.1776 J-10.3470 F1200.00
G1 X78.1515 Y-10.4998 Z-4.0000 F1200.00
G1 X81.5457 Y-10.4998 Z-4.0000 F1200.00
G1 X189.0898 Y97.0444 Z-4.0000 F1200.00
G2 X190.8522 Y95.4127 Z-4.0000 I-7.3048 J-9.6575 F1200.00
G1 X84.9398 Y-10.4997 Z-4.0000 F1200.00
G1 X88.3339 Y-10.4997 Z-4.0000 F1200.00
G1 X192.5493 Y93.7157 Z-4.0000 F1200.00
G1 X194.2463 Y92.0186 Z-4.0000 F1200.00
G1 X91.7281 Y-10.4997 Z-4.0000 F1200.00
G1 X95.1222 Y-10.4996 Z-4.0000 F1200.00
G1 X195.9434 Y90.3215 Z-4.0000 F1200.00
G1 X197.6405 Y88.6245 Z-4.0000 F1200.00
G1 X98.5163 Y-10.4996 Z-4.0000 F1200.00
G1 X101.9105 Y-10.4996 Z-4.0000 F1200.00
G1 X199.3375 Y86.9274 Z-4.0000 F1200.00
G1 X201.0346 Y85.2304 Z-4.0000 F1200.00
G1 X105.3046 Y-10.4996 Z-4.0000 F1200.00
G1 X108.6987 Y-10.4996 Z-4.0000 F1200.00
G1 X202.7316 Y83.5333 Z-4.0000 F1200.00
G1 X204.4287 Y81.8363 Z-4.0000 F1200.00
G1 X112.0929 Y-10.4995 Z-4.0000 F1200.00
G1 X115.4870 Y-10.4995 Z-4.0000 F1200.00
G1 X206.1257 Y80.1392 Z-4.0000 F1200.00
G1 X207.8228 Y78.4422 Z-4.0000 F1200.00
G1 X118.8811 Y-10.4995 Z-4.0000 F1200.00
G1 X122.2753 Y-10.4995 Z-4.0000 F1200.00
G1 X209.5198 Y76.7451 Z-4.0000 F1200.00
G2 X211.2134 Y75.0446 Z-4.0000 I-19.7107 J-21.3243 F1200.00
G1 X125.6694 Y-10.4995 Z-4.0000 F1200.00
G1 X129.0635 Y-10.4994 Z-4.0000 F1200.00
G1 X212.7104 Y73.1474 Z-4.0000 F1200.00
G2 X213.8229 Y70.8658 Z-4.0000 I-8.5601 J-5.5862 F1200.00
G1 X132.4576 Y-10.4994 Z-4.0000 F1200.00
G1 X135.8518 Y-10.4994 Z-4.0000 F1200.00
G1 X214.4409 Y68.0897 Z-4.0000 F1200.00
G2 X214.2135 Y64.4682 Z-4.0000 I-10.8494 J-1.1365 F1200.00
G1 X139.2459 Y-10.4994 Z-4.0000 F1200.00
G1 X142.6400 Y-10.4994 Z-4.0000 F1200.00
G1 X197.2019 Y44.0625 Z-4.0000 F1200.00
G1 X198.8990 Y42.3655 Z-4.0000 F1200.00
G1 X146.0342 Y-10.4994 Z-4.0000 F1200.00
G1 X149.4283 Y-10.4993 Z-4.0000 F1200.00
G1 X200.5961 Y40.6684 Z-4.0000 F1200.00
G1 X202.2931 Y38.9714 Z-4.0000 F1200.00
G1 X152.8224 Y-10.4993 Z-4.0000 F1200.00
G1 X156.2166 Y-10.4993 Z-4.0000 F1200.00
G1 X203.9902 Y37.2743 Z-4.0000 F1200.00
G1 X205.6873 Y35.5773 Z-4.0000 F1200.00
G1 X159.6107 Y-10.4993 Z-4.0000 F1200.00
G1 X163.0048 Y-10.4993 Z-4.0000 F1200.00
G1 X207.3843 Y33.8802 Z-4.0000 F1200.00
G1 X209.0814 Y32.1832 Z-4.0000 F1200.00
G1 X166.3990 Y-10.4992 Z-4.0000 F1200.00
G1 X169.7931 Y-10.4992 Z-4.0000 F1200.00
G1 X210.7785 Y30.4861 Z-4.0000 F1200.00
G2 X212.3635 Y28.6771 Z-4.0000 I-8.4486 J-9.0014 F1200.00
G1 X173.1872 Y-10.4992 Z-4.0000 F1200.00
G1 X176.5814 Y-10.4992 Z-4.0000 F1200.00
G1 X213.5758 Y26.4952 Z-4.0000 F1200.00
G2 X214.3384 Y23.8637 Z-4.0000 I-9.4366 J-4.1610 F1200.00
G1 X179.9755 Y-10.4992 Z-4.0000 F1200.00
G3 X183.4725 Y-10.3962 Z-4.0000 I1.0123 J25.0666 F1200.00
G1 X214.4047 Y20.5360 Z-4.0000 F1200.00
G2 X211.1319 Y13.8693 Z-4.0000 I-11.3914 J1.4556 F1200.00
G1 X190.1321 Y-7.1308 Z-4.0000 F1200.00
G0 Z5.0000
(finish operation: roughing_002)
(begin operation: roughing_003)
(Path: roughing_003)
(roughing_003)
G0 Z5.0000
G0 X190.1321 Y-7.1308
G0 Z3.0000
G1 X190.1321 Y-7.1308 Z-4.5000 F300.00
G1 X211.1319 Y13.8693 Z-4.5000 F1200.00
G3 X214.4047 Y20.5360 Z-4.5000 I-8.1186 J8.1223 F1200.00
G1 X183.4725 Y-10.3962 Z-4.5000 F1200.00
G2 X179.9755 Y-10.4992 Z-4.5000 I-2.4848 J24.9637 F1200.00
G1 X214.3384 Y23.8637 Z-4.5000 F1200.00
G3 X213.5758 Y26.4952 Z-4.5000 I-10.1992 J-1.5295 F1200.00
G1 X176.5814 Y-10.4992 Z-4.5000 F1200.00
G1 X173.1872 Y-10.4992 Z-4.5000 F1200.00
G1 X212.3635 Y28.6771 Z-4.5000 F1200.00
G3 X210.7785 Y30.4861 Z-4.5000 I-10.0336 J-7.1924 F1200.00
G1 X169.7931 Y-10.4992 Z-4.5000 F1200.00
G1 X166.3990 Y-10.4992 Z-4.5000 F1200.00
G1 X209.0814 Y32.1832 Z-4.5000 F1200.00
G1 X207.3843 Y33.8802 Z-4.5000 F1200.00
G1 X163.0048 Y-10.4993 Z-4.5000 F1200.00
G1 X159.6107 Y-10.4993 Z-4.5000 F1200.00
G1 X205.6873 Y35.5773 Z-4.5000 F1200.00
G1 X203.9902 Y37.2743 Z-4.5000 F1200.00
G1 X156.2166 Y-10.4993 Z-4.5000 F1200.00
G1 X152.8224 Y-10.4993 Z-4.5000 F1200.00
G1 X202.2931 Y38.9714 Z-4.5000 F1200.00
G1 X200.5961 Y40.6684 Z-4.5000 F1200.00
G1 X149.4283 Y-10.4993 Z-4.5000 F1200.00
G1 X146.0342 Y-10.4994 Z-4.5000 F1200.00
G1 X198.8990 Y42.3655 Z-4.5000 F1200.00
G1 X197.2019 Y44.0625 Z-4.5000 F1200.00
G1 X142.6400 Y-10.4994 Z-4.5000 F1200.00
G1 X139.2459 Y-10.4994 Z-4.5000 F1200.00
G1 X214.2135 Y64.4682 Z-4.5000 F1200.00
G3 X214.4409 Y68.0897 Z-4.5000 I-10.6220 J2.4851 F1200.00
G1 X135.8518 Y-10.4994 Z-4.5000 F1200.00
G1 X132.4576 Y-10.4994 Z-4.5000 F1200.00
G1 X213.8229 Y70.8658 Z-4.5000 F1200.00
G3 X212.7104 Y73.1474 Z-4.5000 I-9.6727 J-3.3046 F1200.00
G1 X129.0635 Y-10.4994 Z-4.5000 F1200.00
G1 X125.6694 Y-10.4995 Z-4.5000 F1200.00
G1 X211.2134 Y75.0446 Z-4.5000 F1200.00
G3 X209.5198 Y76.7451 Z-4.5000 I-21.4043 J-19.6237 F1200.00
G1 X122.2753 Y-10.4995 Z-4.5000 F1200.00
G1 X118.8811 Y-10.4995 Z-4.5000 F1200.00
G1 X207.8228 Y78.4422 Z-4.5000 F1200.00
G1 X206.1257 Y80.1392 Z-4.5000 F1200.00
G1 X115.4870 Y-10.4995 Z-4.5000 F1200.00
G1 X112.0929 Y-10.4995 Z-4.5000 F1200.00
G1 X204.4287 Y81.8363 Z-4.5000 F1200.00
G1 X202.7316 Y83.5333 Z-4.5000 F1200.00
G1 X108.6987 Y-10.4996 Z-4.5000 F1200.00
G1 X105.3046 Y-10.4996 Z-4.5000 F1200.00
G1 X201.0346 Y85.2304 Z-4.5000 F1200.00
G1 X199.3375 Y86.9274 Z-4.5000 F1200.00
G1 X101.9105 Y-10.4996 Z-4.5000 F1200.00
G1 X98.5163 Y-10.4996 Z-4.5000 F1200.00
G1 X197.6405 Y88.6245 Z-4.5000 F1200.00
G1 X195.9434 Y90.3215 Z-4.5000 F1200.00
G1 X95.1222 Y-10.4996 Z-4.5000 F1200.00
G1 X91.7281 Y-10.4997 Z-4.5000 F1200.00
G1 X194.2463 Y92.0186 Z-4.5000 F1200.00
G1 X192.5493 Y93.7157 Z-4.5000 F1200.00
G1 X88.3339 Y-10.4997 Z-4.5000 F1200.00
G1 X84.9398 Y-10.4997 Z-4.5000 F1200.00
G1 X190.8522 Y95.4127 Z-4.5000 F1200.00
G3 X189.0898 Y97.0444 Z-4.5000 I-9.0672 J-8.0258 F1200.00
G1 X81.5457 Y-10.4998 Z-4.5000 F1200.00
G1 X78.1515 Y-10.4998 Z-4.5000 F1200.00
G1 X187.0002 Y98.3489 Z-4.5000 F1200.00
G3 X184.4802 Y99.2230 Z-4.5000 I-4.6976 J-9.4728 F1200.00
G1 X74.7574 Y-10.4998 Z-4.5000 F1200.00
G1 X71.3633 Y-10.4998 Z-4.5000 F1200.00
G1 X181.3629 Y99.4998 Z-4.5000 F1200.00
G1 X177.9687 Y99.4998 Z-4.5000 F1200.00
G1 X67.9691 Y-10.4998 Z-4.5000 F1200.00
G1 X64.5750 Y-10.4999 Z-4.5000 F1200.00
G1 X174.5746 Y99.4998 Z-4.5000 F1200.00
G1 X171.1805 Y99.4998 Z-4.5000 F1200.00
G1 X61.1809 Y-10.4999 Z-4.5000 F1200.00
G1 X57.7867 Y-10.4999 Z-4.5000 F1200.00
G1 X167.7864 Y99.4998 Z-4.5000 F1200.00
G1 X164.3923 Y99.4998 Z-4.5000 F1200.00
G1 X54.3926 Y-10.4999 Z-4.5000 F1200.00
G1 X50.9985 Y-10.4999 Z-4.5000 F1200.00
G1 X160.9982 Y99.4998 Z-4.5000 F1200.00
G1 X157.6041 Y99.4998 Z-4.5000 F1200.00
G1 X47.6043 Y-10.5000 Z-4.5000 F1200.00
G1 X44.2102 Y-10.5000 Z-4.5000 F1200.00
G1 X154.2100 Y99.4998 Z-4.5000 F1200.00
G1 X150.8158 Y99.4998 Z-4.5000 F1200.00
G1 X40.8161 Y-10.5000 Z-4.5000 F1200.00
G2 X37.6693 Y-10.2526 Z-4.5000 I-0.6019 J12.4803 F1200.00
G1 X147.4217 Y99.4998 Z-4.5000 F1200.00
G1 X144.0276 Y99.4998 Z-4.5000 F1200.00
G1 X35.1229 Y-9.4049 Z-4.5000 F1200.00
G2 X33.0111 Y-8.1226 Z-4.5000 I4.2202 J9.3303 F1200.00
G1 X140.6335 Y99.4998 Z-4.5000 F1200.00
G1 X137.2394 Y99.4998 Z-4.5000 F1200.00
G1 X31.2382 Y-6.5014 Z-4.5000 F1200.00
G1 X29.5411 Y-4.8043 Z-4.5000 F1200.00
G1 X133.8453 Y99.4998 Z-4.5000 F1200.00
G1 X130.4512 Y99.4998 Z-4.5000 F1200.00
G1 X27.8441 Y-3.1073 Z-4.5000 F1200.00
G1 X26.1470 Y-1.4103 Z-4.5000 F1200.00
G1 X127.0571 Y99.4998 Z-4.5000 F1200.00
G1 X123.6629 Y99.4998 Z-4.5000 F1200.00
G1 X24.4499 Y0.2868 Z-4.5000 F1200.00
G1 X22.7529 Y1.9838 Z-4.5000 F1200.00
G1 X120.2688 Y99.4998 Z-4.5000 F1200.00
G1 X116.8747 Y99.4998 Z-4.5000 F1200.00
G1 X21.0558 Y3.6809 Z-4.5000 F1200.00
G1 X19.3587 Y5.3779 Z-4.5000 F1200.00
G1 X113.4806 Y99.4998 Z-4.5000 F1200.00
G1 X110.0865 Y99.4998 Z-4.5000 F1200.00
G1 X17.6617 Y7.0750 Z-4.5000 F1200.00
G1 X15.9646 Y8.7720 Z-4.5000 F1200.00
G1 X106.6924 Y99.4998 Z-4.5000 F1200.00
G1 X103.2983 Y99.4998 Z-4.5000 F1200.00
G1 X14.2675 Y10.4691 Z-4.5000 F1200.00
G1 X12.5705 Y12.1661 Z-4.5000 F1200.00
G1 X99.9042 Y99.4998 Z-4.5000 F1200.00
G1 X96.5100 Y99.4998 Z-4.5000 F1200.00
G1 X10.8734 Y13.8632 Z-4.5000 F1200.00
G2 X9.3614 Y15.7453 Z-4.5000 I7.6204 J7.6703 F1200.00
G1 X93.1159 Y99.4998 Z-4.5000 F1200.00
G1 X89.7218 Y99.4998 Z-4.5000 F1200.00
G1 X8.2242 Y18.0021 Z-4.5000 F1200.00
G2 X7.5745 Y20.7465 Z-4.5000 I10.0217 J3.8217 F1200.00
G1 X86.3277 Y99.4998 Z-4.5000 F1200.00
G1 X82.9336 Y99.4998 Z-4.5000 F1200.00
G1 X7.7352 Y24.3014 Z-4.5000 F1200.00
G2 X10.8684 Y30.1316 Z-4.5000 I11.2394 J-2.2832 F1200.00
G1 X25.2373 Y44.5007 Z-4.5000 F1200.00
G1 X24.8889 Y44.8492 Z-4.5000 F1200.00
G1 X79.5395 Y99.4998 Z-4.5000 F1200.00
G1 X76.1454 Y99.4998 Z-4.5000 F1200.00
G1 X23.1918 Y46.5462 Z-4.5000 F1200.00
G1 X21.4947 Y48.2433 Z-4.5000 F1200.00
G1 X72.7513 Y99.4998 Z-4.5000 F1200.00
G1 X69.3571 Y99.4998 Z-4.5000 F1200.00
G1 X19.7977 Y49.9403 Z-4.5000 F1200.00
G1 X18.1006 Y51.6374 Z-4.5000 F1200.00
G1 X65.9630 Y99.4998 Z-4.5000 F1200.00
G1 X62.5689 Y99.4998 Z-4.5000 F1200.00
G1 X16.4036 Y53.3345 Z-4.5000 F1200.00
G1 X14.7065 Y55.0315 Z-4.5000 F1200.00
G1 X59.1748 Y99.4998 Z-4.5000 F1200.00
G1 X55.7807 Y99.4998 Z-4.5000 F1200.00
G1 X13.0095 Y56.7286 Z-4.5000 F1200.00
G1 X11.3124 Y58.4256 Z-4.5000 F1200.00
G1 X52.3866 Y99.4998 Z-4.5000 F1200.00
G1 X48.9925 Y99.4998 Z-4.5000 F1200.00
G1 X9.7158 Y60.2231 Z-4.5000 F1200.00
G2 X8.4804 Y62.3818 Z-4.5000 I8.3831 J6.2307 F1200.00
G1 X45.5984 Y99.4998 Z-4.5000 F1200.00
G1 X42.2042 Y99.4998 Z-4.5000 F1200.00
G1 X7.6889 Y64.9845 Z-4.5000 F1200.00
G2 X7.5771 Y68.2668 Z-4.5000 I10.6340 J2.0053 F1200.00
G1 X38.7311 Y99.4207 Z-4.5000 F1200.00
G3 X33.1361 Y97.2199 Z-4.5000 I1.1967 J-11.2543 F1200.00
G1 X9.7971 Y73.8808 Z-4.5000 F1200.00
G2 X10.8700 Y75.1315 Z-4.5000 I8.0832 J-5.8487 F1200.00
G1 X31.8700 Y96.1315 Z-4.5000 F1200.00
G2 X33.1361 Y97.2199 Z-4.5000 I7.5474 J-7.4996 F1200.00
G1 X33.1361 Y97.2199 Z-5.0000 F300.00
G3 X31.8700 Y96.1315 Z-5.0000 I6.2813 J-8.5879 F1200.00
G1 X10.8700 Y75.1315 Z-5.0000 F1200.00
G3 X9.7971 Y73.8808 Z-5.0000 I7.0103 J-7.0994 F1200.00
G1 X33.1361 Y97.2199 Z-5.0000 F1200.00
G2 X38.7311 Y99.4207 Z-5.0000 I6.7917 J-9.0534 F1200.00
G1 X7.5771 Y68.2668 Z-5.0000 F1200.00
G3 X7.6889 Y64.9845 Z-5.0000 I10.7458 J-1.2770 F1200.00
G1 X42.2042 Y99.4998 Z-5.0000 F1200.00
G1 X45.5984 Y99.4998 Z-5.0000 F1200.00
G1 X8.4804 Y62.3818 Z-5.0000 F1200.00
G3 X9.7158 Y60.2231 Z-5.0000 I9.6186 J4.0720 F1200.00
G1 X48.9925 Y99.4998 Z-5.0000 F1200.00
G1 X52.3866 Y99.4998 Z-5.0000 F1200.00
G1 X11.3124 Y58.4256 Z-5.0000 F1200.00
G1 X13.0095 Y56.7286 Z-5.0000 F1200.00
G1 X55.7807 Y99.4998 Z-5.0000 F1200.00
G1 X59.1748 Y99.4998 Z-5.0000 F1200.00
G1 X14.7065 Y55.0315 Z-5.0000 F1200.00
G1 X16.4036 Y53.3345 Z-5.0000 F1200.00
G1 X62.5689 Y99.4998 Z-5.0000 F1200.00
G1 X65.9630 Y99.4998 Z-5.0000 F1200.00
G1 X18.1006 Y51.6374 Z-5.0000 F1200.00
G1 X19.7977 Y49.9403 Z-5.0000 F1200.00
G1 X69.3571 Y99.4998 Z-5.0000 F1200.00
G1 X72.7513 Y99.4998 Z-5.0000 F1200.00
G1 X21.4947 Y48.2433 Z-5.0000 F1200.00
G1 X23.1918 Y46.5462 Z-5.0000 F1200.00
G1 X76.1454 Y99.4998 Z-5.0000 F1200.00
G1 X79.5395 Y99.4998 Z-5.0000 F1200.00
G1 X24.8889 Y44.8492 Z-5.0000 F1200.00
G1 X25.2373 Y44.5007 Z-5.0000 F1200.00
G1 X10.8684 Y30.1316 Z-5.0000 F1200.00
G3 X7.7352 Y24.3014 Z-5.0000 I8.1061 J-8.1134 F1200.00
G1 X82.9336 Y99.4998 Z-5.0000 F1200.00
G1 X86.3277 Y99.4998 Z-5.0000 F1200.00
G1 X7.5745 Y20.7465 Z-5.0000 F1200.00
G3 X8.2242 Y18.0021 Z-5.0000 I10.6714 J1.0773 F1200.00
G1 X89.7218 Y99.4998 Z-5.0000 F1200.00
G1 X93.1159 Y99.4998 Z-5.0000 F1200.00
G1 X9.3614 Y15.7453 Z-5.0000 F1200.00
G3 X10.8734 Y13.8632 Z-5.0000 I9.1324 J5.7882 F1200.00
G1 X96.5100 Y99.4998 Z-5.0000 F1200.00
G1 X99.9042 Y99.4998 Z-5.0000 F1200.00
G1 X12.5705 Y12.1661 Z-5.0000 F1200.00
G1 X14.2675 Y10.4691 Z-5.0000 F1200.00
G1 X103.2983 Y99.4998 Z-5.0000 F1200.00
G1 X106.6924 Y99.4998 Z-5.0000 F1200.00
G1 X15.9646 Y8.7720 Z-5.0000 F1200.00
G1 X17.6617 Y7.0750 Z-5.0000 F1200.00
G1 X110.0865 Y99.4998 Z-5.0000 F1200.00
G1 X113.4806 Y99.4998 Z-5.0000 F1200.00
G1 X19.3587 Y5.3779 Z-5.0000 F1200.00
G1 X21.0558 Y3.6809 Z-5.0000 F1200.00
G1 X116.8747 Y99.4998 Z-5.0000 F1200.00
G1 X120.2688 Y99.4998 Z-5.0000 F1200.00
G1 X22.7529 Y1.9838 Z-5.0000 F1200.00
G1 X24.4499 Y0.2868 Z-5.0000 F1200.00
G1 X123.6629 Y99.4998 Z-5.0000 F1200.00
G1 X127.0571 Y99.4998 Z-5.0000 F1200.00
G1 X26.1470 Y-1.4103 Z-5.0000 F1200.00
G1 X27.8441 Y-3.1073 Z-5.0000 F1200.00
G1 X130.4512 Y99.4998 Z-5.0000 F1200.00
G1 X133.8453 Y99.4998 Z-5.0000 F1200.00
G1 X29.5411 Y-4.8043 Z-5.0000 F1200.00
G1 X31.2382 Y-6.5014 Z-5.0000 F1200.00
G1 X137.2394 Y99.4998 Z-5.0000 F1200.00
G1 X140.6335 Y99.4998 Z-5.0000 F1200.00
G1 X33.0111 Y-8.1226 Z-5.0000 F1200.00
G3 X35.1229 Y-9.4049 Z-5.0000 I6.3320 J8.0480 F1200.00
G1 X144.0276 Y99.4998 Z-5.0000 F1200.00
G1 X147.4217 Y99.4998 Z-5.0000 F1200.00
G1 X37.6693 Y-10.2526 Z-5.0000 F1200.00
G3 X40.8161 Y-10.5000 Z-5.0000 I2.5448 J12.2329 F1200.00
G1 X150.8158 Y99.4998 Z-5.0000 F1200.00
G1 X154.2100 Y99.4998 Z-5.0000 F1200.00
G1 X44.2102 Y-10.5000 Z-5.0000 F1200.00
G1 X47.6043 Y-10.5000 Z-5.0000 F1200.00
G1 X157.6041 Y99.4998 Z-5.0000 F1200.00
G1 X160.9982 Y99.4998 Z-5.0000 F1200.00
G1 X50.9985 Y-10.4999 Z-5.0000 F1200.00
G1 X54.3926 Y-10.4999 Z-5.0000 F1200.00
G1 X164.3923 Y99.4998 Z-5.0000 F1200.00
G1 X167.7864 Y99.4998 Z-5.0000 F1200.00
G1 X57.7867 Y-10.4999 Z-5.0000 F1200.00
G1 X61.1809 Y-10.4999 Z-5.0000 F1200.00
G1 X171.1805 Y99.4998 Z-5.0000 F1200.00
G1 X174.5746 Y99.4998 Z-5.0000 F1200.00
G1 X64.5750 Y-10.4999 Z-5.0000 F1200.00
G1 X67.9691 Y-10.4998 Z-5.0000 F1200.00
G1 X177.9687 Y99.4998 Z-5.0000 F1200.00
G1 X181.3629 Y99.4998 Z-5.0000 F1200.00
G1 X71.3633 Y-10.4998 Z-5.0000 F1200.00
G1 X74.7574 Y-10.4998 Z-5.0000 F1200.00
G1 X184.4802 Y99.2230 Z-5.0000 F1200.00
G2 X187.0002 Y98.3489 Z-5.0000 I-2.1776 J-10.3470 F1200.00
G1 X78.1515 Y-10.4998 Z-5.0000 F1200.00
G1 X81.5457 Y-10.4998 Z-5.0000 F1200.00
G1 X189.0898 Y97.0444 Z-5.0000 F1200.00
G2 X190.8522 Y95.4127 Z-5.0000 I-7.3048 J-9.6575 F1200.00
G1 X84.9398 Y-10.4997 Z-5.0000 F1200.00
G1 X88.3339 Y-10.4997 Z-5.0000 F1200.00
G1 X192.5493 Y93.7157 Z-5.0000 F1200.00
G1 X194.2463 Y92.0186 Z-5.0000 F1200.00
G1 X91.7281 Y-10.4997 Z-5.0000 F1200.00
G1 X95.1222 Y-10.4996 Z-5.0000 F1200.00
G1 X195.9434 Y90.3215 Z-5.0000 F1200.00
G1 X197.6405 Y88.6245 Z-5.0000 F1200.00
G1 X98.5163 Y-10.4996 Z-5.0000 F1200.00
G1 X101.9105 Y-10.4996 Z-5.0000 F1200.00
G1 X199.3375 Y86.9274 Z-5.0000 F1200.00
G1 X201.0346 Y85.2304 Z-5.0000 F1200.00
G1 X105.3046 Y-10.4996 Z-5.0000 F1200.00
G1 X108.6987 Y-10.4996 Z-5.0000 F1200.00
G1 X202.7316 Y83.5333 Z-5.0000 F1200.00
G1 X204.4287 Y81.8363 Z-5.0000 F1200.00
G1 X112.0929 Y-10.4995 Z-5.0000 F1200.00
G1 X115.4870 Y-10.4995 Z-5.0000 F1200.00
G1 X206.1257 Y80.1392 Z-5.0000 F1200.00
G1 X207.8228 Y78.4422 Z-5.0000 F1200.00
G1 X118.8811 Y-10.4995 Z-5.0000 F1200.00
G1 X122.2753 Y-10.4995 Z-5.0000 F1200.00
G1 X209.5198 Y76.7451 Z-5.0000 F1200.00
G2 X211.2134 Y75.0446 Z-5.0000 I-19.7107 J-21.3243 F1200.00
G1 X125.6694 Y-10.4995 Z-5.0000 F1200.00
G1 X129.0635 Y-10.4994 Z-5.0000 F1200.00
G1 X212.7104 Y73.1474 Z-5.0000 F1200.00
G2 X213.8229 Y70.8658 Z-5.0000 I-8.5601 J-5.5862 F1200.00
G1 X132.4576 Y-10.4994 Z-5.0000 F1200.00
G1 X135.8518 Y-10.4994 Z-5.0000 F1200.00
G1 X214.4409 Y68.0897 Z-5.0000 F1200.00
G2 X214.2135 Y64.4682 Z-5.0000 I-10.8494 J-1.1365 F1200.00
G1 X139.2459 Y-10.4994 Z-5.0000 F1200.00
G1 X142.6400 Y-10.4994 Z-5.0000 F1200.00
G1 X197.2019 Y44.0625 Z-5.0000 F1200.00
G1 X198.8990 Y42.3655 Z-5.0000 F1200.00
G1 X146.0342 Y-10.4994 Z-5.0000 F1200.00
G1 X149.4283 Y-10.4993 Z-5.0000 F1200.00
G1 X200.5961 Y40.6684 Z-5.0000 F1200.00
G1 X202.2931 Y38.9714 Z-5.0000 F1200.00
G1 X152.8224 Y-10.4993 Z-5.0000 F1200.00
G1 X156.2166 Y-10.4993 Z-5.0000 F1200.00
G1 X203.9902 Y37.2743 Z-5.0000 F1200.00
G1 X205.6873 Y35.5773 Z-5.0000 F1200.00
G1 X159.6107 Y-10.4993 Z-5.0000 F1200.00
G1 X163.0048 Y-10.4993 Z-5.0000 F1200.00
G1 X207.3843 Y33.8802 Z-5.0000 F1200.00
G1 X209.0814 Y32.1832 Z-5.0000 F1200.00
G1 X166.3990 Y-10.4992 Z-5.0000 F1200.00
G1 X169.7931 Y-10.4992 Z-5.0000 F1200.00
G1 X210.7785 Y30.4861 Z-5.0000 F1200.00
G2 X212.3635 Y28.6771 Z-5.0000 I-8.4486 J-9.0014 F1200.00
G1 X173.1872 Y-10.4992 Z-5.0000 F1200.00
G1 X176.5814 Y-10.4992 Z-5.0000 F1200.00
G1 X213.5758 Y26.4952 Z-5.0000 F1200.00
G2 X214.3384 Y23.8637 Z-5.0000 I-9.4366 J-4.1610 F1200.00
G1 X179.9755 Y-10.4992 Z-5.0000 F1200.00
G3 X183.4725 Y-10.3962 Z-5.0000 I1.0123 J25.0666 F1200.00
G1 X214.4047 Y20.5360 Z-5.0000 F1200.00
G2 X211.1319 Y13.8693 Z-5.0000 I-11.3914 J1.4556 F1200.00
G1 X190.1321 Y-7.1308 Z-5.0000 F1200.00
G1 X190.1321 Y-7.1308 Z-5.5000 F300.00
G1 X211.1319 Y13.8693 Z-5.5000 F1200.00
G3 X214.4047 Y20.5360 Z-5.5000 I-8.1186 J8.1223 F1200.00
G1 X183.4725 Y-10.3962 Z-5.5000 F1200.00
G2 X179.9755 Y-10.4992 Z-5.5000 I-2.4848 J24.9637 F1200.00
G1 X214.3384 Y23.8637 Z-5.5000 F1200.00
G3 X213.5758 Y26.4952 Z-5.5000 I-10.1992 J-1.5295 F1200.00
G1 X176.5814 Y-10.4992 Z-5.5000 F1200.00
G1 X173.1872 Y-10.4992 Z-5.5000 F1200.00
G1 X212.3635 Y28.6771 Z-5.5000 F1200.00
G3 X210.7785 Y30.4861 Z-5.5000 I-10.0336 J-7.1924 F1200.00
G1 X169.7931 Y-10.4992 Z-5.5000 F1200.00
G1 X166.3990 Y-10.4992 Z-5.5000 F1200.00
G1 X209.0814 Y32.1832 Z-5.5000 F1200.00
G1 X207.3843 Y33.8802 Z-5.5000 F1200.00
G1 X163.0048 Y-10.4993 Z-5.5000 F1200.00
G1 X159.6107 Y-10.4993 Z-5.5000 F1200.00
G1 X205.6873 Y35.5773 Z-5.5000 F1200.00
G1 X203.9902 Y37.2743 Z-5.5000 F1200.00
G1 X156.2166 Y-10.4993 Z-5.5000 F1200.00
G1 X152.8224 Y-10.4993 Z-5.5000 F1200.00
G1 X202.2931 Y38.9714 Z-5.5000 F1200.00
G1 X200.5961 Y40.6684 Z-5.5000 F1200.00
G1 X149.4283 Y-10.4993 Z-5.5000 F1200.00
G1 X146.0342 Y-10.4994 Z-5.5000 F1200.00
G1 X198.8990 Y42.3655 Z-5.5000 F1200.00
G1 X197.2019 Y44.0625 Z-5.5000 F1200.00
G1 X142.6400 Y-10.4994 Z-5.5000 F1200.00
G1 X139.2459 Y-10.4994 Z-5.5000 F1200.00
G1 X214.2135 Y64.4682 Z-5.5000 F1200.00
G3 X214.4409 Y68.0897 Z-5.5000 I-10.6220 J2.4851 F1200.00
G1 X135.8518 Y-10.4994 Z-5.5000 F1200.00
G1 X132.4576 Y-10.4994 Z-5.5000 F1200.00
G1 X213.8229 Y70.8658 Z-5.5000 F1200.00
G3 X212.7104 Y73.1474 Z-5.5000 I-9.6727 J-3.3046 F1200.00
G1 X129.0635 Y-10.4994 Z-5.5000 F1200.00
G1 X125.6694 Y-10.4995 Z-5.5000 F1200.00
G1 X211.2134 Y75.0446 Z-5.5000 F1200.00
G3 X209.5198 Y76.7451 Z-5.5000 I-21.4043 J-19.6237 F1200.00
G1 X122.2753 Y-10.4995 Z-5.5000 F1200.00
G1 X118.8811 Y-10.4995 Z-5.5000 F1200.00
G1 X207.8228 Y78.4422 Z-5.5000 F1200.00
G1 X206.1257 Y80.1392 Z-5.5000 F1200.00
G1 X115.4870 Y-10.4995 Z-5.5000 F1200.00
G1 X112.0929 Y-10.4995 Z-5.5000 F1200.00
G1 X204.4287 Y81.8363 Z-5.5000 F1200.00
G1 X202.7316 Y83.5333 Z-5.5000 F1200.00
G1 X108.6987 Y-10.4996 Z-5.5000 F1200.00
G1 X105.3046 Y-10.4996 Z-5.5000 F1200.00
G1 X201.0346 Y85.2304 Z-5.5000 F1200.00
G1 X199.3375 Y86.9274 Z-5.5000 F1200.00
G1 X101.9105 Y-10.4996 Z-5.5000 F1200.00
G1 X98.5163 Y-10.4996 Z-5.5000 F1200.00
G1 X197.6405 Y88.6245 Z-5.5000 F1200.00
G1 X195.9434 Y90.3215 Z-5.5000 F1200.00
G1 X95.1222 Y-10.4996 Z-5.5000 F1200.00
G1 X91.7281 Y-10.4997 Z-5.5000 F1200.00
G1 X194.2463 Y92.0186 Z-5.5000 F1200.00
G1 X192.5493 Y93.7157 Z-5.5000 F1200.00
G1 X88.3339 Y-10.4997 Z-5.5000 F1200.00
G1 X84.9398 Y-10.4997 Z-5.5000 F1200.00
G1 X190.8522 Y95.4127 Z-5.5000 F1200.00
G3 X189.0898 Y97.0444 Z-5.5000 I-9.0672 J-8.0258 F1200.00
G1 X81.5457 Y-10.4998 Z-5.5000 F1200.00
G1 X78.1515 Y-10.4998 Z-5.5000 F1200.00
G1 X187.0002 Y98.3489 Z-5.5000 F1200.00
G3 X184.4802 Y99.2230 Z-5.5000 I-4.6976 J-9.4728 F1200.00
G1 X74.7574 Y-10.4998 Z-5.5000 F1200.00
G1 X71.3633 Y-10.4998 Z-5.5000 F1200.00
G1 X181.3629 Y99.4998 Z-5.5000 F1200.00
G1 X177.9687 Y99.4998 Z-5.5000 F1200.00
G1 X67.9691 Y-10.4998 Z-5.5000 F1200.00
G1 X64.5750 Y-10.4999 Z-5.5000 F1200.00
G1 X174.5746 Y99.4998 Z-5.5000 F1200.00
G1 X171.1805 Y99.4998 Z-5.5000 F1200.00
G1 X61.1809 Y-10.4999 Z-5.5000 F1200.00
G1 X57.7867 Y-10.4999 Z-5.5000 F1200.00
G1 X167.7864 Y99.4998 Z-5.5000 F1200.00
G1 X164.3923 Y99.4998 Z-5.5000 F1200.00
G1 X54.3926 Y-10.4999 Z-5.5000 F1200.00
G1 X50.9985 Y-10.4999 Z-5.5000 F1200.00
G1 X160.9982 Y99.4998 Z-5.5000 F1200.00
G1 X157.6041 Y99.4998 Z-5.5000 F1200.00
G1 X47.6043 Y-10.5000 Z-5.5000 F1200.00
G1 X44.2102 Y-10.5000 Z-5.5000 F1200.00
G1 X154.2100 Y99.4998 Z-5.5000 F1200.00
G1 X150.8158 Y99.4998 Z-5.5000 F1200.00
G1 X40.8161 Y-10.5000 Z-5.5000 F1200.00
G2 X37.6693 Y-10.2526 Z-5.5000 I-0.6019 J12.4803 F1200.00
G1 X147.4217 Y99.4998 Z-5.5000 F1200.00
G1 X144.0276 Y99.4998 Z-5.5000 F1200.00
G1 X35.1229 Y-9.4049 Z-5.5000 F1200.00
G2 X33.0111 Y-8.1226 Z-5.5000 I4.2202 J9.3303 F1200.00
G1 X140.6335 Y99.4998 Z-5.5000 F1200.00
G1 X137.2394 Y99.4998 Z-5.5000 F1200.00
G1 X31.2382 Y-6.5014 Z-5.5000 F1200.00
G1 X29.5411 Y-4.8043 Z-5.5000 F1200.00
G1 X133.8453 Y99.4998 Z-5.5000 F1200.00
G1 X130.4512 Y99.4998 Z-5.5000 F1200.00
G1 X27.8441 Y-3.1073 Z-5.5000 F1200.00
G1 X26.1470 Y-1.4103 Z-5.5000 F1200.00
G1 X127.0571 Y99.4998 Z-5.5000 F1200.00
G1 X123.6629 Y99.4998 Z-5.5000 F1200.00
G1 X24.4499 Y0.2868 Z-5.5000 F1200.00
G1 X22.7529 Y1.9838 Z-5.5000 F1200.00
G1 X120.2688 Y99.4998 Z-5.5000 F1200.00
G1 X116.8747 Y99.4998 Z-5.5000 F1200.00
G1 X21.0558 Y3.6809 Z-5.5000 F1200.00
G1 X19.3587 Y5.3779 Z-5.5000 F1200.00
G1 X113.4806 Y99.4998 Z-5.5000 F1200.00
G1 X110.0865 Y99.4998 Z-5.5000 F1200.00
G1 X17.6617 Y7.0750 Z-5.5000 F1200.00
G1 X15.9646 Y8.7720 Z-5.5000 F1200.00
G1 X106.6924 Y99.4998 Z-5.5000 F1200.00
G1 X103.2983 Y99.4998 Z-5.5000 F1200.00
G1 X14.2675 Y10.4691 Z-5.5000 F1200.00
G1 X12.5705 Y12.1661 Z-5.5000 F1200.00
G1 X99.9042 Y99.4998 Z-5.5000 F1200.00
G1 X96.5100 Y99.4998 Z-5.5000 F1200.00
G1 X10.8734 Y13.8632 Z-5.5000 F1200.00
G2 X9.3614 Y15.7453 Z-5.5000 I7.6204 J7.6703 F1200.00
G1 X93.1159 Y99.4998 Z-5.5000 F1200.00
G1 X89.7218 Y99.4998 Z-5.5000 F1200.00
G1 X8.2242 Y18.0021 Z-5.5000 F1200.00
G2 X7.5745 Y20.7465 Z-5.5000 I10.0217 J3.8217 F1200.00
G1 X86.3277 Y99.4998 Z-5.5000 F1200.00
G1 X82.9336 Y99.4998 Z-5.5000 F1200.00
G1 X7.7352 Y24.3014 Z-5.5000 F1200.00
G2 X10.8684 Y30.1316 Z-5.5000 I11.2394 J-2.2832 F1200.00
G1 X25.2373 Y44.5007 Z-5.5000 F1200.00
G1 X24.8889 Y44.8492 Z-5.5000 F1200.00
G1 X79.5395 Y99.4998 Z-5.5000 F1200.00
G1 X76.1454 Y99.4998 Z-5.5000 F1200.00
G1 X23.1918 Y46.5462 Z-5.5000 F1200.00
G1 X21.4947 Y48.2433 Z-5.5000 F1200.00
G1 X72.7513 Y99.4998 Z-5.5000 F1200.00
G1 X69.3571 Y99.4998 Z-5.5000 F1200.00
G1 X19.7977 Y49.9403 Z-5.5000 F1200.00
G1 X18.1006 Y51.6374 Z-5.5000 F1200.00
G1 X65.9630 Y99.4998 Z-5.5000 F1200.00
G1 X62.5689 Y99.4998 Z-5.5000 F1200.00
G1 X16.4036 Y53.3345 Z-5.5000 F1200.00
G1 X14.7065 Y55.0315 Z-5.5000 F1200.00
G1 X59.1748 Y99.4998 Z-5.5000 F1200.00
G1 X55.7807 Y99.4998 Z-5.5000 F1200.00
G1 X13.0095 Y56.7286 Z-5.5000 F1200.00
G1 X11.3124 Y58.4256 Z-5.5000 F1200.00
G1 X52.3866 Y99.4998 Z-5.5000 F1200.00
G1 X48.9925 Y99.4998 Z-5.5000 F1200.00
G1 X9.7158 Y60.2231 Z-5.5000 F1200.00
G2 X8.4804 Y62.3818 Z-5.5000 I8.3831 J6.2307 F1200.00
G1 X45.5984 Y99.4998 Z-5.5000 F1200.00
G1 X42.2042 Y99.4998 Z-5.5000 F1200.00
G1 X7.6889 Y64.9845 Z-5.5000 F1200.00
G2 X7.5771 Y68.2668 Z-5.5000 I10.6340 J2.0053 F1200.00
G1 X38.7311 Y99.4207 Z-5.5000 F1200.00
G3 X33.1361 Y97.2199 Z-5.5000 I1.1967 J-11.2543 F1200.00
G1 X9.7971 Y73.8808 Z-5.5000 F1200.00
G2 X10.8700 Y75.1315 Z-5.5000 I8.0832 J-5.8487 F1200.00
G1 X31.8700 Y96.1315 Z-5.5000 F1200.00
G2 X33.1361 Y97.2199 Z-5.5000 I7.5474 J-7.4996 F1200.00
G1 X33.1361 Y97.2199 Z-6.0000 F300.00
G3 X31.8700 Y96.1315 Z-6.0000 I6.2813 J-8.5879 F1200.00
G1 X10.8700 Y75.1315 Z-6.0000 F1200.00
G3 X9.7971 Y73.8808 Z-6.0000 I7.0103 J-7.0994 F1200.00
G1 X33.1361 Y97.2199 Z-6.0000 F1200.00
G2 X38.7311 Y99.4207 Z-6.0000 I6.7917 J-9.0534 F1200.00
G1 X7.5771 Y68.2668 Z-6.0000 F1200.00
G3 X7.6889 Y64.9845 Z-6.0000 I10.7458 J-1.2770 F1200.00
G1 X42.2042 Y99.4998 Z-6.0000 F1200.00
G1 X45.5984 Y99.4998 Z-6.0000 F1200.00
G1 X8.4804 Y62.3818 Z-6.0000 F1200.00
G3 X9.7158 Y60.2231 Z-6.0000 I9.6186 J4.0720 F1200.00
G1 X48.9925 Y99.4998 Z-6.0000 F1200.00
G1 X52.3866 Y99.4998 Z-6.0000 F1200.00
G1 X11.3124 Y58.4256 Z-6.0000 F1200.00
G1 X13.0095 Y56.7286 Z-6.0000 F1200.00
G1 X55.7807 Y99.4998 Z-6.0000 F1200.00
G1 X59.1748 Y99.4998 Z-6.0000 F1200.00
G1 X14.7065 Y55.0315 Z-6.0000 F1200.00
G1 X16.4036 Y53.3345 Z-6.0000 F1200.00
G1 X62.5689 Y99.4998 Z-6.0000 F1200.00
G1 X65.9630 Y99.4998 Z-6.0000 F1200.00
G1 X18.1006 Y51.6374 Z-6.0000 F1200.00
G1 X19.7977 Y49.9403 Z-6.0000 F1200.00
G1 X69.3571 Y99.4998 Z-6.0000 F1200.00
G1 X72.7513 Y99.4998 Z-6.0000 F1200.00
G1 X21.4947 Y48.2433 Z-6.0000 F1200.00
G1 X23.1918 Y46.5462 Z-6.0000 F1200.00
G1 X76.1454 Y99.4998 Z-6.0000 F1200.00
G1 X79.5395 Y99.4998 Z-6.0000 F1200.00
G1 X24.8889 Y44.8492 Z-6.0000 F1200.00
G1 X25.2373 Y44.5007 Z-6.0000 F1200.00
G1 X10.8684 Y30.1316 Z-6.0000 F1200.00
G3 X7.7352 Y24.3014 Z-6.0000 I8.1061 J-8.1134 F1200.00
G1 X82.9336 Y99.4998 Z-6.0000 F1200.00
G1 X86.3277 Y99.4998 Z-6.0000 F1200.00
G1 X7.5745 Y20.7465 Z-6.0000 F1200.00
G3 X8.2242 Y18.0021 Z-6.0000 I10.6714 J1.0773 F1200.00
G1 X89.7218 Y99.4998 Z-6.0000 F1200.00
G1 X93.1159 Y99.4998 Z-6.0000 F1200.00
G1 X9.3614 Y15.7453 Z-6.0000 F1200.00
G3 X10.8734 Y13.8632 Z-6.0000 I9.1324 J5.7882 F1200.00
G1 X96.5100 Y99.4998 Z-6.0000 F1200.00
G1 X99.9042 Y99.4998 Z-6.0000 F1200.00
G1 X12.5705 Y12.1661 Z-6.0000 F1200.00
G1 X14.2675 Y10.4691 Z-6.0000 F1200.00
G1 X103.2983 Y99.4998 Z-6.0000 F1200.00
G1 X106.6924 Y99.4998 Z-6.0000 F1200.00
G1 X15.9646 Y8.7720 Z-6.0000 F1200.00
G1 X17.6617 Y7.0750 Z-6.0000 F1200.00
G1 X110.0865 Y99.4998 Z-6.0000 F1200.00
G1 X113.4806 Y99.4998 Z-6.0000 F1200.00
G1 X19.3587 Y5.3779 Z-6.0000 F1200.00
G1 X21.0558 Y3.6809 Z-6.0000 F1200.00
G1 X116.8747 Y99.4998 Z-6.0000 F1200.00
G1 X120.2688 Y99.4998 Z-6.0000 F1200.00
G1 X22.7529 Y1.9838 Z-6.0000 F1200.00
G1 X24.4499 Y0.2868 Z-6.0000 F1200.00
G1 X123.6629 Y99.4998 Z-6.0000 F1200.00
G1 X127.0571 Y99.4998 Z-6.0000 F1200.00
G1 X26.1470 Y-1.4103 Z-6.0000 F1200.00
G1 X27.8441 Y-3.1073 Z-6.0000 F1200.00
G1 X130.4512 Y99.4998 Z-6.0000 F1200.00
G1 X133.8453 Y99.4998 Z-6.0000 F1200.00
G1 X29.5411 Y-4.8043 Z-6.0000 F1200.00
G1 X31.2382 Y-6.5014 Z-6.0000 F1200.00
G1 X137.2394 Y99.4998 Z-6.0000 F1200.00
G1 X140.6335 Y99.4998 Z-6.0000 F1200.00
G1 X33.0111 Y-8.1226 Z-6.0000 F1200.00
G3 X35.1229 Y-9.4049 Z-6.0000 I6.3320 J8.0480 F1200.00
G1 X144.0276 Y99.4998 Z-6.0000 F1200.00
G1 X147.4217 Y99.4998 Z-6.0000 F1200.00
G1 X37.6693 Y-10.2526 Z-6.0000 F1200.00
G3 X40.8161 Y-10.5000 Z-6.0000 I2.5448 J12.2329 F1200.00
G1 X150.8158 Y99.4998 Z-6.0000 F1200.00
G1 X154.2100 Y99.4998 Z-6.0000 F1200.00
G1 X44.2102 Y-10.5000 Z-6.0000 F1200.00
G1 X47.6043 Y-10.5000 Z-6.0000 F1200.00
G1 X157.6041 Y99.4998 Z-6.0000 F1200.00
G1 X160.9982 Y99.4998 Z-6.0000 F1200.00
G1 X50.9985 Y-10.4999 Z-6.0000 F1200.00
G1 X54.3926 Y-10.4999 Z-6.0000 F1200.00
G1 X164.3923 Y99.4998 Z-6.0000 F1200.00
G1 X167.7864 Y99.4998 Z-6.0000 F1200.00
G1 X57.7867 Y-10.4999 Z-6.0000 F1200.00
G1 X61.1809 Y-10.4999 Z-6.0000 F1200.00
G1 X171.1805 Y99.4998 Z-6.0000 F1200.00
G1 X174.5746 Y99.4998 Z-6.0000 F1200.00
G1 X64.5750 Y-10.4999 Z-6.0000 F1200.00
G1 X67.9691 Y-10.4998 Z-6.0000 F1200.00
G1 X177.9687 Y99.4998 Z-6.0000 F1200.00
G1 X181.3629 Y99.4998 Z-6.0000 F1200.00
G1 X71.3633 Y-10.4998 Z-6.0000 F1200.00
G1 X74.7574 Y-10.4998 Z-6.0000 F1200.00
G1 X184.4802 Y99.2230 Z-6.0000 F1200.00
G2 X187.0002 Y98.3489 Z-6.0000 I-2.1776 J-10.3470 F1200.00
G1 X78.1515 Y-10.4998 Z-6.0000 F1200.00
G1 X81.5457 Y-10.4998 Z-6.0000 F1200.00
G1 X189.0898 Y97.0444 Z-6.0000 F1200.00
G2 X190.8522 Y95.4127 Z-6.0000 I-7.3048 J-9.6575 F1200.00
G1 X84.9398 Y-10.4997 Z-6.0000 F1200.00
G1 X88.3339 Y-10.4997 Z-6.0000 F1200.00
G1 X192.5493 Y93.7157 Z-6.0000 F1200.00
G1 X194.2463 Y92.0186 Z-6.0000 F1200.00
G1 X91.7281 Y-10.4997 Z-6.0000 F1200.00
G1 X95.1222 Y-10.4996 Z-6.0000 F1200.00
G1 X195.9434 Y90.3215 Z-6.0000 F1200.00
G1 X197.6405 Y88.6245 Z-6.0000 F1200.00
G1 X98.5163 Y-10.4996 Z-6.0000 F1200.00
G1 X101.9105 Y-10.4996 Z-6.0000 F1200.00
G1 X199.3375 Y86.9274 Z-6.0000 F1200.00
G1 X201.0346 Y85.2304 Z-6.0000 F1200.00
G1 X105.3046 Y-10.4996 Z-6.0000 F1200.00
G1 X108.6987 Y-10.4996 Z-6.0000 F1200.00
G1 X202.7316 Y83.5333 Z-6.0000 F1200.00
G1 X204.4287 Y81.8363 Z-6.0000 F1200.00
G1 X112.0929 Y-10.4995 Z-6.0000 F1200.00
G1 X115.4870 Y-10.4995 Z-6.0000 F1200.00
G1 X206.1257 Y80.1392 Z-6.0000 F1200.00
G1 X207.8228 Y78.4422 Z-6.0000 F1200.00
G1 X118.8811 Y-10.4995 Z-6.0000 F1200.00
G1 X122.2753 Y-10.4995 Z-6.0000 F1200.00
G1 X209.5198 Y76.7451 Z-6.0000 F1200.00
G2 X211.2134 Y75.0446 Z-6.0000 I-19.7107 J-21.3243 F1200.00
G1 X125.6694 Y-10.4995 Z-6.0000 F1200.00
G1 X129.0635 Y-10.4994 Z-6.0000 F1200.00
G1 X212.7104 Y73.1474 Z-6.0000 F1200.00
G2 X213.8229 Y70.8658 Z-6.0000 I-8.5601 J-5.5862 F1200.00
G1 X132.4576 Y-10.4994 Z-6.0000 F1200.00
G1 X135.8518 Y-10.4994 Z-6.0000 F1200.00
G1 X214.4409 Y68.0897 Z-6.0000 F1200.00
G2 X214.2135 Y64.4682 Z-6.0000 I-10.8494 J-1.1365 F1200.00
G1 X139.2459 Y-10.4994 Z-6.0000 F1200.00
G1 X142.6400 Y-10.4994 Z-6.0000 F1200.00
G1 X197.2019 Y44.0625 Z-6.0000 F1200.00
G1 X198.8990 Y42.3655 Z-6.0000 F1200.00
G1 X146.0342 Y-10.4994 Z-6.0000 F1200.00
G1 X149.4283 Y-10.4993 Z-6.0000 F1200.00
G1 X200.5961 Y40.6684 Z-6.0000 F1200.00
G1 X202.2931 Y38.9714 Z-6.0000 F1200.00
G1 X152.8224 Y-10.4993 Z-6.0000 F1200.00
G1 X156.2166 Y-10.4993 Z-6.0000 F1200.00
G1 X203.9902 Y37.2743 Z-6.0000 F1200.00
G1 X205.6873 Y35.5773 Z-6.0000 F1200.00
G1 X159.6107 Y-10.4993 Z-6.0000 F1200.00
G1 X163.0048 Y-10.4993 Z-6.0000 F1200.00
G1 X207.3843 Y33.8802 Z-6.0000 F1200.00
G1 X209.0814 Y32.1832 Z-6.0000 F1200.00
G1 X166.3990 Y-10.4992 Z-6.0000 F1200.00
G1 X169.7931 Y-10.4992 Z-6.0000 F1200.00
G1 X210.7785 Y30.4861 Z-6.0000 F1200.00
G2 X212.3635 Y28.6771 Z-6.0000 I-8.4486 J-9.0014 F1200.00
G1 X173.1872 Y-10.4992 Z-6.0000 F1200.00
G1 X176.5814 Y-10.4992 Z-6.0000 F1200.00
G1 X213.5758 Y26.4952 Z-6.0000 F1200.00
G2 X214.3384 Y23.8637 Z-6.0000 I-9.4366 J-4.1610 F1200.00
G1 X179.9755 Y-10.4992 Z-6.0000 F1200.00
G3 X183.4725 Y-10.3962 Z-6.0000 I1.0123 J25.0666 F1200.00
G1 X214.4047 Y20.5360 Z-6.0000 F1200.00
G2 X211.1319 Y13.8693 Z-6.0000 I-11.3914 J1.4556 F1200.00
G1 X190.1321 Y-7.1308 Z-6.0000 F1200.00
G0 Z5.0000
(finish operation: roughing_003)
(begin operation: roughing_004)
(Path: roughing_004)
(roughing_004)
G0 Z5.0000
G0 X190.1321 Y-7.1308
G0 Z3.0000
G1 X190.1321 Y-7.1308 Z-6.5000 F300.00
G1 X211.1319 Y13.8693 Z-6.5000 F1200.00
G3 X214.4047 Y20.5360 Z-6.5000 I-8.1186 J8.1223 F1200.00
G1 X183.4725 Y-10.3962 Z-6.5000 F1200.00
G2 X179.9755 Y-10.4992 Z-6.5000 I-2.4848 J24.9637 F1200.00
G1 X214.3384 Y23.8637 Z-6.5000 F1200.00
G3 X213.5758 Y26.4952 Z-6.5000 I-10.1992 J-1.5295 F1200.00
G1 X176.5814 Y-10.4992 Z-6.5000 F1200.00
G1 X173.1872 Y-10.4992 Z-6.5000 F1200.00
G1 X212.3635 Y28.6771 Z-6.5000 F1200.00
G3 X210.7785 Y30.4861 Z-6.5000 I-10.0336 J-7.1924 F1200.00
G1 X169.7931 Y-10.4992 Z-6.5000 F1200.00
G1 X166.3990 Y-10.4992 Z-6.5000 F1200.00
G1 X209.0814 Y32.1832 Z-6.5000 F1200.00
G1 X207.3843 Y33.8802 Z-6.5000 F1200.00
G1 X163.0048 Y-10.4993 Z-6.5000 F1200.00
G1 X159.6107 Y-10.4993 Z-6.5000 F1200.00
G1 X205.6873 Y35.5773 Z-6.5000 F1200.00
G1 X203.9902 Y37.2743 Z-6.5000 F1200.00
G1 X156.2166 Y-10.4993 Z-6.5000 F1200.00
G1 X152.8224 Y-10.4993 Z-6.5000 F1200.00
G1 X202.2931 Y38.9714 Z-6.5000 F1200.00
G1 X200.5961 Y40.6684 Z-6.5000 F1200.00
G1 X149.4283 Y-10.4993 Z-6.5000 F1200.00
G1 X146.0342 Y-10.4994 Z-6.5000 F1200.00
G1 X198.8990 Y42.3655 Z-6.5000 F1200.00
G1 X197.2019 Y44.0625 Z-6.5000 F1200.00
G1 X142.6400 Y-10.4994 Z-6.5000 F1200.00
G1 X139.2459 Y-10.4994 Z-6.5000 F1200.00
G1 X214.2135 Y64.4682 Z-6.5000 F1200.00
G3 X214.4409 Y68.0897 Z-6.5000 I-10.6220 J2.4851 F1200.00
G1 X135.8518 Y-10.4994 Z-6.5000 F1200.00
G1 X132.4576 Y-10.4994 Z-6.5000 F1200.00
G1 X213.8229 Y70.8658 Z-6.5000 F1200.00
G3 X212.7104 Y73.1474 Z-6.5000 I-9.6727 J-3.3046 F1200.00
G1 X129.0635 Y-10.4994 Z-6.5000 F1200.00
G1 X125.6694 Y-10.4995 Z-6.5000 F1200.00
G1 X211.2134 Y75.0446 Z-6.5000 F1200.00
G3 X209.5198 Y76.7451 Z-6.5000 I-21.4043 J-19.6237 F1200.00
G1 X122.2753 Y-10.4995 Z-6.5000 F1200.00
G1 X118.8811 Y-10.4995 Z-6.5000 F1200.00
G1 X207.8228 Y78.4422 Z-6.5000 F1200.00
G1 X206.1257 Y80.1392 Z-6.5000 F1200.00
G1 X115.4870 Y-10.4995 Z-6.5000 F1200.00
G1 X112.0929 Y-10.4995 Z-6.5000 F1200.00
G1 X204.4287 Y81.8363 Z-6.5000 F1200.00
G1 X202.7316 Y83.5333 Z-6.5000 F1200.00
G1 X108.6987 Y-10.4996 Z-6.5000 F1200.00
G1 X105.3046 Y-10.4996 Z-6.5000 F1200.00
G1 X201.0346 Y85.2304 Z-6.5000 F1200.00
G1 X199.3375 Y86.9274 Z-6.5000 F1200.00
G1 X101.9105 Y-10.4996 Z-6.5000 F1200.00
G1 X98.5163 Y-10.4996 Z-6.5000 F1200.00
G1 X197.6405 Y88.6245 Z-6.5000 F1200.00
G1 X195.9434 Y90.3215 Z-6.5000 F1200.00
G1 X95.1222 Y-10.4996 Z-6.5000 F1200.00
G1 X91.7281 Y-10.4997 Z-6.5000 F1200.00
G1 X194.2463 Y92.0186 Z-6.5000 F1200.00
G1 X192.5493 Y93.7157 Z-6.5000 F1200.00
G1 X88.3339 Y-10.4997 Z-6.5000 F1200.00
G1 X84.9398 Y-10.4997 Z-6.5000 F1200.00
G1 X190.8522 Y95.4127 Z-6.5000 F1200.00
G3 X189.0898 Y97.0444 Z-6.5000 I-9.0672 J-8.0258 F1200.00
G1 X81.5457 Y-10.4998 Z-6.5000 F1200.00
G1 X78.1515 Y-10.4998 Z-6.5000 F1200.00
G1 X187.0002 Y98.3489 Z-6.5000 F1200.00
G3 X184.4802 Y99.2230 Z-6.5000 I-4.6976 J-9.4728 F1200.00
G1 X74.7574 Y-10.4998 Z-6.5000 F1200.00
G1 X71.3633 Y-10.4998 Z-6.5000 F1200.00
G1 X181.3629 Y99.4998 Z-6.5000 F1200.00
G1 X177.9687 Y99.4998 Z-6.5000 F1200.00
G1 X67.9691 Y-10.4998 Z-6.5000 F1200.00
G1 X64.5750 Y-10.4999 Z-6.5000 F1200.00
G1 X174.5746 Y99.4998 Z-6.5000 F1200.00
G1 X171.1805 Y99.4998 Z-6.5000 F1200.00
G1 X61.1809 Y-10.4999 Z-6.5000 F1200.00
G1 X57.7867 Y-10.4999 Z-6.5000 F1200.00
G1 X167.7864 Y99.4998 Z-6.5000 F1200.00
G1 X164.3923 Y99.4998 Z-6.5000 F1200.00
G1 X54.3926 Y-10.4999 Z-6.5000 F1200.00
G1 X50.9985 Y-10.4999 Z-6.5000 F1200.00
G1 X160.9982 Y99.4998 Z-6.5000 F1200.00
G1 X157.6041 Y99.4998 Z-6.5000 F1200.00
G1 X47.6043 Y-10.5000 Z-6.5000 F1200.00
G1 X44.2102 Y-10.5000 Z-6.5000 F1200.00
G1 X154.2100 Y99.4998 Z-6.5000 F1200.00
G1 X150.8158 Y99.4998 Z-6.5000 F1200.00
G1 X40.8161 Y-10.5000 Z-6.5000 F1200.00
G2 X37.6693 Y-10.2526 Z-6.5000 I-0.6019 J12.4803 F1200.00
G1 X147.4217 Y99.4998 Z-6.5000 F1200.00
G1 X144.0276 Y99.4998 Z-6.5000 F1200.00
G1 X35.1229 Y-9.4049 Z-6.5000 F1200.00
G2 X33.0111 Y-8.1226 Z-6.5000 I4.2202 J9.3303 F1200.00
G1 X140.6335 Y99.4998 Z-6.5000 F1200.00
G1 X137.2394 Y99.4998 Z-6.5000 F1200.00
G1 X31.2382 Y-6.5014 Z-6.5000 F1200.00
G1 X29.5411 Y-4.8043 Z-6.5000 F1200.00
G1 X133.8453 Y99.4998 Z-6.5000 F1200.00
G1 X130.4512 Y99.4998 Z-6.5000 F1200.00
G1 X27.8441 Y-3.1073 Z-6.5000 F1200.00
G1 X26.1470 Y-1.4103 Z-6.5000 F1200.00
G1 X127.0571 Y99.4998 Z-6.5000 F1200.00
G1 X123.6629 Y99.4998 Z-6.5000 F1200.00
G1 X24.4499 Y0.2868 Z-6.5000 F1200.00
G1 X22.7529 Y1.9838 Z-6.5000 F1200.00
G1 X120.2688 Y99.4998 Z-6.5000 F1200.00
G1 X116.8747 Y99.4998 Z-6.5000 F1200.00
G1 X21.0558 Y3.6809 Z-6.5000 F1200.00
G1 X19.3587 Y5.3779 Z-6.5000 F1200.00
G1 X113.4806 Y99.4998 Z-6.5000 F1200.00
G1 X110.0865 Y99.4998 Z-6.5000 F1200.00
G1 X17.6617 Y7.0750 Z-6.5000 F1200.00
G1 X15.9646 Y8.7720 Z-6.5000 F1200.00
G1 X106.6924 Y99.4998 Z-6.5000 F1200.00
G1 X103.2983 Y99.4998 Z-6.5000 F1200.00
G1 X14.2675 Y10.4691 Z-6.5000 F1200.00
G1 X12.5705 Y12.1661 Z-6.5000 F1200.00
G1 X99.9042 Y99.4998 Z-6.5000 F1200.00
G1 X96.5100 Y99.4998 Z-6.5000 F1200.00
G1 X10.8734 Y13.8632 Z-6.5000 F1200.00
G2 X9.3614 Y15.7453 Z-6.5000 I7.6204 J7.6703 F1200.00
G1 X93.1159 Y99.4998 Z-6.5000 F1200.00
G1 X89.7218 Y99.4998 Z-6.5000 F1200.00
G1 X8.2242 Y18.0021 Z-6.5000 F1200.00
G2 X7.5745 Y20.7465 Z-6.5000 I10.0217 J3.8217 F1200.00
G1 X86.3277 Y99.4998 Z-6.5000 F1200.00
G1 X82.9336 Y99.4998 Z-6.5000 F1200.00
G1 X7.7352 Y24.3014 Z-6.5000 F1200.00
G2 X10.8684 Y30.1316 Z-6.5000 I11.2394 J-2.2832 F1200.00
G1 X25.2373 Y44.5007 Z-6.5000 F1200.00
G1 X24.8889 Y44.8492 Z-6.5000 F1200.00
G1 X79.5395 Y99.4998 Z-6.5000 F1200.00
G1 X76.1454 Y99.4998 Z-6.5000 F1200.00
G1 X23.1918 Y46.5462 Z-6.5000 F1200.00
G1 X21.4947 Y48.2433 Z-6.5000 F1200.00
G1 X72.7513 Y99.4998 Z-6.5000 F1200.00
G1 X69.3571 Y99.4998 Z-6.5000 F1200.00
G1 X19.7977 Y49.9403 Z-6.5000 F1200.00
G1 X18.1006 Y51.6374 Z-6.5000 F1200.00
G1 X65.9630 Y99.4998 Z-6.5000 F1200.00
G1 X62.5689 Y99.4998 Z-6.5000 F1200.00
G1 X16.4036 Y53.3345 Z-6.5000 F1200.00
G1 X14.7065 Y55.0315 Z-6.5000 F1200.00
G1 X59.1748 Y99.4998 Z-6.5000 F1200.00
G1 X55.7807 Y99.4998 Z-6.5000 F1200.00
G1 X13.0095 Y56.7286 Z-6.5000 F1200.00
G1 X11.3124 Y58.4256 Z-6.5000 F1200.00
G1 X52.3866 Y99.4998 Z-6.5000 F1200.00
G1 X48.9925 Y99.4998 Z-6.5000 F1200.00
G1 X9.7158 Y60.2231 Z-6.5000 F1200.00
G2 X8.4804 Y62.3818 Z-6.5000 I8.3831 J6.2307 F1200.00
G1 X45.5984 Y99.4998 Z-6.5000 F1200.00
G1 X42.2042 Y99.4998 Z-6.5000 F1200.00
G1 X7.6889 Y64.9845 Z-6.5000 F1200.00
G2 X7.5771 Y68.2668 Z-6.5000 I10.6340 J2.0053 F1200.00
G1 X38.7311 Y99.4207 Z-6.5000 F1200.00
G3 X33.1361 Y97.2199 Z-6.5000 I1.1967 J-11.2543 F1200.00
G1 X9.7971 Y73.8808 Z-6.5000 F1200.00
G2 X10.8700 Y75.1315 Z-6.5000 I8.0832 J-5.8487 F1200.00
G1 X31.8700 Y96.1315 Z-6.5000 F1200.00
G2 X33.1361 Y97.2199 Z-6.5000 I7.5474 J-7.4996 F1200.00
G1 X33.1361 Y97.2199 Z-7.0000 F300.00
G3 X31.8700 Y96.1315 Z-7.0000 I6.2813 J-8.5879 F1200.00
G1 X10.8700 Y75.1315 Z-7.0000 F1200.00
G3 X9.7971 Y73.8808 Z-7.0000 I7.0103 J-7.0994 F1200.00
G1 X33.1361 Y97.2199 Z-7.0000 F1200.00
G2 X38.7311 Y99.4207 Z-7.0000 I6.7917 J-9.0534 F1200.00
G1 X7.5771 Y68.2668 Z-7.0000 F1200.00
G3 X7.6889 Y64.9845 Z-7.0000 I10.7458 J-1.2770 F1200.00
G1 X42.2042 Y99.4998 Z-7.0000 F1200.00
G1 X45.5984 Y99.4998 Z-7.0000 F1200.00
G1 X8.4804 Y62.3818 Z-7.0000 F1200.00
G3 X9.7158 Y60.2231 Z-7.0000 I9.6186 J4.0720 F1200.00
G1 X48.9925 Y99.4998 Z-7.0000 F1200.00
G1 X52.3866 Y99.4998 Z-7.0000 F1200.00
G1 X11.3124 Y58.4256 Z-7.0000 F1200.00
G1 X13.0095 Y56.7286 Z-7.0000 F1200.00
G1 X55.7807 Y99.4998 Z-7.0000 F1200.00
G1 X59.1748 Y99.4998 Z-7.0000 F1200.00
G1 X14.7065 Y55.0315 Z-7.0000 F1200.00
G1 X16.4036 Y53.3345 Z-7.0000 F1200.00
G1 X62.5689 Y99.4998 Z-7.0000 F1200.00
G1 X65.9630 Y99.4998 Z-7.0000 F1200.00
G1 X18.1006 Y51.6374 Z-7.0000 F1200.00
G1 X19.7977 Y49.9403 Z-7.0000 F1200.00
G1 X69.3571 Y99.4998 Z-7.0000 F1200.00
G1 X72.7513 Y99.4998 Z-7.0000 F1200.00
G1 X21.4947 Y48.2433 Z-7.0000 F1200.00
G1 X23.1918 Y46.5462 Z-7.0000 F1200.00
G1 X76.1454 Y99.4998 Z-7.0000 F1200.00
G1 X79.5395 Y99.4998 Z-7.0000 F1200.00
G1 X24.8889 Y44.8492 Z-7.0000 F1200.00
G1 X25.2373 Y44.5007 Z-7.0000 F1200.00
G1 X10.8684 Y30.1316 Z-7.0000 F1200.00
G3 X7.7352 Y24.3014 Z-7.0000 I8.1061 J-8.1134 F1200.00
G1 X82.9336 Y99.4998 Z-7.0000 F1200.00
G1 X86.3277 Y99.4998 Z-7.0000 F1200.00
G1 X7.5745 Y20.7465 Z-7.0000 F1200.00
G3 X8.2242 Y18.0021 Z-7.0000 I10.6714 J1.0773 F1200.00
G1 X89.7218 Y99.4998 Z-7.0000 F1200.00
G1 X93.1159 Y99.4998 Z-7.0000 F1200.00
G1 X9.3614 Y15.7453 Z-7.0000 F1200.00
G3 X10.8734 Y13.8632 Z-7.0000 I9.1324 J5.7882 F1200.00
G1 X96.5100 Y99.4998 Z-7.0000 F1200.00
G1 X99.9042 Y99.4998 Z-7.0000 F1200.00
G1 X12.5705 Y12.1661 Z-7.0000 F1200.00
G1 X14.2675 Y10.4691 Z-7.0000 F1200.00
G1 X103.2983 Y99.4998 Z-7.0000 F1200.00
G1 X106.6924 Y99.4998 Z-7.0000 F1200.00
G1 X15.9646 Y8.7720 Z-7.0000 F1200.00
G1 X17.6617 Y7.0750 Z-7.0000 F1200.00
G1 X110.0865 Y99.4998 Z-7.0000 F1200.00
G1 X113.4806 Y99.4998 Z-7.0000 F1200.00
G1 X19.3587 Y5.3779 Z-7.0000 F1200.00
G1 X21.0558 Y3.6809 Z-7.0000 F1200.00
G1 X116.8747 Y99.4998 Z-7.0000 F1200.00
G1 X120.2688 Y99.4998 Z-7.0000 F1200.00
G1 X22.7529 Y1.9838 Z-7.0000 F1200.00
G1 X24.4499 Y0.2868 Z-7.0000 F1200.00
G1 X123.6629 Y99.4998 Z-7.0000 F1200.00
G1 X127.0571 Y99.4998 Z-7.0000 F1200.00
G1 X26.1470 Y-1.4103 Z-7.0000 F1200.00
G1 X27.8441 Y-3.1073 Z-7.0000 F1200.00
G1 X130.4512 Y99.4998 Z-7.0000 F1200.00
G1 X133.8453 Y99.4998 Z-7.0000 F1200.00
G1 X29.5411 Y-4.8043 Z-7.0000 F1200.00
G1 X31.2382 Y-6.5014 Z-7.0000 F1200.00
G1 X137.2394 Y99.4998 Z-7.0000 F1200.00
G1 X140.6335 Y99.4998 Z-7.0000 F1200.00
G1 X33.0111 Y-8.1226 Z-7.0000 F1200.00
G3 X35.1229 Y-9.4049 Z-7.0000 I6.3320 J8.0480 F1200.00
G1 X144.0276 Y99.4998 Z-7.0000 F1200.00
G1 X147.4217 Y99.4998 Z-7.0000 F1200.00
G1 X37.6693 Y-10.2526 Z-7.0000 F1200.00
G3 X40.8161 Y-10.5000 Z-7.0000 I2.5448 J12.2329 F1200.00
G1 X150.8158 Y99.4998 Z-7.0000 F1200.00
G1 X154.2100 Y99.4998 Z-7.0000 F1200.00
G1 X44.2102 Y-10.5000 Z-7.0000 F1200.00
G1 X47.6043 Y-10.5000 Z-7.0000 F1200.00
G1 X157.6041 Y99.4998 Z-7.0000 F1200.00
G1 X160.9982 Y99.4998 Z-7.0000 F1200.00
G1 X50.9985 Y-10.4999 Z-7.0000 F1200.00
G1 X54.3926 Y-10.4999 Z-7.0000 F1200.00
G1 X164.3923 Y99.4998 Z-7.0000 F1200.00
G1 X167.7864 Y99.4998 Z-7.0000 F1200.00
G1 X57.7867 Y-10.4999 Z-7.0000 F1200.00
G1 X61.1809 Y-10.4999 Z-7.0000 F1200.00
G1 X171.1805 Y99.4998 Z-7.0000 F1200.00
G1 X174.5746 Y99.4998 Z-7.0000 F1200.00
G1 X64.5750 Y-10.4999 Z-7.0000 F1200.00
G1 X67.9691 Y-10.4998 Z-7.0000 F1200.00
G1 X177.9687 Y99.4998 Z-7.0000 F1200.00
G1 X181.3629 Y99.4998 Z-7.0000 F1200.00
G1 X71.3633 Y-10.4998 Z-7.0000 F1200.00
G1 X74.7574 Y-10.4998 Z-7.0000 F1200.00
G1 X184.4802 Y99.2230 Z-7.0000 F1200.00
G2 X187.0002 Y98.3489 Z-7.0000 I-2.1776 J-10.3470 F1200.00
G1 X78.1515 Y-10.4998 Z-7.0000 F1200.00
G1 X81.5457 Y-10.4998 Z-7.0000 F1200.00
G1 X189.0898 Y97.0444 Z-7.0000 F1200.00
G2 X190.8522 Y95.4127 Z-7.0000 I-7.3048 J-9.6575 F1200.00
G1 X84.9398 Y-10.4997 Z-7.0000 F1200.00
G1 X88.3339 Y-10.4997 Z-7.0000 F1200.00
G1 X192.5493 Y93.7157 Z-7.0000 F1200.00
G1 X194.2463 Y92.0186 Z-7.0000 F1200.00
G1 X91.7281 Y-10.4997 Z-7.0000 F1200.00
G1 X95.1222 Y-10.4996 Z-7.0000 F1200.00
G1 X195.9434 Y90.3215 Z-7.0000 F1200.00
G1 X197.6405 Y88.6245 Z-7.0000 F1200.00
G1 X98.5163 Y-10.4996 Z-7.0000 F1200.00
G1 X101.9105 Y-10.4996 Z-7.0000 F1200.00
G1 X199.3375 Y86.9274 Z-7.0000 F1200.00
G1 X201.0346 Y85.2304 Z-7.0000 F1200.00
G1 X105.3046 Y-10.4996 Z-7.0000 F1200.00
G1 X108.6987 Y-10.4996 Z-7.0000 F1200.00
G1 X202.7316 Y83.5333 Z-7.0000 F1200.00
G1 X204.4287 Y81.8363 Z-7.0000 F1200.00
G1 X112.0929 Y-10.4995 Z-7.0000 F1200.00
G1 X115.4870 Y-10.4995 Z-7.0000 F1200.00
G1 X206.1257 Y80.1392 Z-7.0000 F1200.00
G1 X207.8228 Y78.4422 Z-7.0000 F1200.00
G1 X118.8811 Y-10.4995 Z-7.0000 F1200.00
G1 X122.2753 Y-10.4995 Z-7.0000 F1200.00
G1 X209.5198 Y76.7451 Z-7.0000 F1200.00
G2 X211.2134 Y75.0446 Z-7.0000 I-19.7107 J-21.3243 F1200.00
G1 X125.6694 Y-10.4995 Z-7.0000 F1200.00
G1 X129.0635 Y-10.4994 Z-7.0000 F1200.00
G1 X212.7104 Y73.1474 Z-7.0000 F1200.00
G2 X213.8229 Y70.8658 Z-7.0000 I-8.5601 J-5.5862 F1200.00
G1 X132.4576 Y-10.4994 Z-7.0000 F1200.00
G1 X135.8518 Y-10.4994 Z-7.0000 F1200.00
G1 X214.4409 Y68.0897 Z-7.0000 F1200.00
G2 X214.2135 Y64.4682 Z-7.0000 I-10.8494 J-1.1365 F1200.00
G1 X139.2459 Y-10.4994 Z-7.0000 F1200.00
G1 X142.6400 Y-10.4994 Z-7.0000 F1200.00
G1 X197.2019 Y44.0625 Z-7.0000 F1200.00
G1 X198.8990 Y42.3655 Z-7.0000 F1200.00
G1 X146.0342 Y-10.4994 Z-7.0000 F1200.00
G1 X149.4283 Y-10.4993 Z-7.0000 F1200.00
G1 X200.5961 Y40.6684 Z-7.0000 F1200.00
G1 X202.2931 Y38.9714 Z-7.0000 F1200.00
G1 X152.8224 Y-10.4993 Z-7.0000 F1200.00
G1 X156.2166 Y-10.4993 Z-7.0000 F1200.00
G1 X203.9902 Y37.2743 Z-7.0000 F1200.00
G1 X205.6873 Y35.5773 Z-7.0000 F1200.00
G1 X159.6107 Y-10.4993 Z-7.0000 F1200.00
G1 X163.0048 Y-10.4993 Z-7.0000 F1200.00
G1 X207.3843 Y33.8802 Z-7.0000 F1200.00
G1 X209.0814 Y32.1832 Z-7.0000 F1200.00
G1 X166.3990 Y-10.4992 Z-7.0000 F1200.00
G1 X169.7931 Y-10.4992 Z-7.0000 F1200.00
G1 X210.7785 Y30.4861 Z-7.0000 F1200.00
G2 X212.3635 Y28.6771 Z-7.0000 I-8.4486 J-9.0014 F1200.00
G1 X173.1872 Y-10.4992 Z-7.0000 F1200.00
G1 X176.5814 Y-10.4992 Z-7.0000 F1200.00
G1 X213.5758 Y26.4952 Z-7.0000 F1200.00
G2 X214.3384 Y23.8637 Z-7.0000 I-9.4366 J-4.1610 F1200.00
G1 X179.9755 Y-10.4992 Z-7.0000 F1200.00
G3 X183.4725 Y-10.3962 Z-7.0000 I1.0123 J25.0666 F1200.00
G1 X214.4047 Y20.5360 Z-7.0000 F1200.00
G2 X211.1319 Y13.8693 Z-7.0000 I-11.3914 J1.4556 F1200.00
G1 X190.1321 Y-7.1308 Z-7.0000 F1200.00
G1 X190.1321 Y-7.1308 Z-7.5000 F300.00
G1 X211.1319 Y13.8693 Z-7.5000 F1200.00
G3 X214.4047 Y20.5360 Z-7.5000 I-8.1186 J8.1223 F1200.00
G1 X183.4725 Y-10.3962 Z-7.5000 F1200.00
G2 X179.9755 Y-10.4992 Z-7.5000 I-2.4848 J24.9637 F1200.00
G1 X214.3384 Y23.8637 Z-7.5000 F1200.00
G3 X213.5758 Y26.4952 Z-7.5000 I-10.1992 J-1.5295 F1200.00
G1 X176.5814 Y-10.4992 Z-7.5000 F1200.00
G1 X173.1872 Y-10.4992 Z-7.5000 F1200.00
G1 X212.3635 Y28.6771 Z-7.5000 F1200.00
G3 X210.7785 Y30.4861 Z-7.5000 I-10.0336 J-7.1924 F1200.00
G1 X169.7931 Y-10.4992 Z-7.5000 F1200.00
G1 X166.3990 Y-10.4992 Z-7.5000 F1200.00
G1 X209.0814 Y32.1832 Z-7.5000 F1200.00
G1 X207.3843 Y33.8802 Z-7.5000 F1200.00
G1 X163.0048 Y-10.4993 Z-7.5000 F1200.00
G1 X159.6107 Y-10.4993 Z-7.5000 F1200.00
G1 X205.6873 Y35.5773 Z-7.5000 F1200.00
G1 X203.9902 Y37.2743 Z-7.5000 F1200.00
G1 X156.2166 Y-10.4993 Z-7.5000 F1200.00
G1 X152.8224 Y-10.4993 Z-7.5000 F1200.00
G1 X202.2931 Y38.9714 Z-7.5000 F1200.00
G1 X200.5961 Y40.6684 Z-7.5000 F1200.00
G1 X149.4283 Y-10.4993 Z-7.5000 F1200.00
G1 X146.0342 Y-10.4994 Z-7.5000 F1200.00
G1 X198.8990 Y42.3655 Z-7.5000 F1200.00
G1 X197.2019 Y44.0625 Z-7.5000 F1200.00
G1 X142.6400 Y-10.4994 Z-7.5000 F1200.00
G1 X139.2459 Y-10.4994 Z-7.5000 F1200.00
G1 X214.2135 Y64.4682 Z-7.5000 F1200.00
G3 X214.4409 Y68.0897 Z-7.5000 I-10.6220 J2.4851 F1200.00
G1 X135.8518 Y-10.4994 Z-7.5000 F1200.00
G1 X132.4576 Y-10.4994 Z-7.5000 F1200.00
G1 X213.8229 Y70.8658 Z-7.5000 F1200.00
G3 X212.7104 Y73.1474 Z-7.5000 I-9.6727 J-3.3046 F1200.00
G1 X129.0635 Y-10.4994 Z-7.5000 F1200.00
G1 X125.6694 Y-10.4995 Z-7.5000 F1200.00
G1 X211.2134 Y75.0446 Z-7.5000 F1200.00
G3 X209.5198 Y76.7451 Z-7.5000 I-21.4043 J-19.6237 F1200.00
G1 X122.2753 Y-10.4995 Z-7.5000 F1200.00
G1 X118.8811 Y-10.4995 Z-7.5000 F1200.00
G1 X207.8228 Y78.4422 Z-7.5000 F1200.00
G1 X206.1257 Y80.1392 Z-7.5000 F1200.00
G1 X115.4870 Y-10.4995 Z-7.5000 F1200.00
G1 X112.0929 Y-10.4995 Z-7.5000 F1200.00
G1 X204.4287 Y81.8363 Z-7.5000 F1200.00
G1 X202.7316 Y83.5333 Z-7.5000 F1200.00
G1 X108.6987 Y-10.4996 Z-7.5000 F1200.00
G1 X105.3046 Y-10.4996 Z-7.5000 F1200.00
G1 X201.0346 Y85.2304 Z-7.5000 F1200.00
G1 X199.3375 Y86.9274 Z-7.5000 F1200.00
G1 X101.9105 Y-10.4996 Z-7.5000 F1200.00
G1 X98.5163 Y-10.4996 Z-7.5000 F1200.00
G1 X197.6405 Y88.6245 Z-7.5000 F1200.00
G1 X195.9434 Y90.3215 Z-7.5000 F1200.00
G1 X95.1222 Y-10.4996 Z-7.5000 F1200.00
G1 X91.7281 Y-10.4997 Z-7.5000 F1200.00
G1 X194.2463 Y92.0186 Z-7.5000 F1200.00
G1 X192.5493 Y93.7157 Z-7.5000 F1200.00
G1 X88.3339 Y-10.4997 Z-7.5000 F1200.00
G1 X84.9398 Y-10.4997 Z-7.5000 F1200.00
G1 X190.8522 Y95.4127 Z-7.5000 F1200.00
G3 X189.0898 Y97.0444 Z-7.5000 I-9.0672 J-8.0258 F1200.00
G1 X81.5457 Y-10.4998 Z-7.5000 F1200.00
G1 X78.1515 Y-10.4998 Z-7.5000 F1200.00
G1 X187.0002 Y98.3489 Z-7.5000 F1200.00
G3 X184.4802 Y99.2230 Z-7.5000 I-4.6976 J-9.4728 F1200.00
G1 X74.7574 Y-10.4998 Z-7.5000 F1200.00
G1 X71.3633 Y-10.4998 Z-7.5000 F1200.00
G1 X181.3629 Y99.4998 Z-7.5000 F1200.00
G1 X177.9687 Y99.4998 Z-7.5000 F1200.00
G1 X67.9691 Y-10.4998 Z-7.5000 F1200.00
G1 X64.5750 Y-10.4999 Z-7.5000 F1200.00
G1 X174.5746 Y99.4998 Z-7.5000 F1200.00
G1 X171.1805 Y99.4998 Z-7.5000 F1200.00
G1 X61.1809 Y-10.4999 Z-7.5000 F1200.00
G1 X57.7867 Y-10.4999 Z-7.5000 F1200.00
G1 X167.7864 Y99.4998 Z-7.5000 F1200.00
G1 X164.3923 Y99.4998 Z-7.5000 F1200.00
G1 X54.3926 Y-10.4999 Z-7.5000 F1200.00
G1 X50.9985 Y-10.4999 Z-7.5000 F1200.00
G1 X160.9982 Y99.4998 Z-7.5000 F1200.00
G1 X157.6041 Y99.4998 Z-7.5000 F1200.00
G1 X47.6043 Y-10.5000 Z-7.5000 F1200.00
G1 X44.2102 Y-10.5000 Z-7.5000 F1200.00
G1 X154.2100 Y99.4998 Z-7.5000 F1200.00
G1 X150.8158 Y99.4998 Z-7.5000 F1200.00
G1 X40.8161 Y-10.5000 Z-7.5000 F1200.00
G2 X37.6693 Y-10.2526 Z-7.5000 I-0.6019 J12.4803 F1200.00
G1 X147.4217 Y99.4998 Z-7.5000 F1200.00
G1 X144.0276 Y99.4998 Z-7.5000 F1200.00
G1 X35.1229 Y-9.4049 Z-7.5000 F1200.00
G2 X33.0111 Y-8.1226 Z-7.5000 I4.2202 J9.3303 F1200.00
G1 X140.6335 Y99.4998 Z-7.5000 F1200.00
G1 X137.2394 Y99.4998 Z-7.5000 F1200.00
G1 X31.2382 Y-6.5014 Z-7.5000 F1200.00
G1 X29.5411 Y-4.8043 Z-7.5000 F1200.00
G1 X133.8453 Y99.4998 Z-7.5000 F1200.00
G1 X130.4512 Y99.4998 Z-7.5000 F1200.00
G1 X27.8441 Y-3.1073 Z-7.5000 F1200.00
G1 X26.1470 Y-1.4103 Z-7.5000 F1200.00
G1 X127.0571 Y99.4998 Z-7.5000 F1200.00
G1 X123.6629 Y99.4998 Z-7.5000 F1200.00
G1 X24.4499 Y0.2868 Z-7.5000 F1200.00
G1 X22.7529 Y1.9838 Z-7.5000 F1200.00
G1 X120.2688 Y99.4998 Z-7.5000 F1200.00
G1 X116.8747 Y99.4998 Z-7.5000 F1200.00
G1 X21.0558 Y3.6809 Z-7.5000 F1200.00
G1 X19.3587 Y5.3779 Z-7.5000 F1200.00
G1 X113.4806 Y99.4998 Z-7.5000 F1200.00
G1 X110.0865 Y99.4998 Z-7.5000 F1200.00
G1 X17.6617 Y7.0750 Z-7.5000 F1200.00
G1 X15.9646 Y8.7720 Z-7.5000 F1200.00
G1 X106.6924 Y99.4998 Z-7.5000 F1200.00
G1 X103.2983 Y99.4998 Z-7.5000 F1200.00
G1 X14.2675 Y10.4691 Z-7.5000 F1200.00
G1 X12.5705 Y12.1661 Z-7.5000 F1200.00
G1 X99.9042 Y99.4998 Z-7.5000 F1200.00
G1 X96.5100 Y99.4998 Z-7.5000 F1200.00
