(Exported by FreeCAD)
(Post Processor: grbl_post)
(Output Time:2019-08-02 20:47:50.702078)
(begin preamble)
G17 G90
G21
(begin operation: T2: end mill 3mm)
(Path: T2: end mill 3mm)
(T2: end mill 3mm)
(begin toolchange)
; M6 T2
M3 S7000.0000
(finish operation: T2: end mill 3mm)
(begin operation: TagDressup)
(Path: TagDressup)
G0 Z10.0000
G0 X24.0607 Y22.0607 Z10.0000
G0 X24.0607 Y22.0607 Z8.0000
G1 X24.0607 Y22.0607 Z4.0000 F200.00
G2 X24.5000 Y21.0000 Z4.0000 I-1.0607 J-1.0607 F250.00
G1 X24.5000 Y0.0000 Z4.0000 F250.00
G2 X23.0000 Y-1.5000 Z4.0000 I-1.5000 J0.0000 F250.00
G1 X7.0000 Y-1.5000 Z4.0000 F250.00
G2 X5.5000 Y-0.0000 Z4.0000 I0.0000 J1.5000 F250.00
G1 X5.5000 Y7.5000 Z4.0000 F250.00
G1 X0.0000 Y7.5000 Z4.0000 F250.00
G2 X-1.5000 Y9.0000 Z4.0000 I0.0000 J1.5000 F250.00
G1 X-1.5000 Y21.0000 Z4.0000 F250.00
G2 X0.0000 Y22.5000 Z4.0000 I1.5000 J-0.0000 F250.00
G1 X23.0000 Y22.5000 Z4.0000 F250.00
G2 X24.0607 Y22.0607 Z4.0000 I-0.0000 J-1.5000 F250.00
G1 X24.0607 Y22.0607 Z3.0000 F200.00
G2 X24.5000 Y21.0000 Z3.0000 I-1.0607 J-1.0607 F250.00
G1 X24.5000 Y0.0000 Z3.0000 F250.00
G2 X23.0000 Y-1.5000 Z3.0000 I-1.5000 J0.0000 F250.00
G1 X7.0000 Y-1.5000 Z3.0000 F250.00
G2 X5.5000 Y-0.0000 Z3.0000 I0.0000 J1.5000 F250.00
G1 X5.5000 Y7.5000 Z3.0000 F250.00
G1 X0.0000 Y7.5000 Z3.0000 F250.00
G2 X-1.5000 Y9.0000 Z3.0000 I0.0000 J1.5000 F250.00
G1 X-1.5000 Y21.0000 Z3.0000 F250.00
G2 X0.0000 Y22.5000 Z3.0000 I1.5000 J-0.0000 F250.00
G1 X23.0000 Y22.5000 Z3.0000 F250.00
G2 X24.0607 Y22.0607 Z3.0000 I-0.0000 J-1.5000 F250.00
G1 X24.0607 Y22.0607 Z2.0000 F200.00
G2 X24.5000 Y21.0000 Z2.0000 I-1.0607 J-1.0607 F250.00
G1 X24.5000 Y0.0000 Z2.0000 F250.00
G2 X23.0000 Y-1.5000 Z2.0000 I-1.5000 J0.0000 F250.00
G1 X7.0000 Y-1.5000 Z2.0000 F250.00
G2 X5.5000 Y-0.0000 Z2.0000 I0.0000 J1.5000 F250.00
G1 X5.5000 Y7.5000 Z2.0000 F250.00
G1 X0.0000 Y7.5000 Z2.0000 F250.00
G2 X-1.5000 Y9.0000 Z2.0000 I0.0000 J1.5000 F250.00
G1 X-1.5000 Y21.0000 Z2.0000 F250.00
G2 X0.0000 Y22.5000 Z2.0000 I1.5000 J-0.0000 F250.00
G1 X23.0000 Y22.5000 Z2.0000 F250.00
G2 X24.0607 Y22.0607 Z2.0000 I-0.0000 J-1.5000 F250.00
G1 X24.0607 Y22.0607 Z1.0000 F200.00
G2 X24.5000 Y21.0000 Z1.0000 I-1.0607 J-1.0607 F250.00
G1 X24.5000 Y0.0000 Z1.0000 F250.00
G2 X23.0000 Y-1.5000 Z1.0000 I-1.5000 J0.0000 F250.00
G1 X7.0000 Y-1.5000 Z1.0000 F250.00
G2 X5.5000 Y-0.0000 Z1.0000 I0.0000 J1.5000 F250.00
G1 X5.5000 Y7.5000 Z1.0000 F250.00
G1 X0.0000 Y7.5000 Z1.0000 F250.00
G2 X-1.5000 Y9.0000 Z1.0000 I0.0000 J1.5000 F250.00
G1 X-1.5000 Y21.0000 Z1.0000 F250.00
G2 X0.0000 Y22.5000 Z1.0000 I1.5000 J-0.0000 F250.00
G1 X23.0000 Y22.5000 Z1.0000 F250.00
G2 X24.0607 Y22.0607 Z1.0000 I-0.0000 J-1.5000 F250.00
G1 X24.0607 Y22.0607 Z0.0000 F200.00
G2 X24.5000 Y21.0000 Z0.0000 I-1.0607 J-1.0607 F250.00
G1 X24.5000 Y12.9900 Z0.0000 F250.00
G1 X24.5000 Y11.9900 Z1.0000 F225.00
G1 X24.5000 Y9.0100 Z1.0000 F250.00
G1 X24.5000 Y8.0100 Z0.0000 F225.00
G1 X24.5000 Y0.0000 Z0.0000 F250.00
G2 X23.0000 Y-1.5000 Z0.0000 I-1.5000 J0.0000 F250.00
G1 X7.0000 Y-1.5000 Z0.0000 F250.00
G2 X5.5000 Y-0.0000 Z0.0000 I0.0000 J1.5000 F250.00
G1 X5.5000 Y7.5000 Z0.0000 F250.00
G1 X5.2400 Y7.5000 Z0.0000 F250.00
G1 X4.2400 Y7.5000 Z1.0000 F225.00
G1 X1.2600 Y7.5000 Z1.0000 F250.00
G1 X0.2600 Y7.5000 Z0.0000 F225.00
G1 X0.0000 Y7.5000 Z0.0000 F250.00
G2 X-1.5000 Y9.0000 Z0.0000 I0.0000 J1.5000 F250.00
G1 X-1.5000 Y21.0000 Z0.0000 F250.00
G2 X0.0000 Y22.5000 Z0.0000 I1.5000 J-0.0000 F250.00
G1 X9.0100 Y22.5000 Z0.0000 F250.00
G1 X10.0100 Y22.5000 Z1.0000 F225.00
G1 X12.9900 Y22.5000 Z1.0000 F250.00
G1 X13.9900 Y22.5000 Z0.0000 F225.00
G1 X23.0000 Y22.5000 Z0.0000 F250.00
G2 X24.0607 Y22.0607 Z0.0000 I-0.0000 J-1.5000 F250.00
G0 X24.0607 Y22.0607 Z10.0000
(finish operation: TagDressup)
(begin postamble)
M5
G17 G90
; M2
