(Exported by FreeCAD)
(Post Processor: grbl_post)
(Output Time:2019-10-21 19:07:27.000274)
(begin preamble)
G17 G90
G21
(begin operation: T2: end mill 3mm005)
(Path: T2: end mill 3mm005)
(T2: end mill 3mm005)
(begin toolchange)
; M6 T2
M3 S10000.0000
(finish operation: T2: end mill 3mm005)
(begin operation: MillFace028)
(Path: MillFace028)
(MillFace028)
G0 Z5.0000
G0 X24.5000 Y25.5000
G0 Z3.0000
G1 X24.5000 Y25.5000 Z-0.2500 F100.00
G1 X24.5000 Y0.5000 Z-0.2500 F600.00
G1 X13.5000 Y0.5000 Z-0.2500 F600.00
G1 X13.5000 Y12.0961 Z-0.2500 F600.00
G3 X15.2663 Y25.5000 Z-0.2500 I-8.6149 J7.9536 F600.00
G1 X24.5000 Y25.5000 Z-0.2500 F600.00
G0 X24.5000 Y25.5000 Z5.0000
G0 X15.3644 Y25.3056 Z5.0000
G0 X15.3644 Y25.3056 Z2.7500
G1 X15.3644 Y25.3056 Z-0.2500 F100.00
G1 X15.5589 Y25.5000 Z-0.2500 F600.00
G1 X15.2663 Y25.5000 Z-0.2500 F600.00
G2 X15.3644 Y25.3056 Z-0.2500 I-1.2554 J-0.7556 F600.00
G2 X15.9871 Y23.8070 Z-0.2500 I-8.8737 J-4.5658 F600.00
G1 X17.6802 Y25.5000 Z-0.2500 F600.00
G1 X19.8015 Y25.5000 Z-0.2500 F600.00
G1 X16.4177 Y22.1162 Z-0.2500 F600.00
G2 X16.6004 Y20.1776 Z-0.2500 I-8.6570 J-1.7937 F600.00
G1 X21.9228 Y25.5000 Z-0.2500 F600.00
G1 X24.0442 Y25.5000 Z-0.2500 F600.00
G1 X16.4029 Y17.8588 Z-0.2500 F600.00
G2 X15.2530 Y14.5876 Z-0.2500 I-11.0932 J2.0618 F600.00
G1 X24.5000 Y23.8345 Z-0.2500 F600.00
G1 X24.5000 Y21.7132 Z-0.2500 F600.00
G1 X13.5000 Y10.7132 Z-0.2500 F600.00
G1 X13.5000 Y8.5919 Z-0.2500 F600.00
G1 X24.5000 Y19.5919 Z-0.2500 F600.00
G1 X24.5000 Y17.4706 Z-0.2500 F600.00
G1 X13.5000 Y6.4706 Z-0.2500 F600.00
G1 X13.5000 Y4.3492 Z-0.2500 F600.00
G1 X24.5000 Y15.3492 Z-0.2500 F600.00
G1 X24.5000 Y13.2279 Z-0.2500 F600.00
G1 X13.5000 Y2.2279 Z-0.2500 F600.00
G1 X13.5000 Y0.5000 Z-0.2500 F600.00
G1 X13.8934 Y0.5000 Z-0.2500 F600.00
G1 X24.5000 Y11.1066 Z-0.2500 F600.00
G1 X24.5000 Y8.9853 Z-0.2500 F600.00
G1 X16.0147 Y0.5000 Z-0.2500 F600.00
G1 X18.1360 Y0.5000 Z-0.2500 F600.00
G1 X24.5000 Y6.8640 Z-0.2500 F600.00
G1 X24.5000 Y4.7426 Z-0.2500 F600.00
G1 X20.2574 Y0.5000 Z-0.2500 F600.00
G1 X22.3787 Y0.5000 Z-0.2500 F600.00
G1 X24.5000 Y2.6213 Z-0.2500 F600.00
G1 X24.5000 Y0.5000 Z-0.2500 F600.00
G1 X24.5000 Y0.5000 Z-0.5000 F100.00
G1 X24.5000 Y2.6213 Z-0.5000 F600.00
G1 X22.3787 Y0.5000 Z-0.5000 F600.00
G1 X20.2574 Y0.5000 Z-0.5000 F600.00
G1 X24.5000 Y4.7426 Z-0.5000 F600.00
G1 X24.5000 Y6.8640 Z-0.5000 F600.00
G1 X18.1360 Y0.5000 Z-0.5000 F600.00
G1 X16.0147 Y0.5000 Z-0.5000 F600.00
G1 X24.5000 Y8.9853 Z-0.5000 F600.00
G1 X24.5000 Y11.1066 Z-0.5000 F600.00
G1 X13.8934 Y0.5000 Z-0.5000 F600.00
G1 X13.5000 Y0.5000 Z-0.5000 F600.00
G1 X13.5000 Y2.2279 Z-0.5000 F600.00
G1 X24.5000 Y13.2279 Z-0.5000 F600.00
G1 X24.5000 Y15.3492 Z-0.5000 F600.00
G1 X13.5000 Y4.3492 Z-0.5000 F600.00
G1 X13.5000 Y6.4706 Z-0.5000 F600.00
G1 X24.5000 Y17.4706 Z-0.5000 F600.00
G1 X24.5000 Y19.5919 Z-0.5000 F600.00
G1 X13.5000 Y8.5919 Z-0.5000 F600.00
G1 X13.5000 Y10.7132 Z-0.5000 F600.00
G1 X24.5000 Y21.7132 Z-0.5000 F600.00
G1 X24.5000 Y23.8345 Z-0.5000 F600.00
G1 X15.2530 Y14.5876 Z-0.5000 F600.00
G3 X16.4029 Y17.8588 Z-0.5000 I-9.9433 J5.3330 F600.00
G1 X24.0442 Y25.5000 Z-0.5000 F600.00
G1 X21.9228 Y25.5000 Z-0.5000 F600.00
G1 X16.6004 Y20.1776 Z-0.5000 F600.00
G3 X16.4177 Y22.1162 Z-0.5000 I-8.8397 J0.1450 F600.00
G1 X19.8015 Y25.5000 Z-0.5000 F600.00
G1 X17.6802 Y25.5000 Z-0.5000 F600.00
G1 X15.9871 Y23.8070 Z-0.5000 F600.00
G3 X15.3644 Y25.3056 Z-0.5000 I-9.4964 J-3.0672 F600.00
G3 X15.2663 Y25.5000 Z-0.5000 I-1.3535 J-0.5611 F600.00
G1 X15.5589 Y25.5000 Z-0.5000 F600.00
G1 X15.3644 Y25.3056 Z-0.5000 F600.00
G0 X15.3644 Y25.3056 Z5.0000
G0 X15.3658 Y25.3062 Z5.0000
G0 X15.3658 Y25.3062 Z2.5000
G1 X15.3658 Y25.3062 Z-0.5000 F100.00
G3 X15.2663 Y25.5000 Z-0.5000 I-10.4807 J-5.2565 F600.00
G1 X24.5000 Y25.5000 Z-0.5000 F600.00
G1 X24.5000 Y0.5000 Z-0.5000 F600.00
G1 X13.5000 Y0.5000 Z-0.5000 F600.00
G1 X13.5000 Y12.0961 Z-0.5000 F600.00
G3 X15.3658 Y25.3062 Z-0.5000 I-8.6149 J7.9536 F600.00
G0 Z5.0000
(finish operation: MillFace028)
(begin operation: MillFace029)
(Path: MillFace029)
(MillFace029)
G0 Z5.0000
G0 X50.5000 Y25.5000
G0 Z3.0000
G1 X50.5000 Y25.5000 Z-0.2500 F100.00
G1 X50.5000 Y0.5000 Z-0.2500 F600.00
G1 X39.5000 Y0.5000 Z-0.2500 F600.00
G1 X39.5000 Y25.5000 Z-0.2500 F600.00
G1 X50.5000 Y25.5000 Z-0.2500 F600.00
G0 X50.5000 Y25.5000 Z5.0000
G0 X39.5000 Y23.4411 Z5.0000
G0 X39.5000 Y23.4411 Z2.7500
G1 X39.5000 Y23.4411 Z-0.2500 F100.00
G1 X39.5000 Y25.5000 Z-0.2500 F600.00
G1 X41.5589 Y25.5000 Z-0.2500 F600.00
G1 X39.5000 Y23.4411 Z-0.2500 F600.00
G1 X39.5000 Y21.3198 Z-0.2500 F600.00
G1 X43.6802 Y25.5000 Z-0.2500 F600.00
G1 X45.8015 Y25.5000 Z-0.2500 F600.00
G1 X39.5000 Y19.1985 Z-0.2500 F600.00
G1 X39.5000 Y17.0772 Z-0.2500 F600.00
G1 X47.9228 Y25.5000 Z-0.2500 F600.00
G1 X50.0442 Y25.5000 Z-0.2500 F600.00
G1 X39.5000 Y14.9558 Z-0.2500 F600.00
G1 X39.5000 Y12.8345 Z-0.2500 F600.00
G1 X50.5000 Y23.8345 Z-0.2500 F600.00
G1 X50.5000 Y21.7132 Z-0.2500 F600.00
G1 X39.5000 Y10.7132 Z-0.2500 F600.00
G1 X39.5000 Y8.5919 Z-0.2500 F600.00
G1 X50.5000 Y19.5919 Z-0.2500 F600.00
G1 X50.5000 Y17.4706 Z-0.2500 F600.00
G1 X39.5000 Y6.4706 Z-0.2500 F600.00
G1 X39.5000 Y4.3492 Z-0.2500 F600.00
G1 X50.5000 Y15.3492 Z-0.2500 F600.00
G1 X50.5000 Y13.2279 Z-0.2500 F600.00
G1 X39.5000 Y2.2279 Z-0.2500 F600.00
G1 X39.5000 Y0.5000 Z-0.2500 F600.00
G1 X39.8934 Y0.5000 Z-0.2500 F600.00
G1 X50.5000 Y11.1066 Z-0.2500 F600.00
G1 X50.5000 Y8.9853 Z-0.2500 F600.00
G1 X42.0147 Y0.5000 Z-0.2500 F600.00
G1 X44.1360 Y0.5000 Z-0.2500 F600.00
G1 X50.5000 Y6.8640 Z-0.2500 F600.00
G1 X50.5000 Y4.7426 Z-0.2500 F600.00
G1 X46.2574 Y0.5000 Z-0.2500 F600.00
G1 X48.3787 Y0.5000 Z-0.2500 F600.00
G1 X50.5000 Y2.6213 Z-0.2500 F600.00
G1 X50.5000 Y0.5000 Z-0.2500 F600.00
G0 X50.5000 Y0.5000 Z5.0000
G0 X37.5000 Y0.5000 Z5.0000
G0 X37.5000 Y0.5000 Z2.7500
G1 X37.5000 Y0.5000 Z-0.2500 F100.00
G1 X26.5000 Y0.5000 Z-0.2500 F600.00
G1 X26.5000 Y25.5000 Z-0.2500 F600.00
G1 X37.5000 Y25.5000 Z-0.2500 F600.00
G1 X37.5000 Y0.5000 Z-0.2500 F600.00
G0 X37.5000 Y0.5000 Z5.0000
G0 X35.6508 Y0.5000 Z5.0000
G0 X35.6508 Y0.5000 Z2.7500
G1 X35.6508 Y0.5000 Z-0.2500 F100.00
G1 X37.5000 Y0.5000 Z-0.2500 F600.00
G1 X37.5000 Y2.3492 Z-0.2500 F600.00
G1 X35.6508 Y0.5000 Z-0.2500 F600.00
G1 X33.5294 Y0.5000 Z-0.2500 F600.00
G1 X37.5000 Y4.4706 Z-0.2500 F600.00
G1 X37.5000 Y6.5919 Z-0.2500 F600.00
G1 X31.4081 Y0.5000 Z-0.2500 F600.00
G1 X29.2868 Y0.5000 Z-0.2500 F600.00
G1 X37.5000 Y8.7132 Z-0.2500 F600.00
G1 X37.5000 Y10.8345 Z-0.2500 F600.00
G1 X27.1655 Y0.5000 Z-0.2500 F600.00
G1 X26.5000 Y0.5000 Z-0.2500 F600.00
G1 X26.5000 Y1.9558 Z-0.2500 F600.00
G1 X37.5000 Y12.9558 Z-0.2500 F600.00
G1 X37.5000 Y15.0772 Z-0.2500 F600.00
G1 X26.5000 Y4.0772 Z-0.2500 F600.00
G1 X26.5000 Y6.1985 Z-0.2500 F600.00
G1 X37.5000 Y17.1985 Z-0.2500 F600.00
G1 X37.5000 Y19.3198 Z-0.2500 F600.00
G1 X26.5000 Y8.3198 Z-0.2500 F600.00
G1 X26.5000 Y10.4411 Z-0.2500 F600.00
G1 X37.5000 Y21.4411 Z-0.2500 F600.00
G1 X37.5000 Y23.5624 Z-0.2500 F600.00
G1 X26.5000 Y12.5624 Z-0.2500 F600.00
G1 X26.5000 Y14.6838 Z-0.2500 F600.00
G1 X37.3162 Y25.5000 Z-0.2500 F600.00
G1 X35.1949 Y25.5000 Z-0.2500 F600.00
G1 X26.5000 Y16.8051 Z-0.2500 F600.00
G1 X26.5000 Y18.9264 Z-0.2500 F600.00
G1 X33.0736 Y25.5000 Z-0.2500 F600.00
G1 X30.9523 Y25.5000 Z-0.2500 F600.00
G1 X26.5000 Y21.0477 Z-0.2500 F600.00
G1 X26.5000 Y23.1690 Z-0.2500 F600.00
G1 X28.8310 Y25.5000 Z-0.2500 F600.00
G1 X26.7096 Y25.5000 Z-0.2500 F600.00
G1 X26.5000 Y25.5000 Z-0.2500 F600.00
G1 X26.5000 Y25.2904 Z-0.2500 F600.00
G1 X26.7096 Y25.5000 Z-0.2500 F600.00
G1 X26.7096 Y25.5000 Z-0.5000 F100.00
G1 X26.5000 Y25.2904 Z-0.5000 F600.00
G1 X26.5000 Y25.5000 Z-0.5000 F600.00
G1 X26.7096 Y25.5000 Z-0.5000 F600.00
G1 X28.8310 Y25.5000 Z-0.5000 F600.00
G1 X26.5000 Y23.1690 Z-0.5000 F600.00
G1 X26.5000 Y21.0477 Z-0.5000 F600.00
G1 X30.9523 Y25.5000 Z-0.5000 F600.00
G1 X33.0736 Y25.5000 Z-0.5000 F600.00
G1 X26.5000 Y18.9264 Z-0.5000 F600.00
G1 X26.5000 Y16.8051 Z-0.5000 F600.00
G1 X35.1949 Y25.5000 Z-0.5000 F600.00
G1 X37.3162 Y25.5000 Z-0.5000 F600.00
G1 X26.5000 Y14.6838 Z-0.5000 F600.00
G1 X26.5000 Y12.5624 Z-0.5000 F600.00
G1 X37.5000 Y23.5624 Z-0.5000 F600.00
G1 X37.5000 Y21.4411 Z-0.5000 F600.00
G1 X26.5000 Y10.4411 Z-0.5000 F600.00
G1 X26.5000 Y8.3198 Z-0.5000 F600.00
G1 X37.5000 Y19.3198 Z-0.5000 F600.00
G1 X37.5000 Y17.1985 Z-0.5000 F600.00
G1 X26.5000 Y6.1985 Z-0.5000 F600.00
G1 X26.5000 Y4.0772 Z-0.5000 F600.00
G1 X37.5000 Y15.0772 Z-0.5000 F600.00
G1 X37.5000 Y12.9558 Z-0.5000 F600.00
G1 X26.5000 Y1.9558 Z-0.5000 F600.00
G1 X26.5000 Y0.5000 Z-0.5000 F600.00
G1 X27.1655 Y0.5000 Z-0.5000 F600.00
G1 X37.5000 Y10.8345 Z-0.5000 F600.00
G1 X37.5000 Y8.7132 Z-0.5000 F600.00
G1 X29.2868 Y0.5000 Z-0.5000 F600.00
G1 X31.4081 Y0.5000 Z-0.5000 F600.00
G1 X37.5000 Y6.5919 Z-0.5000 F600.00
G1 X37.5000 Y4.4706 Z-0.5000 F600.00
G1 X33.5294 Y0.5000 Z-0.5000 F600.00
G1 X35.6508 Y0.5000 Z-0.5000 F600.00
G1 X37.5000 Y2.3492 Z-0.5000 F600.00
G1 X37.5000 Y0.5000 Z-0.5000 F600.00
G1 X35.6508 Y0.5000 Z-0.5000 F600.00
G1 X35.6508 Y0.5000 Z-0.5000 F100.00
G1 X26.5000 Y0.5000 Z-0.5000 F600.00
G1 X26.5000 Y25.5000 Z-0.5000 F600.00
G1 X37.5000 Y25.5000 Z-0.5000 F600.00
G1 X37.5000 Y0.5000 Z-0.5000 F600.00
G1 X35.6508 Y0.5000 Z-0.5000 F600.00
G0 X35.6508 Y0.5000 Z5.0000
G0 X39.5000 Y0.5000 Z5.0000
G0 X39.5000 Y0.5000 Z2.5000
G1 X39.5000 Y0.5000 Z-0.5000 F100.00
G1 X39.5000 Y25.5000 Z-0.5000 F600.00
G1 X50.5000 Y25.5000 Z-0.5000 F600.00
G1 X50.5000 Y0.5000 Z-0.5000 F600.00
G1 X39.5000 Y0.5000 Z-0.5000 F600.00
G0 X39.5000 Y0.5000 Z5.0000
G0 X50.5000 Y0.5000 Z5.0000
G0 X50.5000 Y0.5000 Z2.5000
G1 X50.5000 Y0.5000 Z-0.5000 F100.00
G1 X50.5000 Y2.6213 Z-0.5000 F600.00
G1 X48.3787 Y0.5000 Z-0.5000 F600.00
G1 X46.2574 Y0.5000 Z-0.5000 F600.00
G1 X50.5000 Y4.7426 Z-0.5000 F600.00
G1 X50.5000 Y6.8640 Z-0.5000 F600.00
G1 X44.1360 Y0.5000 Z-0.5000 F600.00
G1 X42.0147 Y0.5000 Z-0.5000 F600.00
G1 X50.5000 Y8.9853 Z-0.5000 F600.00
G1 X50.5000 Y11.1066 Z-0.5000 F600.00
G1 X39.8934 Y0.5000 Z-0.5000 F600.00
G1 X39.5000 Y0.5000 Z-0.5000 F600.00
G1 X39.5000 Y2.2279 Z-0.5000 F600.00
G1 X50.5000 Y13.2279 Z-0.5000 F600.00
G1 X50.5000 Y15.3492 Z-0.5000 F600.00
G1 X39.5000 Y4.3492 Z-0.5000 F600.00
G1 X39.5000 Y6.4706 Z-0.5000 F600.00
G1 X50.5000 Y17.4706 Z-0.5000 F600.00
G1 X50.5000 Y19.5919 Z-0.5000 F600.00
G1 X39.5000 Y8.5919 Z-0.5000 F600.00
G1 X39.5000 Y10.7132 Z-0.5000 F600.00
G1 X50.5000 Y21.7132 Z-0.5000 F600.00
G1 X50.5000 Y23.8345 Z-0.5000 F600.00
G1 X39.5000 Y12.8345 Z-0.5000 F600.00
G1 X39.5000 Y14.9558 Z-0.5000 F600.00
G1 X50.0442 Y25.5000 Z-0.5000 F600.00
G1 X47.9228 Y25.5000 Z-0.5000 F600.00
G1 X39.5000 Y17.0772 Z-0.5000 F600.00
G1 X39.5000 Y19.1985 Z-0.5000 F600.00
G1 X45.8015 Y25.5000 Z-0.5000 F600.00
G1 X43.6802 Y25.5000 Z-0.5000 F600.00
G1 X39.5000 Y21.3198 Z-0.5000 F600.00
G1 X39.5000 Y23.4411 Z-0.5000 F600.00
G1 X41.5589 Y25.5000 Z-0.5000 F600.00
G1 X39.5000 Y25.5000 Z-0.5000 F600.00
G1 X39.5000 Y23.4411 Z-0.5000 F600.00
G1 X39.5000 Y23.4411 Z-0.7500 F100.00
G1 X39.5000 Y25.5000 Z-0.7500 F600.00
G1 X41.5589 Y25.5000 Z-0.7500 F600.00
G1 X39.5000 Y23.4411 Z-0.7500 F600.00
G1 X39.5000 Y21.3198 Z-0.7500 F600.00
G1 X43.6802 Y25.5000 Z-0.7500 F600.00
G1 X45.8015 Y25.5000 Z-0.7500 F600.00
G1 X39.5000 Y19.1985 Z-0.7500 F600.00
G1 X39.5000 Y17.0772 Z-0.7500 F600.00
G1 X47.9228 Y25.5000 Z-0.7500 F600.00
G1 X50.0442 Y25.5000 Z-0.7500 F600.00
G1 X39.5000 Y14.9558 Z-0.7500 F600.00
G1 X39.5000 Y12.8345 Z-0.7500 F600.00
G1 X50.5000 Y23.8345 Z-0.7500 F600.00
G1 X50.5000 Y21.7132 Z-0.7500 F600.00
G1 X39.5000 Y10.7132 Z-0.7500 F600.00
G1 X39.5000 Y8.5919 Z-0.7500 F600.00
G1 X50.5000 Y19.5919 Z-0.7500 F600.00
G1 X50.5000 Y17.4706 Z-0.7500 F600.00
G1 X39.5000 Y6.4706 Z-0.7500 F600.00
G1 X39.5000 Y4.3492 Z-0.7500 F600.00
G1 X50.5000 Y15.3492 Z-0.7500 F600.00
G1 X50.5000 Y13.2279 Z-0.7500 F600.00
G1 X39.5000 Y2.2279 Z-0.7500 F600.00
G1 X39.5000 Y0.5000 Z-0.7500 F600.00
G1 X39.8934 Y0.5000 Z-0.7500 F600.00
G1 X50.5000 Y11.1066 Z-0.7500 F600.00
G1 X50.5000 Y8.9853 Z-0.7500 F600.00
G1 X42.0147 Y0.5000 Z-0.7500 F600.00
G1 X44.1360 Y0.5000 Z-0.7500 F600.00
G1 X50.5000 Y6.8640 Z-0.7500 F600.00
G1 X50.5000 Y4.7426 Z-0.7500 F600.00
G1 X46.2574 Y0.5000 Z-0.7500 F600.00
G1 X48.3787 Y0.5000 Z-0.7500 F600.00
G1 X50.5000 Y2.6213 Z-0.7500 F600.00
G1 X50.5000 Y0.5000 Z-0.7500 F600.00
G1 X50.5000 Y0.5000 Z-0.7500 F100.00
G1 X39.5000 Y0.5000 Z-0.7500 F600.00
G1 X39.5000 Y25.5000 Z-0.7500 F600.00
G1 X50.5000 Y25.5000 Z-0.7500 F600.00
G1 X50.5000 Y0.5000 Z-0.7500 F600.00
G0 X50.5000 Y0.5000 Z5.0000
G0 X37.5000 Y0.5000 Z5.0000
G0 X37.5000 Y0.5000 Z2.2500
G1 X37.5000 Y0.5000 Z-0.7500 F100.00
G1 X26.5000 Y0.5000 Z-0.7500 F600.00
G1 X26.5000 Y25.5000 Z-0.7500 F600.00
G1 X37.5000 Y25.5000 Z-0.7500 F600.00
G1 X37.5000 Y0.5000 Z-0.7500 F600.00
G0 X37.5000 Y0.5000 Z5.0000
G0 X35.6508 Y0.5000 Z5.0000
G0 X35.6508 Y0.5000 Z2.2500
G1 X35.6508 Y0.5000 Z-0.7500 F100.00
G1 X37.5000 Y0.5000 Z-0.7500 F600.00
G1 X37.5000 Y2.3492 Z-0.7500 F600.00
G1 X35.6508 Y0.5000 Z-0.7500 F600.00
G1 X33.5294 Y0.5000 Z-0.7500 F600.00
G1 X37.5000 Y4.4706 Z-0.7500 F600.00
G1 X37.5000 Y6.5919 Z-0.7500 F600.00
G1 X31.4081 Y0.5000 Z-0.7500 F600.00
G1 X29.2868 Y0.5000 Z-0.7500 F600.00
G1 X37.5000 Y8.7132 Z-0.7500 F600.00
G1 X37.5000 Y10.8345 Z-0.7500 F600.00
G1 X27.1655 Y0.5000 Z-0.7500 F600.00
G1 X26.5000 Y0.5000 Z-0.7500 F600.00
G1 X26.5000 Y1.9558 Z-0.7500 F600.00
G1 X37.5000 Y12.9558 Z-0.7500 F600.00
G1 X37.5000 Y15.0772 Z-0.7500 F600.00
G1 X26.5000 Y4.0772 Z-0.7500 F600.00
G1 X26.5000 Y6.1985 Z-0.7500 F600.00
G1 X37.5000 Y17.1985 Z-0.7500 F600.00
G1 X37.5000 Y19.3198 Z-0.7500 F600.00
G1 X26.5000 Y8.3198 Z-0.7500 F600.00
G1 X26.5000 Y10.4411 Z-0.7500 F600.00
G1 X37.5000 Y21.4411 Z-0.7500 F600.00
G1 X37.5000 Y23.5624 Z-0.7500 F600.00
G1 X26.5000 Y12.5624 Z-0.7500 F600.00
G1 X26.5000 Y14.6838 Z-0.7500 F600.00
G1 X37.3162 Y25.5000 Z-0.7500 F600.00
G1 X35.1949 Y25.5000 Z-0.7500 F600.00
G1 X26.5000 Y16.8051 Z-0.7500 F600.00
G1 X26.5000 Y18.9264 Z-0.7500 F600.00
G1 X33.0736 Y25.5000 Z-0.7500 F600.00
G1 X30.9523 Y25.5000 Z-0.7500 F600.00
G1 X26.5000 Y21.0477 Z-0.7500 F600.00
G1 X26.5000 Y23.1690 Z-0.7500 F600.00
G1 X28.8310 Y25.5000 Z-0.7500 F600.00
G1 X26.7096 Y25.5000 Z-0.7500 F600.00
G1 X26.5000 Y25.5000 Z-0.7500 F600.00
G1 X26.5000 Y25.2904 Z-0.7500 F600.00
G1 X26.7096 Y25.5000 Z-0.7500 F600.00
G0 Z5.0000
(finish operation: MillFace029)
(begin operation: T5: end mill 0.8mm)
(Path: T5: end mill 0.8mm)
(T5: end mill 0.8mm)
(begin toolchange)
M6 T5
M3 S10000.0000
(finish operation: T5: end mill 0.8mm)
(begin operation: holes001)
(Path: holes001)
(holes001)
(Compensated Tool Path. Diameter: 0.8)
G0 Z5.0000
G0 X6.7760 Y24.2760
G0 Z3.0000
G1 X6.7760 Y24.2760 Z-0.2500 F100.00
G2 X6.4762 Y22.5112 Z-0.2500 I-0.7760 J-0.7760 F600.00
G2 X5.5238 Y24.4888 Z-0.2500 I-0.4762 J0.9888 F600.00
G2 X6.7760 Y24.2760 Z-0.2500 I0.4762 J-0.9888 F600.00
G1 X6.7760 Y24.2760 Z-0.5000 F100.00
G2 X6.4762 Y22.5112 Z-0.5000 I-0.7760 J-0.7760 F600.00
G2 X5.5238 Y24.4888 Z-0.5000 I-0.4762 J0.9888 F600.00
G2 X6.7760 Y24.2760 Z-0.5000 I0.4762 J-0.9888 F600.00
G1 X6.7760 Y24.2760 Z-0.7500 F100.00
G2 X6.4762 Y22.5112 Z-0.7500 I-0.7760 J-0.7760 F600.00
G2 X5.5238 Y24.4888 Z-0.7500 I-0.4762 J0.9888 F600.00
G2 X6.7760 Y24.2760 Z-0.7500 I0.4762 J-0.9888 F600.00
G1 X6.7760 Y24.2760 Z-1.0000 F100.00
G2 X6.4762 Y22.5112 Z-1.0000 I-0.7760 J-0.7760 F600.00
G2 X5.5238 Y24.4888 Z-1.0000 I-0.4762 J0.9888 F600.00
G2 X6.7760 Y24.2760 Z-1.0000 I0.4762 J-0.9888 F600.00
G1 X6.7760 Y24.2760 Z-1.2500 F100.00
G2 X6.4762 Y22.5112 Z-1.2500 I-0.7760 J-0.7760 F600.00
G2 X5.5238 Y24.4888 Z-1.2500 I-0.4762 J0.9888 F600.00
G2 X6.7760 Y24.2760 Z-1.2500 I0.4762 J-0.9888 F600.00
G1 X6.7760 Y24.2760 Z-1.5000 F100.00
G2 X6.4762 Y22.5112 Z-1.5000 I-0.7760 J-0.7760 F600.00
G2 X5.5238 Y24.4888 Z-1.5000 I-0.4762 J0.9888 F600.00
G2 X6.7760 Y24.2760 Z-1.5000 I0.4762 J-0.9888 F600.00
G1 X6.7760 Y24.2760 Z-1.7500 F100.00
G2 X6.4762 Y22.5112 Z-1.7500 I-0.7760 J-0.7760 F600.00
G2 X5.5238 Y24.4888 Z-1.7500 I-0.4762 J0.9888 F600.00
G2 X6.7760 Y24.2760 Z-1.7500 I0.4762 J-0.9888 F600.00
G1 X6.7760 Y24.2760 Z-2.0000 F100.00
G2 X6.4762 Y22.5112 Z-2.0000 I-0.7760 J-0.7760 F600.00
G2 X5.5238 Y24.4888 Z-2.0000 I-0.4762 J0.9888 F600.00
G2 X6.7760 Y24.2760 Z-2.0000 I0.4762 J-0.9888 F600.00
G1 X6.7760 Y24.2760 Z-2.2500 F100.00
G2 X6.4762 Y22.5112 Z-2.2500 I-0.7760 J-0.7760 F600.00
G2 X5.5238 Y24.4888 Z-2.2500 I-0.4762 J0.9888 F600.00
G2 X6.7760 Y24.2760 Z-2.2500 I0.4762 J-0.9888 F600.00
G1 X6.7760 Y24.2760 Z-2.5000 F100.00
G2 X6.4762 Y22.5112 Z-2.5000 I-0.7760 J-0.7760 F600.00
G2 X5.5238 Y24.4888 Z-2.5000 I-0.4762 J0.9888 F600.00
G2 X6.7760 Y24.2760 Z-2.5000 I0.4762 J-0.9888 F600.00
G1 X6.7760 Y24.2760 Z-2.7500 F100.00
G2 X6.4762 Y22.5112 Z-2.7500 I-0.7760 J-0.7760 F600.00
G2 X5.5238 Y24.4888 Z-2.7500 I-0.4762 J0.9888 F600.00
G2 X6.7760 Y24.2760 Z-2.7500 I0.4762 J-0.9888 F600.00
G1 X6.7760 Y24.2760 Z-3.0000 F100.00
G2 X6.4762 Y22.5112 Z-3.0000 I-0.7760 J-0.7760 F600.00
G2 X5.5238 Y24.4888 Z-3.0000 I-0.4762 J0.9888 F600.00
G2 X6.7760 Y24.2760 Z-3.0000 I0.4762 J-0.9888 F600.00
G0 Z5.0000
G0 X7.1300 Y14.1300
G0 Z3.0000
G1 X7.1300 Y14.1300 Z-0.2500 F100.00
G2 X6.6116 Y11.5236 Z-0.2500 I-1.1300 J-1.1300 F600.00
G2 X5.3884 Y14.4764 Z-0.2500 I-0.6116 J1.4764 F600.00
G2 X7.1300 Y14.1300 Z-0.2500 I0.6116 J-1.4764 F600.00
G1 X7.1300 Y14.1300 Z-0.5000 F100.00
G2 X6.6116 Y11.5236 Z-0.5000 I-1.1300 J-1.1300 F600.00
G2 X5.3884 Y14.4764 Z-0.5000 I-0.6116 J1.4764 F600.00
G2 X7.1300 Y14.1300 Z-0.5000 I0.6116 J-1.4764 F600.00
G1 X7.1300 Y14.1300 Z-0.7500 F100.00
G2 X6.6116 Y11.5236 Z-0.7500 I-1.1300 J-1.1300 F600.00
G2 X5.3884 Y14.4764 Z-0.7500 I-0.6116 J1.4764 F600.00
G2 X7.1300 Y14.1300 Z-0.7500 I0.6116 J-1.4764 F600.00
G1 X7.1300 Y14.1300 Z-1.0000 F100.00
G2 X6.6116 Y11.5236 Z-1.0000 I-1.1300 J-1.1300 F600.00
G2 X5.3884 Y14.4764 Z-1.0000 I-0.6116 J1.4764 F600.00
G2 X7.1300 Y14.1300 Z-1.0000 I0.6116 J-1.4764 F600.00
G1 X7.1300 Y14.1300 Z-1.2500 F100.00
G2 X6.6116 Y11.5236 Z-1.2500 I-1.1300 J-1.1300 F600.00
G2 X5.3884 Y14.4764 Z-1.2500 I-0.6116 J1.4764 F600.00
G2 X7.1300 Y14.1300 Z-1.2500 I0.6116 J-1.4764 F600.00
G1 X7.1300 Y14.1300 Z-1.5000 F100.00
G2 X6.6116 Y11.5236 Z-1.5000 I-1.1300 J-1.1300 F600.00
G2 X5.3884 Y14.4764 Z-1.5000 I-0.6116 J1.4764 F600.00
G2 X7.1300 Y14.1300 Z-1.5000 I0.6116 J-1.4764 F600.00
G1 X7.1300 Y14.1300 Z-1.7500 F100.00
G2 X6.6116 Y11.5236 Z-1.7500 I-1.1300 J-1.1300 F600.00
G2 X5.3884 Y14.4764 Z-1.7500 I-0.6116 J1.4764 F600.00
G2 X7.1300 Y14.1300 Z-1.7500 I0.6116 J-1.4764 F600.00
G1 X7.1300 Y14.1300 Z-2.0000 F100.00
G2 X6.6116 Y11.5236 Z-2.0000 I-1.1300 J-1.1300 F600.00
G2 X5.3884 Y14.4764 Z-2.0000 I-0.6116 J1.4764 F600.00
G2 X7.1300 Y14.1300 Z-2.0000 I0.6116 J-1.4764 F600.00
G1 X7.1300 Y14.1300 Z-2.2500 F100.00
G2 X6.6116 Y11.5236 Z-2.2500 I-1.1300 J-1.1300 F600.00
G2 X5.3884 Y14.4764 Z-2.2500 I-0.6116 J1.4764 F600.00
G2 X7.1300 Y14.1300 Z-2.2500 I0.6116 J-1.4764 F600.00
G1 X7.1300 Y14.1300 Z-2.5000 F100.00
G2 X6.6116 Y11.5236 Z-2.5000 I-1.1300 J-1.1300 F600.00
G2 X5.3884 Y14.4764 Z-2.5000 I-0.6116 J1.4764 F600.00
G2 X7.1300 Y14.1300 Z-2.5000 I0.6116 J-1.4764 F600.00
G1 X7.1300 Y14.1300 Z-2.7500 F100.00
G2 X6.6116 Y11.5236 Z-2.7500 I-1.1300 J-1.1300 F600.00
G2 X5.3884 Y14.4764 Z-2.7500 I-0.6116 J1.4764 F600.00
G2 X7.1300 Y14.1300 Z-2.7500 I0.6116 J-1.4764 F600.00
G1 X7.1300 Y14.1300 Z-3.0000 F100.00
G2 X6.6116 Y11.5236 Z-3.0000 I-1.1300 J-1.1300 F600.00
G2 X5.3884 Y14.4764 Z-3.0000 I-0.6116 J1.4764 F600.00
G2 X7.1300 Y14.1300 Z-3.0000 I0.6116 J-1.4764 F600.00
G0 Z5.0000
G0 X6.7760 Y3.2760
G0 Z3.0000
G1 X6.7760 Y3.2760 Z-0.2500 F100.00
G2 X6.4762 Y1.5112 Z-0.2500 I-0.7760 J-0.7760 F600.00
G2 X5.5238 Y3.4888 Z-0.2500 I-0.4762 J0.9888 F600.00
G2 X6.7760 Y3.2760 Z-0.2500 I0.4762 J-0.9888 F600.00
G1 X6.7760 Y3.2760 Z-0.5000 F100.00
G2 X6.4762 Y1.5112 Z-0.5000 I-0.7760 J-0.7760 F600.00
G2 X5.5238 Y3.4888 Z-0.5000 I-0.4762 J0.9888 F600.00
G2 X6.7760 Y3.2760 Z-0.5000 I0.4762 J-0.9888 F600.00
G1 X6.7760 Y3.2760 Z-0.7500 F100.00
G2 X6.4762 Y1.5112 Z-0.7500 I-0.7760 J-0.7760 F600.00
G2 X5.5238 Y3.4888 Z-0.7500 I-0.4762 J0.9888 F600.00
G2 X6.7760 Y3.2760 Z-0.7500 I0.4762 J-0.9888 F600.00
G1 X6.7760 Y3.2760 Z-1.0000 F100.00
G2 X6.4762 Y1.5112 Z-1.0000 I-0.7760 J-0.7760 F600.00
G2 X5.5238 Y3.4888 Z-1.0000 I-0.4762 J0.9888 F600.00
G2 X6.7760 Y3.2760 Z-1.0000 I0.4762 J-0.9888 F600.00
G1 X6.7760 Y3.2760 Z-1.2500 F100.00
G2 X6.4762 Y1.5112 Z-1.2500 I-0.7760 J-0.7760 F600.00
G2 X5.5238 Y3.4888 Z-1.2500 I-0.4762 J0.9888 F600.00
G2 X6.7760 Y3.2760 Z-1.2500 I0.4762 J-0.9888 F600.00
G1 X6.7760 Y3.2760 Z-1.5000 F100.00
G2 X6.4762 Y1.5112 Z-1.5000 I-0.7760 J-0.7760 F600.00
G2 X5.5238 Y3.4888 Z-1.5000 I-0.4762 J0.9888 F600.00
G2 X6.7760 Y3.2760 Z-1.5000 I0.4762 J-0.9888 F600.00
G1 X6.7760 Y3.2760 Z-1.7500 F100.00
G2 X6.4762 Y1.5112 Z-1.7500 I-0.7760 J-0.7760 F600.00
G2 X5.5238 Y3.4888 Z-1.7500 I-0.4762 J0.9888 F600.00
G2 X6.7760 Y3.2760 Z-1.7500 I0.4762 J-0.9888 F600.00
G1 X6.7760 Y3.2760 Z-2.0000 F100.00
G2 X6.4762 Y1.5112 Z-2.0000 I-0.7760 J-0.7760 F600.00
G2 X5.5238 Y3.4888 Z-2.0000 I-0.4762 J0.9888 F600.00
G2 X6.7760 Y3.2760 Z-2.0000 I0.4762 J-0.9888 F600.00
G1 X6.7760 Y3.2760 Z-2.2500 F100.00
G2 X6.4762 Y1.5112 Z-2.2500 I-0.7760 J-0.7760 F600.00
G2 X5.5238 Y3.4888 Z-2.2500 I-0.4762 J0.9888 F600.00
G2 X6.7760 Y3.2760 Z-2.2500 I0.4762 J-0.9888 F600.00
G1 X6.7760 Y3.2760 Z-2.5000 F100.00
G2 X6.4762 Y1.5112 Z-2.5000 I-0.7760 J-0.7760 F600.00
G2 X5.5238 Y3.4888 Z-2.5000 I-0.4762 J0.9888 F600.00
G2 X6.7760 Y3.2760 Z-2.5000 I0.4762 J-0.9888 F600.00
G1 X6.7760 Y3.2760 Z-2.7500 F100.00
G2 X6.4762 Y1.5112 Z-2.7500 I-0.7760 J-0.7760 F600.00
G2 X5.5238 Y3.4888 Z-2.7500 I-0.4762 J0.9888 F600.00
G2 X6.7760 Y3.2760 Z-2.7500 I0.4762 J-0.9888 F600.00
G1 X6.7760 Y3.2760 Z-3.0000 F100.00
G2 X6.4762 Y1.5112 Z-3.0000 I-0.7760 J-0.7760 F600.00
G2 X5.5238 Y3.4888 Z-3.0000 I-0.4762 J0.9888 F600.00
G2 X6.7760 Y3.2760 Z-3.0000 I0.4762 J-0.9888 F600.00
G0 Z5.0000
G0 X19.7760 Y24.2760
G0 Z3.0000
G1 X19.7760 Y24.2760 Z-0.2500 F100.00
G2 X19.4762 Y22.5112 Z-0.2500 I-0.7760 J-0.7760 F600.00
G2 X18.5238 Y24.4888 Z-0.2500 I-0.4762 J0.9888 F600.00
G2 X19.7760 Y24.2760 Z-0.2500 I0.4762 J-0.9888 F600.00
G1 X19.7760 Y24.2760 Z-0.5000 F100.00
G2 X19.4762 Y22.5112 Z-0.5000 I-0.7760 J-0.7760 F600.00
G2 X18.5238 Y24.4888 Z-0.5000 I-0.4762 J0.9888 F600.00
G2 X19.7760 Y24.2760 Z-0.5000 I0.4762 J-0.9888 F600.00
G1 X19.7760 Y24.2760 Z-0.7500 F100.00
G2 X19.4762 Y22.5112 Z-0.7500 I-0.7760 J-0.7760 F600.00
G2 X18.5238 Y24.4888 Z-0.7500 I-0.4762 J0.9888 F600.00
G2 X19.7760 Y24.2760 Z-0.7500 I0.4762 J-0.9888 F600.00
G1 X19.7760 Y24.2760 Z-1.0000 F100.00
G2 X19.4762 Y22.5112 Z-1.0000 I-0.7760 J-0.7760 F600.00
G2 X18.5238 Y24.4888 Z-1.0000 I-0.4762 J0.9888 F600.00
G2 X19.7760 Y24.2760 Z-1.0000 I0.4762 J-0.9888 F600.00
G1 X19.7760 Y24.2760 Z-1.2500 F100.00
G2 X19.4762 Y22.5112 Z-1.2500 I-0.7760 J-0.7760 F600.00
G2 X18.5238 Y24.4888 Z-1.2500 I-0.4762 J0.9888 F600.00
G2 X19.7760 Y24.2760 Z-1.2500 I0.4762 J-0.9888 F600.00
G1 X19.7760 Y24.2760 Z-1.5000 F100.00
G2 X19.4762 Y22.5112 Z-1.5000 I-0.7760 J-0.7760 F600.00
G2 X18.5238 Y24.4888 Z-1.5000 I-0.4762 J0.9888 F600.00
G2 X19.7760 Y24.2760 Z-1.5000 I0.4762 J-0.9888 F600.00
G1 X19.7760 Y24.2760 Z-1.7500 F100.00
G2 X19.4762 Y22.5112 Z-1.7500 I-0.7760 J-0.7760 F600.00
G2 X18.5238 Y24.4888 Z-1.7500 I-0.4762 J0.9888 F600.00
G2 X19.7760 Y24.2760 Z-1.7500 I0.4762 J-0.9888 F600.00
G1 X19.7760 Y24.2760 Z-2.0000 F100.00
G2 X19.4762 Y22.5112 Z-2.0000 I-0.7760 J-0.7760 F600.00
G2 X18.5238 Y24.4888 Z-2.0000 I-0.4762 J0.9888 F600.00
G2 X19.7760 Y24.2760 Z-2.0000 I0.4762 J-0.9888 F600.00
G1 X19.7760 Y24.2760 Z-2.2500 F100.00
G2 X19.4762 Y22.5112 Z-2.2500 I-0.7760 J-0.7760 F600.00
G2 X18.5238 Y24.4888 Z-2.2500 I-0.4762 J0.9888 F600.00
G2 X19.7760 Y24.2760 Z-2.2500 I0.4762 J-0.9888 F600.00
G1 X19.7760 Y24.2760 Z-2.5000 F100.00
G2 X19.4762 Y22.5112 Z-2.5000 I-0.7760 J-0.7760 F600.00
G2 X18.5238 Y24.4888 Z-2.5000 I-0.4762 J0.9888 F600.00
G2 X19.7760 Y24.2760 Z-2.5000 I0.4762 J-0.9888 F600.00
G1 X19.7760 Y24.2760 Z-2.7500 F100.00
G2 X19.4762 Y22.5112 Z-2.7500 I-0.7760 J-0.7760 F600.00
G2 X18.5238 Y24.4888 Z-2.7500 I-0.4762 J0.9888 F600.00
G2 X19.7760 Y24.2760 Z-2.7500 I0.4762 J-0.9888 F600.00
G1 X19.7760 Y24.2760 Z-3.0000 F100.00
G2 X19.4762 Y22.5112 Z-3.0000 I-0.7760 J-0.7760 F600.00
G2 X18.5238 Y24.4888 Z-3.0000 I-0.4762 J0.9888 F600.00
G2 X19.7760 Y24.2760 Z-3.0000 I0.4762 J-0.9888 F600.00
G0 Z5.0000
G0 X20.1300 Y14.1300
G0 Z3.0000
G1 X20.1300 Y14.1300 Z-0.2500 F100.00
G2 X19.6116 Y11.5236 Z-0.2500 I-1.1300 J-1.1300 F600.00
G2 X18.3884 Y14.4764 Z-0.2500 I-0.6116 J1.4764 F600.00
G2 X20.1300 Y14.1300 Z-0.2500 I0.6116 J-1.4764 F600.00
G1 X20.1300 Y14.1300 Z-0.5000 F100.00
G2 X19.6116 Y11.5236 Z-0.5000 I-1.1300 J-1.1300 F600.00
G2 X18.3884 Y14.4764 Z-0.5000 I-0.6116 J1.4764 F600.00
G2 X20.1300 Y14.1300 Z-0.5000 I0.6116 J-1.4764 F600.00
G1 X20.1300 Y14.1300 Z-0.7500 F100.00
G2 X19.6116 Y11.5236 Z-0.7500 I-1.1300 J-1.1300 F600.00
G2 X18.3884 Y14.4764 Z-0.7500 I-0.6116 J1.4764 F600.00
G2 X20.1300 Y14.1300 Z-0.7500 I0.6116 J-1.4764 F600.00
G1 X20.1300 Y14.1300 Z-1.0000 F100.00
G2 X19.6116 Y11.5236 Z-1.0000 I-1.1300 J-1.1300 F600.00
G2 X18.3884 Y14.4764 Z-1.0000 I-0.6116 J1.4764 F600.00
G2 X20.1300 Y14.1300 Z-1.0000 I0.6116 J-1.4764 F600.00
G1 X20.1300 Y14.1300 Z-1.2500 F100.00
G2 X19.6116 Y11.5236 Z-1.2500 I-1.1300 J-1.1300 F600.00
G2 X18.3884 Y14.4764 Z-1.2500 I-0.6116 J1.4764 F600.00
G2 X20.1300 Y14.1300 Z-1.2500 I0.6116 J-1.4764 F600.00
G1 X20.1300 Y14.1300 Z-1.5000 F100.00
G2 X19.6116 Y11.5236 Z-1.5000 I-1.1300 J-1.1300 F600.00
G2 X18.3884 Y14.4764 Z-1.5000 I-0.6116 J1.4764 F600.00
G2 X20.1300 Y14.1300 Z-1.5000 I0.6116 J-1.4764 F600.00
G1 X20.1300 Y14.1300 Z-1.7500 F100.00
G2 X19.6116 Y11.5236 Z-1.7500 I-1.1300 J-1.1300 F600.00
G2 X18.3884 Y14.4764 Z-1.7500 I-0.6116 J1.4764 F600.00
G2 X20.1300 Y14.1300 Z-1.7500 I0.6116 J-1.4764 F600.00
G1 X20.1300 Y14.1300 Z-2.0000 F100.00
G2 X19.6116 Y11.5236 Z-2.0000 I-1.1300 J-1.1300 F600.00
G2 X18.3884 Y14.4764 Z-2.0000 I-0.6116 J1.4764 F600.00
G2 X20.1300 Y14.1300 Z-2.0000 I0.6116 J-1.4764 F600.00
G1 X20.1300 Y14.1300 Z-2.2500 F100.00
G2 X19.6116 Y11.5236 Z-2.2500 I-1.1300 J-1.1300 F600.00
G2 X18.3884 Y14.4764 Z-2.2500 I-0.6116 J1.4764 F600.00
G2 X20.1300 Y14.1300 Z-2.2500 I0.6116 J-1.4764 F600.00
G1 X20.1300 Y14.1300 Z-2.5000 F100.00
G2 X19.6116 Y11.5236 Z-2.5000 I-1.1300 J-1.1300 F600.00
G2 X18.3884 Y14.4764 Z-2.5000 I-0.6116 J1.4764 F600.00
G2 X20.1300 Y14.1300 Z-2.5000 I0.6116 J-1.4764 F600.00
G1 X20.1300 Y14.1300 Z-2.7500 F100.00
G2 X19.6116 Y11.5236 Z-2.7500 I-1.1300 J-1.1300 F600.00
G2 X18.3884 Y14.4764 Z-2.7500 I-0.6116 J1.4764 F600.00
G2 X20.1300 Y14.1300 Z-2.7500 I0.6116 J-1.4764 F600.00
G1 X20.1300 Y14.1300 Z-3.0000 F100.00
G2 X19.6116 Y11.5236 Z-3.0000 I-1.1300 J-1.1300 F600.00
G2 X18.3884 Y14.4764 Z-3.0000 I-0.6116 J1.4764 F600.00
G2 X20.1300 Y14.1300 Z-3.0000 I0.6116 J-1.4764 F600.00
G0 Z5.0000
G0 X19.7760 Y3.2760
G0 Z3.0000
G1 X19.7760 Y3.2760 Z-0.2500 F100.00
G2 X19.4762 Y1.5112 Z-0.2500 I-0.7760 J-0.7760 F600.00
G2 X18.5238 Y3.4888 Z-0.2500 I-0.4762 J0.9888 F600.00
G2 X19.7760 Y3.2760 Z-0.2500 I0.4762 J-0.9888 F600.00
G1 X19.7760 Y3.2760 Z-0.5000 F100.00
G2 X19.4762 Y1.5112 Z-0.5000 I-0.7760 J-0.7760 F600.00
G2 X18.5238 Y3.4888 Z-0.5000 I-0.4762 J0.9888 F600.00
G2 X19.7760 Y3.2760 Z-0.5000 I0.4762 J-0.9888 F600.00
G1 X19.7760 Y3.2760 Z-0.7500 F100.00
G2 X19.4762 Y1.5112 Z-0.7500 I-0.7760 J-0.7760 F600.00
G2 X18.5238 Y3.4888 Z-0.7500 I-0.4762 J0.9888 F600.00
G2 X19.7760 Y3.2760 Z-0.7500 I0.4762 J-0.9888 F600.00
G1 X19.7760 Y3.2760 Z-1.0000 F100.00
G2 X19.4762 Y1.5112 Z-1.0000 I-0.7760 J-0.7760 F600.00
G2 X18.5238 Y3.4888 Z-1.0000 I-0.4762 J0.9888 F600.00
G2 X19.7760 Y3.2760 Z-1.0000 I0.4762 J-0.9888 F600.00
G1 X19.7760 Y3.2760 Z-1.2500 F100.00
G2 X19.4762 Y1.5112 Z-1.2500 I-0.7760 J-0.7760 F600.00
G2 X18.5238 Y3.4888 Z-1.2500 I-0.4762 J0.9888 F600.00
G2 X19.7760 Y3.2760 Z-1.2500 I0.4762 J-0.9888 F600.00
G1 X19.7760 Y3.2760 Z-1.5000 F100.00
G2 X19.4762 Y1.5112 Z-1.5000 I-0.7760 J-0.7760 F600.00
G2 X18.5238 Y3.4888 Z-1.5000 I-0.4762 J0.9888 F600.00
G2 X19.7760 Y3.2760 Z-1.5000 I0.4762 J-0.9888 F600.00
G1 X19.7760 Y3.2760 Z-1.7500 F100.00
G2 X19.4762 Y1.5112 Z-1.7500 I-0.7760 J-0.7760 F600.00
G2 X18.5238 Y3.4888 Z-1.7500 I-0.4762 J0.9888 F600.00
G2 X19.7760 Y3.2760 Z-1.7500 I0.4762 J-0.9888 F600.00
G1 X19.7760 Y3.2760 Z-2.0000 F100.00
G2 X19.4762 Y1.5112 Z-2.0000 I-0.7760 J-0.7760 F600.00
G2 X18.5238 Y3.4888 Z-2.0000 I-0.4762 J0.9888 F600.00
G2 X19.7760 Y3.2760 Z-2.0000 I0.4762 J-0.9888 F600.00
G1 X19.7760 Y3.2760 Z-2.2500 F100.00
G2 X19.4762 Y1.5112 Z-2.2500 I-0.7760 J-0.7760 F600.00
G2 X18.5238 Y3.4888 Z-2.2500 I-0.4762 J0.9888 F600.00
G2 X19.7760 Y3.2760 Z-2.2500 I0.4762 J-0.9888 F600.00
G1 X19.7760 Y3.2760 Z-2.5000 F100.00
G2 X19.4762 Y1.5112 Z-2.5000 I-0.7760 J-0.7760 F600.00
G2 X18.5238 Y3.4888 Z-2.5000 I-0.4762 J0.9888 F600.00
G2 X19.7760 Y3.2760 Z-2.5000 I0.4762 J-0.9888 F600.00
G1 X19.7760 Y3.2760 Z-2.7500 F100.00
G2 X19.4762 Y1.5112 Z-2.7500 I-0.7760 J-0.7760 F600.00
G2 X18.5238 Y3.4888 Z-2.7500 I-0.4762 J0.9888 F600.00
G2 X19.7760 Y3.2760 Z-2.7500 I0.4762 J-0.9888 F600.00
G1 X19.7760 Y3.2760 Z-3.0000 F100.00
G2 X19.4762 Y1.5112 Z-3.0000 I-0.7760 J-0.7760 F600.00
G2 X18.5238 Y3.4888 Z-3.0000 I-0.4762 J0.9888 F600.00
G2 X19.7760 Y3.2760 Z-3.0000 I0.4762 J-0.9888 F600.00
G0 Z5.0000
G0 X32.7760 Y24.2760
G0 Z3.0000
G1 X32.7760 Y24.2760 Z-0.2500 F100.00
G2 X32.4762 Y22.5112 Z-0.2500 I-0.7760 J-0.7760 F600.00
G2 X31.5238 Y24.4888 Z-0.2500 I-0.4762 J0.9888 F600.00
G2 X32.7760 Y24.2760 Z-0.2500 I0.4762 J-0.9888 F600.00
G1 X32.7760 Y24.2760 Z-0.5000 F100.00
G2 X32.4762 Y22.5112 Z-0.5000 I-0.7760 J-0.7760 F600.00
G2 X31.5238 Y24.4888 Z-0.5000 I-0.4762 J0.9888 F600.00
G2 X32.7760 Y24.2760 Z-0.5000 I0.4762 J-0.9888 F600.00
G1 X32.7760 Y24.2760 Z-0.7500 F100.00
G2 X32.4762 Y22.5112 Z-0.7500 I-0.7760 J-0.7760 F600.00
G2 X31.5238 Y24.4888 Z-0.7500 I-0.4762 J0.9888 F600.00
G2 X32.7760 Y24.2760 Z-0.7500 I0.4762 J-0.9888 F600.00
G1 X32.7760 Y24.2760 Z-1.0000 F100.00
G2 X32.4762 Y22.5112 Z-1.0000 I-0.7760 J-0.7760 F600.00
G2 X31.5238 Y24.4888 Z-1.0000 I-0.4762 J0.9888 F600.00
G2 X32.7760 Y24.2760 Z-1.0000 I0.4762 J-0.9888 F600.00
G1 X32.7760 Y24.2760 Z-1.2500 F100.00
G2 X32.4762 Y22.5112 Z-1.2500 I-0.7760 J-0.7760 F600.00
G2 X31.5238 Y24.4888 Z-1.2500 I-0.4762 J0.9888 F600.00
G2 X32.7760 Y24.2760 Z-1.2500 I0.4762 J-0.9888 F600.00
G1 X32.7760 Y24.2760 Z-1.5000 F100.00
G2 X32.4762 Y22.5112 Z-1.5000 I-0.7760 J-0.7760 F600.00
G2 X31.5238 Y24.4888 Z-1.5000 I-0.4762 J0.9888 F600.00
G2 X32.7760 Y24.2760 Z-1.5000 I0.4762 J-0.9888 F600.00
G1 X32.7760 Y24.2760 Z-1.7500 F100.00
G2 X32.4762 Y22.5112 Z-1.7500 I-0.7760 J-0.7760 F600.00
G2 X31.5238 Y24.4888 Z-1.7500 I-0.4762 J0.9888 F600.00
G2 X32.7760 Y24.2760 Z-1.7500 I0.4762 J-0.9888 F600.00
G1 X32.7760 Y24.2760 Z-2.0000 F100.00
G2 X32.4762 Y22.5112 Z-2.0000 I-0.7760 J-0.7760 F600.00
G2 X31.5238 Y24.4888 Z-2.0000 I-0.4762 J0.9888 F600.00
G2 X32.7760 Y24.2760 Z-2.0000 I0.4762 J-0.9888 F600.00
G1 X32.7760 Y24.2760 Z-2.2500 F100.00
G2 X32.4762 Y22.5112 Z-2.2500 I-0.7760 J-0.7760 F600.00
G2 X31.5238 Y24.4888 Z-2.2500 I-0.4762 J0.9888 F600.00
G2 X32.7760 Y24.2760 Z-2.2500 I0.4762 J-0.9888 F600.00
G1 X32.7760 Y24.2760 Z-2.5000 F100.00
G2 X32.4762 Y22.5112 Z-2.5000 I-0.7760 J-0.7760 F600.00
G2 X31.5238 Y24.4888 Z-2.5000 I-0.4762 J0.9888 F600.00
G2 X32.7760 Y24.2760 Z-2.5000 I0.4762 J-0.9888 F600.00
G1 X32.7760 Y24.2760 Z-2.7500 F100.00
G2 X32.4762 Y22.5112 Z-2.7500 I-0.7760 J-0.7760 F600.00
G2 X31.5238 Y24.4888 Z-2.7500 I-0.4762 J0.9888 F600.00
G2 X32.7760 Y24.2760 Z-2.7500 I0.4762 J-0.9888 F600.00
G1 X32.7760 Y24.2760 Z-3.0000 F100.00
G2 X32.4762 Y22.5112 Z-3.0000 I-0.7760 J-0.7760 F600.00
G2 X31.5238 Y24.4888 Z-3.0000 I-0.4762 J0.9888 F600.00
G2 X32.7760 Y24.2760 Z-3.0000 I0.4762 J-0.9888 F600.00
G0 Z5.0000
G0 X32.7760 Y3.2760
G0 Z3.0000
G1 X32.7760 Y3.2760 Z-0.2500 F100.00
G2 X32.4762 Y1.5112 Z-0.2500 I-0.7760 J-0.7760 F600.00
G2 X31.5238 Y3.4888 Z-0.2500 I-0.4762 J0.9888 F600.00
G2 X32.7760 Y3.2760 Z-0.2500 I0.4762 J-0.9888 F600.00
G1 X32.7760 Y3.2760 Z-0.5000 F100.00
G2 X32.4762 Y1.5112 Z-0.5000 I-0.7760 J-0.7760 F600.00
G2 X31.5238 Y3.4888 Z-0.5000 I-0.4762 J0.9888 F600.00
G2 X32.7760 Y3.2760 Z-0.5000 I0.4762 J-0.9888 F600.00
G1 X32.7760 Y3.2760 Z-0.7500 F100.00
G2 X32.4762 Y1.5112 Z-0.7500 I-0.7760 J-0.7760 F600.00
G2 X31.5238 Y3.4888 Z-0.7500 I-0.4762 J0.9888 F600.00
G2 X32.7760 Y3.2760 Z-0.7500 I0.4762 J-0.9888 F600.00
G1 X32.7760 Y3.2760 Z-1.0000 F100.00
G2 X32.4762 Y1.5112 Z-1.0000 I-0.7760 J-0.7760 F600.00
G2 X31.5238 Y3.4888 Z-1.0000 I-0.4762 J0.9888 F600.00
G2 X32.7760 Y3.2760 Z-1.0000 I0.4762 J-0.9888 F600.00
G1 X32.7760 Y3.2760 Z-1.2500 F100.00
G2 X32.4762 Y1.5112 Z-1.2500 I-0.7760 J-0.7760 F600.00
G2 X31.5238 Y3.4888 Z-1.2500 I-0.4762 J0.9888 F600.00
G2 X32.7760 Y3.2760 Z-1.2500 I0.4762 J-0.9888 F600.00
G1 X32.7760 Y3.2760 Z-1.5000 F100.00
G2 X32.4762 Y1.5112 Z-1.5000 I-0.7760 J-0.7760 F600.00
G2 X31.5238 Y3.4888 Z-1.5000 I-0.4762 J0.9888 F600.00
G2 X32.7760 Y3.2760 Z-1.5000 I0.4762 J-0.9888 F600.00
G1 X32.7760 Y3.2760 Z-1.7500 F100.00
G2 X32.4762 Y1.5112 Z-1.7500 I-0.7760 J-0.7760 F600.00
G2 X31.5238 Y3.4888 Z-1.7500 I-0.4762 J0.9888 F600.00
G2 X32.7760 Y3.2760 Z-1.7500 I0.4762 J-0.9888 F600.00
G1 X32.7760 Y3.2760 Z-2.0000 F100.00
G2 X32.4762 Y1.5112 Z-2.0000 I-0.7760 J-0.7760 F600.00
G2 X31.5238 Y3.4888 Z-2.0000 I-0.4762 J0.9888 F600.00
G2 X32.7760 Y3.2760 Z-2.0000 I0.4762 J-0.9888 F600.00
G1 X32.7760 Y3.2760 Z-2.2500 F100.00
G2 X32.4762 Y1.5112 Z-2.2500 I-0.7760 J-0.7760 F600.00
G2 X31.5238 Y3.4888 Z-2.2500 I-0.4762 J0.9888 F600.00
G2 X32.7760 Y3.2760 Z-2.2500 I0.4762 J-0.9888 F600.00
G1 X32.7760 Y3.2760 Z-2.5000 F100.00
G2 X32.4762 Y1.5112 Z-2.5000 I-0.7760 J-0.7760 F600.00
G2 X31.5238 Y3.4888 Z-2.5000 I-0.4762 J0.9888 F600.00
G2 X32.7760 Y3.2760 Z-2.5000 I0.4762 J-0.9888 F600.00
G1 X32.7760 Y3.2760 Z-2.7500 F100.00
G2 X32.4762 Y1.5112 Z-2.7500 I-0.7760 J-0.7760 F600.00
G2 X31.5238 Y3.4888 Z-2.7500 I-0.4762 J0.9888 F600.00
G2 X32.7760 Y3.2760 Z-2.7500 I0.4762 J-0.9888 F600.00
G1 X32.7760 Y3.2760 Z-3.0000 F100.00
G2 X32.4762 Y1.5112 Z-3.0000 I-0.7760 J-0.7760 F600.00
G2 X31.5238 Y3.4888 Z-3.0000 I-0.4762 J0.9888 F600.00
G2 X32.7760 Y3.2760 Z-3.0000 I0.4762 J-0.9888 F600.00
G0 Z5.0000
G0 X33.1300 Y14.1300
G0 Z3.0000
G1 X33.1300 Y14.1300 Z-0.2500 F100.00
G2 X32.6116 Y11.5236 Z-0.2500 I-1.1300 J-1.1300 F600.00
G2 X31.3884 Y14.4764 Z-0.2500 I-0.6116 J1.4764 F600.00
G2 X33.1300 Y14.1300 Z-0.2500 I0.6116 J-1.4764 F600.00
G1 X33.1300 Y14.1300 Z-0.5000 F100.00
G2 X32.6116 Y11.5236 Z-0.5000 I-1.1300 J-1.1300 F600.00
G2 X31.3884 Y14.4764 Z-0.5000 I-0.6116 J1.4764 F600.00
G2 X33.1300 Y14.1300 Z-0.5000 I0.6116 J-1.4764 F600.00
G1 X33.1300 Y14.1300 Z-0.7500 F100.00
G2 X32.6116 Y11.5236 Z-0.7500 I-1.1300 J-1.1300 F600.00
G2 X31.3884 Y14.4764 Z-0.7500 I-0.6116 J1.4764 F600.00
G2 X33.1300 Y14.1300 Z-0.7500 I0.6116 J-1.4764 F600.00
G1 X33.1300 Y14.1300 Z-1.0000 F100.00
G2 X32.6116 Y11.5236 Z-1.0000 I-1.1300 J-1.1300 F600.00
G2 X31.3884 Y14.4764 Z-1.0000 I-0.6116 J1.4764 F600.00
G2 X33.1300 Y14.1300 Z-1.0000 I0.6116 J-1.4764 F600.00
G1 X33.1300 Y14.1300 Z-1.2500 F100.00
G2 X32.6116 Y11.5236 Z-1.2500 I-1.1300 J-1.1300 F600.00
G2 X31.3884 Y14.4764 Z-1.2500 I-0.6116 J1.4764 F600.00
G2 X33.1300 Y14.1300 Z-1.2500 I0.6116 J-1.4764 F600.00
G1 X33.1300 Y14.1300 Z-1.5000 F100.00
G2 X32.6116 Y11.5236 Z-1.5000 I-1.1300 J-1.1300 F600.00
G2 X31.3884 Y14.4764 Z-1.5000 I-0.6116 J1.4764 F600.00
G2 X33.1300 Y14.1300 Z-1.5000 I0.6116 J-1.4764 F600.00
G1 X33.1300 Y14.1300 Z-1.7500 F100.00
G2 X32.6116 Y11.5236 Z-1.7500 I-1.1300 J-1.1300 F600.00
G2 X31.3884 Y14.4764 Z-1.7500 I-0.6116 J1.4764 F600.00
G2 X33.1300 Y14.1300 Z-1.7500 I0.6116 J-1.4764 F600.00
G1 X33.1300 Y14.1300 Z-2.0000 F100.00
G2 X32.6116 Y11.5236 Z-2.0000 I-1.1300 J-1.1300 F600.00
G2 X31.3884 Y14.4764 Z-2.0000 I-0.6116 J1.4764 F600.00
G2 X33.1300 Y14.1300 Z-2.0000 I0.6116 J-1.4764 F600.00
G1 X33.1300 Y14.1300 Z-2.2500 F100.00
G2 X32.6116 Y11.5236 Z-2.2500 I-1.1300 J-1.1300 F600.00
G2 X31.3884 Y14.4764 Z-2.2500 I-0.6116 J1.4764 F600.00
G2 X33.1300 Y14.1300 Z-2.2500 I0.6116 J-1.4764 F600.00
G1 X33.1300 Y14.1300 Z-2.5000 F100.00
G2 X32.6116 Y11.5236 Z-2.5000 I-1.1300 J-1.1300 F600.00
G2 X31.3884 Y14.4764 Z-2.5000 I-0.6116 J1.4764 F600.00
G2 X33.1300 Y14.1300 Z-2.5000 I0.6116 J-1.4764 F600.00
G1 X33.1300 Y14.1300 Z-2.7500 F100.00
G2 X32.6116 Y11.5236 Z-2.7500 I-1.1300 J-1.1300 F600.00
G2 X31.3884 Y14.4764 Z-2.7500 I-0.6116 J1.4764 F600.00
G2 X33.1300 Y14.1300 Z-2.7500 I0.6116 J-1.4764 F600.00
G1 X33.1300 Y14.1300 Z-3.0000 F100.00
G2 X32.6116 Y11.5236 Z-3.0000 I-1.1300 J-1.1300 F600.00
G2 X31.3884 Y14.4764 Z-3.0000 I-0.6116 J1.4764 F600.00
G2 X33.1300 Y14.1300 Z-3.0000 I0.6116 J-1.4764 F600.00
G0 Z5.0000
G0 X45.7760 Y24.2760
G0 Z3.0000
G1 X45.7760 Y24.2760 Z-0.2500 F100.00
G2 X45.4762 Y22.5112 Z-0.2500 I-0.7760 J-0.7760 F600.00
G2 X44.5238 Y24.4888 Z-0.2500 I-0.4762 J0.9888 F600.00
G2 X45.7760 Y24.2760 Z-0.2500 I0.4762 J-0.9888 F600.00
G1 X45.7760 Y24.2760 Z-0.5000 F100.00
G2 X45.4762 Y22.5112 Z-0.5000 I-0.7760 J-0.7760 F600.00
G2 X44.5238 Y24.4888 Z-0.5000 I-0.4762 J0.9888 F600.00
G2 X45.7760 Y24.2760 Z-0.5000 I0.4762 J-0.9888 F600.00
G1 X45.7760 Y24.2760 Z-0.7500 F100.00
G2 X45.4762 Y22.5112 Z-0.7500 I-0.7760 J-0.7760 F600.00
G2 X44.5238 Y24.4888 Z-0.7500 I-0.4762 J0.9888 F600.00
G2 X45.7760 Y24.2760 Z-0.7500 I0.4762 J-0.9888 F600.00
G1 X45.7760 Y24.2760 Z-1.0000 F100.00
G2 X45.4762 Y22.5112 Z-1.0000 I-0.7760 J-0.7760 F600.00
G2 X44.5238 Y24.4888 Z-1.0000 I-0.4762 J0.9888 F600.00
G2 X45.7760 Y24.2760 Z-1.0000 I0.4762 J-0.9888 F600.00
G1 X45.7760 Y24.2760 Z-1.2500 F100.00
G2 X45.4762 Y22.5112 Z-1.2500 I-0.7760 J-0.7760 F600.00
G2 X44.5238 Y24.4888 Z-1.2500 I-0.4762 J0.9888 F600.00
G2 X45.7760 Y24.2760 Z-1.2500 I0.4762 J-0.9888 F600.00
G1 X45.7760 Y24.2760 Z-1.5000 F100.00
G2 X45.4762 Y22.5112 Z-1.5000 I-0.7760 J-0.7760 F600.00
G2 X44.5238 Y24.4888 Z-1.5000 I-0.4762 J0.9888 F600.00
G2 X45.7760 Y24.2760 Z-1.5000 I0.4762 J-0.9888 F600.00
G1 X45.7760 Y24.2760 Z-1.7500 F100.00
G2 X45.4762 Y22.5112 Z-1.7500 I-0.7760 J-0.7760 F600.00
G2 X44.5238 Y24.4888 Z-1.7500 I-0.4762 J0.9888 F600.00
G2 X45.7760 Y24.2760 Z-1.7500 I0.4762 J-0.9888 F600.00
G1 X45.7760 Y24.2760 Z-2.0000 F100.00
G2 X45.4762 Y22.5112 Z-2.0000 I-0.7760 J-0.7760 F600.00
G2 X44.5238 Y24.4888 Z-2.0000 I-0.4762 J0.9888 F600.00
G2 X45.7760 Y24.2760 Z-2.0000 I0.4762 J-0.9888 F600.00
G1 X45.7760 Y24.2760 Z-2.2500 F100.00
G2 X45.4762 Y22.5112 Z-2.2500 I-0.7760 J-0.7760 F600.00
G2 X44.5238 Y24.4888 Z-2.2500 I-0.4762 J0.9888 F600.00
G2 X45.7760 Y24.2760 Z-2.2500 I0.4762 J-0.9888 F600.00
G1 X45.7760 Y24.2760 Z-2.5000 F100.00
G2 X45.4762 Y22.5112 Z-2.5000 I-0.7760 J-0.7760 F600.00
G2 X44.5238 Y24.4888 Z-2.5000 I-0.4762 J0.9888 F600.00
G2 X45.7760 Y24.2760 Z-2.5000 I0.4762 J-0.9888 F600.00
G1 X45.7760 Y24.2760 Z-2.7500 F100.00
G2 X45.4762 Y22.5112 Z-2.7500 I-0.7760 J-0.7760 F600.00
G2 X44.5238 Y24.4888 Z-2.7500 I-0.4762 J0.9888 F600.00
G2 X45.7760 Y24.2760 Z-2.7500 I0.4762 J-0.9888 F600.00
G1 X45.7760 Y24.2760 Z-3.0000 F100.00
G2 X45.4762 Y22.5112 Z-3.0000 I-0.7760 J-0.7760 F600.00
G2 X44.5238 Y24.4888 Z-3.0000 I-0.4762 J0.9888 F600.00
G2 X45.7760 Y24.2760 Z-3.0000 I0.4762 J-0.9888 F600.00
G0 Z5.0000
G0 X45.7760 Y3.2760
G0 Z3.0000
G1 X45.7760 Y3.2760 Z-0.2500 F100.00
G2 X45.4762 Y1.5112 Z-0.2500 I-0.7760 J-0.7760 F600.00
G2 X44.5238 Y3.4888 Z-0.2500 I-0.4762 J0.9888 F600.00
G2 X45.7760 Y3.2760 Z-0.2500 I0.4762 J-0.9888 F600.00
G1 X45.7760 Y3.2760 Z-0.5000 F100.00
G2 X45.4762 Y1.5112 Z-0.5000 I-0.7760 J-0.7760 F600.00
G2 X44.5238 Y3.4888 Z-0.5000 I-0.4762 J0.9888 F600.00
G2 X45.7760 Y3.2760 Z-0.5000 I0.4762 J-0.9888 F600.00
G1 X45.7760 Y3.2760 Z-0.7500 F100.00
G2 X45.4762 Y1.5112 Z-0.7500 I-0.7760 J-0.7760 F600.00
G2 X44.5238 Y3.4888 Z-0.7500 I-0.4762 J0.9888 F600.00
G2 X45.7760 Y3.2760 Z-0.7500 I0.4762 J-0.9888 F600.00
G1 X45.7760 Y3.2760 Z-1.0000 F100.00
G2 X45.4762 Y1.5112 Z-1.0000 I-0.7760 J-0.7760 F600.00
G2 X44.5238 Y3.4888 Z-1.0000 I-0.4762 J0.9888 F600.00
G2 X45.7760 Y3.2760 Z-1.0000 I0.4762 J-0.9888 F600.00
G1 X45.7760 Y3.2760 Z-1.2500 F100.00
G2 X45.4762 Y1.5112 Z-1.2500 I-0.7760 J-0.7760 F600.00
G2 X44.5238 Y3.4888 Z-1.2500 I-0.4762 J0.9888 F600.00
G2 X45.7760 Y3.2760 Z-1.2500 I0.4762 J-0.9888 F600.00
G1 X45.7760 Y3.2760 Z-1.5000 F100.00
G2 X45.4762 Y1.5112 Z-1.5000 I-0.7760 J-0.7760 F600.00
G2 X44.5238 Y3.4888 Z-1.5000 I-0.4762 J0.9888 F600.00
G2 X45.7760 Y3.2760 Z-1.5000 I0.4762 J-0.9888 F600.00
G1 X45.7760 Y3.2760 Z-1.7500 F100.00
G2 X45.4762 Y1.5112 Z-1.7500 I-0.7760 J-0.7760 F600.00
G2 X44.5238 Y3.4888 Z-1.7500 I-0.4762 J0.9888 F600.00
G2 X45.7760 Y3.2760 Z-1.7500 I0.4762 J-0.9888 F600.00
G1 X45.7760 Y3.2760 Z-2.0000 F100.00
G2 X45.4762 Y1.5112 Z-2.0000 I-0.7760 J-0.7760 F600.00
G2 X44.5238 Y3.4888 Z-2.0000 I-0.4762 J0.9888 F600.00
G2 X45.7760 Y3.2760 Z-2.0000 I0.4762 J-0.9888 F600.00
G1 X45.7760 Y3.2760 Z-2.2500 F100.00
G2 X45.4762 Y1.5112 Z-2.2500 I-0.7760 J-0.7760 F600.00
G2 X44.5238 Y3.4888 Z-2.2500 I-0.4762 J0.9888 F600.00
G2 X45.7760 Y3.2760 Z-2.2500 I0.4762 J-0.9888 F600.00
G1 X45.7760 Y3.2760 Z-2.5000 F100.00
G2 X45.4762 Y1.5112 Z-2.5000 I-0.7760 J-0.7760 F600.00
G2 X44.5238 Y3.4888 Z-2.5000 I-0.4762 J0.9888 F600.00
G2 X45.7760 Y3.2760 Z-2.5000 I0.4762 J-0.9888 F600.00
G1 X45.7760 Y3.2760 Z-2.7500 F100.00
G2 X45.4762 Y1.5112 Z-2.7500 I-0.7760 J-0.7760 F600.00
G2 X44.5238 Y3.4888 Z-2.7500 I-0.4762 J0.9888 F600.00
G2 X45.7760 Y3.2760 Z-2.7500 I0.4762 J-0.9888 F600.00
G1 X45.7760 Y3.2760 Z-3.0000 F100.00
G2 X45.4762 Y1.5112 Z-3.0000 I-0.7760 J-0.7760 F600.00
G2 X44.5238 Y3.4888 Z-3.0000 I-0.4762 J0.9888 F600.00
G2 X45.7760 Y3.2760 Z-3.0000 I0.4762 J-0.9888 F600.00
G0 Z5.0000
G0 X46.1300 Y14.1300
G0 Z3.0000
G1 X46.1300 Y14.1300 Z-0.2500 F100.00
G2 X45.6116 Y11.5236 Z-0.2500 I-1.1300 J-1.1300 F600.00
G2 X44.3884 Y14.4764 Z-0.2500 I-0.6116 J1.4764 F600.00
G2 X46.1300 Y14.1300 Z-0.2500 I0.6116 J-1.4764 F600.00
G1 X46.1300 Y14.1300 Z-0.5000 F100.00
G2 X45.6116 Y11.5236 Z-0.5000 I-1.1300 J-1.1300 F600.00
G2 X44.3884 Y14.4764 Z-0.5000 I-0.6116 J1.4764 F600.00
G2 X46.1300 Y14.1300 Z-0.5000 I0.6116 J-1.4764 F600.00
G1 X46.1300 Y14.1300 Z-0.7500 F100.00
G2 X45.6116 Y11.5236 Z-0.7500 I-1.1300 J-1.1300 F600.00
G2 X44.3884 Y14.4764 Z-0.7500 I-0.6116 J1.4764 F600.00
G2 X46.1300 Y14.1300 Z-0.7500 I0.6116 J-1.4764 F600.00
G1 X46.1300 Y14.1300 Z-1.0000 F100.00
G2 X45.6116 Y11.5236 Z-1.0000 I-1.1300 J-1.1300 F600.00
G2 X44.3884 Y14.4764 Z-1.0000 I-0.6116 J1.4764 F600.00
G2 X46.1300 Y14.1300 Z-1.0000 I0.6116 J-1.4764 F600.00
G1 X46.1300 Y14.1300 Z-1.2500 F100.00
G2 X45.6116 Y11.5236 Z-1.2500 I-1.1300 J-1.1300 F600.00
G2 X44.3884 Y14.4764 Z-1.2500 I-0.6116 J1.4764 F600.00
G2 X46.1300 Y14.1300 Z-1.2500 I0.6116 J-1.4764 F600.00
G1 X46.1300 Y14.1300 Z-1.5000 F100.00
G2 X45.6116 Y11.5236 Z-1.5000 I-1.1300 J-1.1300 F600.00
G2 X44.3884 Y14.4764 Z-1.5000 I-0.6116 J1.4764 F600.00
G2 X46.1300 Y14.1300 Z-1.5000 I0.6116 J-1.4764 F600.00
G1 X46.1300 Y14.1300 Z-1.7500 F100.00
G2 X45.6116 Y11.5236 Z-1.7500 I-1.1300 J-1.1300 F600.00
G2 X44.3884 Y14.4764 Z-1.7500 I-0.6116 J1.4764 F600.00
G2 X46.1300 Y14.1300 Z-1.7500 I0.6116 J-1.4764 F600.00
G1 X46.1300 Y14.1300 Z-2.0000 F100.00
G2 X45.6116 Y11.5236 Z-2.0000 I-1.1300 J-1.1300 F600.00
G2 X44.3884 Y14.4764 Z-2.0000 I-0.6116 J1.4764 F600.00
G2 X46.1300 Y14.1300 Z-2.0000 I0.6116 J-1.4764 F600.00
G1 X46.1300 Y14.1300 Z-2.2500 F100.00
G2 X45.6116 Y11.5236 Z-2.2500 I-1.1300 J-1.1300 F600.00
G2 X44.3884 Y14.4764 Z-2.2500 I-0.6116 J1.4764 F600.00
G2 X46.1300 Y14.1300 Z-2.2500 I0.6116 J-1.4764 F600.00
G1 X46.1300 Y14.1300 Z-2.5000 F100.00
G2 X45.6116 Y11.5236 Z-2.5000 I-1.1300 J-1.1300 F600.00
G2 X44.3884 Y14.4764 Z-2.5000 I-0.6116 J1.4764 F600.00
G2 X46.1300 Y14.1300 Z-2.5000 I0.6116 J-1.4764 F600.00
G1 X46.1300 Y14.1300 Z-2.7500 F100.00
G2 X45.6116 Y11.5236 Z-2.7500 I-1.1300 J-1.1300 F600.00
G2 X44.3884 Y14.4764 Z-2.7500 I-0.6116 J1.4764 F600.00
G2 X46.1300 Y14.1300 Z-2.7500 I0.6116 J-1.4764 F600.00
G1 X46.1300 Y14.1300 Z-3.0000 F100.00
G2 X45.6116 Y11.5236 Z-3.0000 I-1.1300 J-1.1300 F600.00
G2 X44.3884 Y14.4764 Z-3.0000 I-0.6116 J1.4764 F600.00
G2 X46.1300 Y14.1300 Z-3.0000 I0.6116 J-1.4764 F600.00
G0 Z5.0000
(finish operation: holes001)
(begin operation: pocket_outline)
(Path: pocket_outline)
(pocket_outline)
(Compensated Tool Path. Diameter: 0.8)
G0 Z5.0000
G0 X7.8376 Y14.8376
G0 Z3.0000
G1 X7.8376 Y14.8376 Z-0.2500 F100.00
G2 X6.8031 Y10.5284 Z-0.2500 I-1.8376 J-1.8376 F600.00
G2 X5.1969 Y15.4716 Z-0.2500 I-0.8031 J2.4716 F600.00
G2 X7.8376 Y14.8376 Z-0.2500 I0.8031 J-2.4716 F600.00
G1 X7.8376 Y14.8376 Z-0.5000 F100.00
G2 X6.8031 Y10.5284 Z-0.5000 I-1.8376 J-1.8376 F600.00
G2 X5.1969 Y15.4716 Z-0.5000 I-0.8031 J2.4716 F600.00
G2 X7.8376 Y14.8376 Z-0.5000 I0.8031 J-2.4716 F600.00
G1 X7.8376 Y14.8376 Z-0.7500 F100.00
G2 X6.8031 Y10.5284 Z-0.7500 I-1.8376 J-1.8376 F600.00
G2 X5.1969 Y15.4716 Z-0.7500 I-0.8031 J2.4716 F600.00
G2 X7.8376 Y14.8376 Z-0.7500 I0.8031 J-2.4716 F600.00
G1 X7.8376 Y14.8376 Z-1.0000 F100.00
G2 X6.8031 Y10.5284 Z-1.0000 I-1.8376 J-1.8376 F600.00
G2 X5.1969 Y15.4716 Z-1.0000 I-0.8031 J2.4716 F600.00
G2 X7.8376 Y14.8376 Z-1.0000 I0.8031 J-2.4716 F600.00
G1 X7.8376 Y14.8376 Z-1.2500 F100.00
G2 X6.8031 Y10.5284 Z-1.2500 I-1.8376 J-1.8376 F600.00
G2 X5.1969 Y15.4716 Z-1.2500 I-0.8031 J2.4716 F600.00
G2 X7.8376 Y14.8376 Z-1.2500 I0.8031 J-2.4716 F600.00
G1 X7.8376 Y14.8376 Z-1.5000 F100.00
G2 X6.8031 Y10.5284 Z-1.5000 I-1.8376 J-1.8376 F600.00
G2 X5.1969 Y15.4716 Z-1.5000 I-0.8031 J2.4716 F600.00
G2 X7.8376 Y14.8376 Z-1.5000 I0.8031 J-2.4716 F600.00
G1 X7.8376 Y14.8376 Z-1.7500 F100.00
G2 X6.8031 Y10.5284 Z-1.7500 I-1.8376 J-1.8376 F600.00
G2 X5.1969 Y15.4716 Z-1.7500 I-0.8031 J2.4716 F600.00
G2 X7.8376 Y14.8376 Z-1.7500 I0.8031 J-2.4716 F600.00
G1 X7.8376 Y14.8376 Z-2.0000 F100.00
G2 X6.8031 Y10.5284 Z-2.0000 I-1.8376 J-1.8376 F600.00
G2 X5.1969 Y15.4716 Z-2.0000 I-0.8031 J2.4716 F600.00
G2 X7.8376 Y14.8376 Z-2.0000 I0.8031 J-2.4716 F600.00
G0 Z5.0000
G0 X20.8376 Y14.8376
G0 Z3.0000
G1 X20.8376 Y14.8376 Z-0.2500 F100.00
G2 X19.8031 Y10.5284 Z-0.2500 I-1.8376 J-1.8376 F600.00
G2 X18.1969 Y15.4716 Z-0.2500 I-0.8031 J2.4716 F600.00
G2 X20.8376 Y14.8376 Z-0.2500 I0.8031 J-2.4716 F600.00
G1 X20.8376 Y14.8376 Z-0.5000 F100.00
G2 X19.8031 Y10.5284 Z-0.5000 I-1.8376 J-1.8376 F600.00
G2 X18.1969 Y15.4716 Z-0.5000 I-0.8031 J2.4716 F600.00
G2 X20.8376 Y14.8376 Z-0.5000 I0.8031 J-2.4716 F600.00
G1 X20.8376 Y14.8376 Z-0.7500 F100.00
G2 X19.8031 Y10.5284 Z-0.7500 I-1.8376 J-1.8376 F600.00
G2 X18.1969 Y15.4716 Z-0.7500 I-0.8031 J2.4716 F600.00
G2 X20.8376 Y14.8376 Z-0.7500 I0.8031 J-2.4716 F600.00
G1 X20.8376 Y14.8376 Z-1.0000 F100.00
G2 X19.8031 Y10.5284 Z-1.0000 I-1.8376 J-1.8376 F600.00
G2 X18.1969 Y15.4716 Z-1.0000 I-0.8031 J2.4716 F600.00
G2 X20.8376 Y14.8376 Z-1.0000 I0.8031 J-2.4716 F600.00
G1 X20.8376 Y14.8376 Z-1.2500 F100.00
G2 X19.8031 Y10.5284 Z-1.2500 I-1.8376 J-1.8376 F600.00
G2 X18.1969 Y15.4716 Z-1.2500 I-0.8031 J2.4716 F600.00
G2 X20.8376 Y14.8376 Z-1.2500 I0.8031 J-2.4716 F600.00
G1 X20.8376 Y14.8376 Z-1.5000 F100.00
G2 X19.8031 Y10.5284 Z-1.5000 I-1.8376 J-1.8376 F600.00
G2 X18.1969 Y15.4716 Z-1.5000 I-0.8031 J2.4716 F600.00
G2 X20.8376 Y14.8376 Z-1.5000 I0.8031 J-2.4716 F600.00
G1 X20.8376 Y14.8376 Z-1.7500 F100.00
G2 X19.8031 Y10.5284 Z-1.7500 I-1.8376 J-1.8376 F600.00
G2 X18.1969 Y15.4716 Z-1.7500 I-0.8031 J2.4716 F600.00
G2 X20.8376 Y14.8376 Z-1.7500 I0.8031 J-2.4716 F600.00
G1 X20.8376 Y14.8376 Z-2.0000 F100.00
G2 X19.8031 Y10.5284 Z-2.0000 I-1.8376 J-1.8376 F600.00
G2 X18.1969 Y15.4716 Z-2.0000 I-0.8031 J2.4716 F600.00
G2 X20.8376 Y14.8376 Z-2.0000 I0.8031 J-2.4716 F600.00
G0 Z5.0000
G0 X33.8376 Y14.8376
G0 Z3.0000
G1 X33.8376 Y14.8376 Z-0.2500 F100.00
G2 X32.8031 Y10.5284 Z-0.2500 I-1.8376 J-1.8376 F600.00
G2 X31.1969 Y15.4716 Z-0.2500 I-0.8031 J2.4716 F600.00
G2 X33.8376 Y14.8376 Z-0.2500 I0.8031 J-2.4716 F600.00
G1 X33.8376 Y14.8376 Z-0.5000 F100.00
G2 X32.8031 Y10.5284 Z-0.5000 I-1.8376 J-1.8376 F600.00
G2 X31.1969 Y15.4716 Z-0.5000 I-0.8031 J2.4716 F600.00
G2 X33.8376 Y14.8376 Z-0.5000 I0.8031 J-2.4716 F600.00
G1 X33.8376 Y14.8376 Z-0.7500 F100.00
G2 X32.8031 Y10.5284 Z-0.7500 I-1.8376 J-1.8376 F600.00
G2 X31.1969 Y15.4716 Z-0.7500 I-0.8031 J2.4716 F600.00
G2 X33.8376 Y14.8376 Z-0.7500 I0.8031 J-2.4716 F600.00
G1 X33.8376 Y14.8376 Z-1.0000 F100.00
G2 X32.8031 Y10.5284 Z-1.0000 I-1.8376 J-1.8376 F600.00
G2 X31.1969 Y15.4716 Z-1.0000 I-0.8031 J2.4716 F600.00
G2 X33.8376 Y14.8376 Z-1.0000 I0.8031 J-2.4716 F600.00
G1 X33.8376 Y14.8376 Z-1.2500 F100.00
G2 X32.8031 Y10.5284 Z-1.2500 I-1.8376 J-1.8376 F600.00
G2 X31.1969 Y15.4716 Z-1.2500 I-0.8031 J2.4716 F600.00
G2 X33.8376 Y14.8376 Z-1.2500 I0.8031 J-2.4716 F600.00
G1 X33.8376 Y14.8376 Z-1.5000 F100.00
G2 X32.8031 Y10.5284 Z-1.5000 I-1.8376 J-1.8376 F600.00
G2 X31.1969 Y15.4716 Z-1.5000 I-0.8031 J2.4716 F600.00
G2 X33.8376 Y14.8376 Z-1.5000 I0.8031 J-2.4716 F600.00
G1 X33.8376 Y14.8376 Z-1.7500 F100.00
G2 X32.8031 Y10.5284 Z-1.7500 I-1.8376 J-1.8376 F600.00
G2 X31.1969 Y15.4716 Z-1.7500 I-0.8031 J2.4716 F600.00
G2 X33.8376 Y14.8376 Z-1.7500 I0.8031 J-2.4716 F600.00
G1 X33.8376 Y14.8376 Z-2.0000 F100.00
G2 X32.8031 Y10.5284 Z-2.0000 I-1.8376 J-1.8376 F600.00
G2 X31.1969 Y15.4716 Z-2.0000 I-0.8031 J2.4716 F600.00
G2 X33.8376 Y14.8376 Z-2.0000 I0.8031 J-2.4716 F600.00
G0 Z5.0000
G0 X46.8376 Y14.8376
G0 Z3.0000
G1 X46.8376 Y14.8376 Z-0.2500 F100.00
G2 X45.8031 Y10.5284 Z-0.2500 I-1.8376 J-1.8376 F600.00
G2 X44.1969 Y15.4716 Z-0.2500 I-0.8031 J2.4716 F600.00
G2 X46.8376 Y14.8376 Z-0.2500 I0.8031 J-2.4716 F600.00
G1 X46.8376 Y14.8376 Z-0.5000 F100.00
G2 X45.8031 Y10.5284 Z-0.5000 I-1.8376 J-1.8376 F600.00
G2 X44.1969 Y15.4716 Z-0.5000 I-0.8031 J2.4716 F600.00
G2 X46.8376 Y14.8376 Z-0.5000 I0.8031 J-2.4716 F600.00
G1 X46.8376 Y14.8376 Z-0.7500 F100.00
G2 X45.8031 Y10.5284 Z-0.7500 I-1.8376 J-1.8376 F600.00
G2 X44.1969 Y15.4716 Z-0.7500 I-0.8031 J2.4716 F600.00
G2 X46.8376 Y14.8376 Z-0.7500 I0.8031 J-2.4716 F600.00
G1 X46.8376 Y14.8376 Z-1.0000 F100.00
G2 X45.8031 Y10.5284 Z-1.0000 I-1.8376 J-1.8376 F600.00
G2 X44.1969 Y15.4716 Z-1.0000 I-0.8031 J2.4716 F600.00
G2 X46.8376 Y14.8376 Z-1.0000 I0.8031 J-2.4716 F600.00
G1 X46.8376 Y14.8376 Z-1.2500 F100.00
G2 X45.8031 Y10.5284 Z-1.2500 I-1.8376 J-1.8376 F600.00
G2 X44.1969 Y15.4716 Z-1.2500 I-0.8031 J2.4716 F600.00
G2 X46.8376 Y14.8376 Z-1.2500 I0.8031 J-2.4716 F600.00
G1 X46.8376 Y14.8376 Z-1.5000 F100.00
G2 X45.8031 Y10.5284 Z-1.5000 I-1.8376 J-1.8376 F600.00
G2 X44.1969 Y15.4716 Z-1.5000 I-0.8031 J2.4716 F600.00
G2 X46.8376 Y14.8376 Z-1.5000 I0.8031 J-2.4716 F600.00
G1 X46.8376 Y14.8376 Z-1.7500 F100.00
G2 X45.8031 Y10.5284 Z-1.7500 I-1.8376 J-1.8376 F600.00
G2 X44.1969 Y15.4716 Z-1.7500 I-0.8031 J2.4716 F600.00
G2 X46.8376 Y14.8376 Z-1.7500 I0.8031 J-2.4716 F600.00
G1 X46.8376 Y14.8376 Z-2.0000 F100.00
G2 X45.8031 Y10.5284 Z-2.0000 I-1.8376 J-1.8376 F600.00
G2 X44.1969 Y15.4716 Z-2.0000 I-0.8031 J2.4716 F600.00
G2 X46.8376 Y14.8376 Z-2.0000 I0.8031 J-2.4716 F600.00
G0 Z5.0000
(finish operation: pocket_outline)
(begin operation: pockets)
(Path: pockets)
(pockets)
G0 Z5.0000
G0 X7.8384 Y14.8380
G0 Z3.0000
G1 X7.8384 Y14.8380 Z-0.2500 F100.00
G2 X5.9453 Y10.4055 Z-0.2500 I-1.8361 J-1.8363 F600.00
G1 X5.9608 Y10.6019 Z-0.2500 F600.00
G1 X5.9453 Y10.4055 Z-0.2500 F600.00
G1 X5.5935 Y10.4332 Z-0.2500 F600.00
G2 X6.4065 Y15.5668 Z-0.2500 I0.4065 J2.5668 F600.00
G2 X7.8384 Y14.8380 Z-0.2500 I-0.4042 J-2.5651 F600.00
G0 X7.8384 Y14.8380 Z5.0000
G0 X7.6961 Y14.6957 Z5.0000
G0 X7.6961 Y14.6957 Z2.7500
G1 X7.6961 Y14.6957 Z-0.2500 F100.00
G3 X6.0392 Y15.3981 Z-0.2500 I-1.6961 J-1.6957 F600.00
G3 X3.6019 Y13.0392 Z-0.2500 I-0.0392 J-2.3981 F600.00
G3 X5.9608 Y10.6019 Z-0.2500 I2.3981 J-0.0392 F600.00
G3 X7.6961 Y14.6957 Z-0.2500 I0.0392 J2.3981 F600.00
G1 X7.6961 Y14.6957 Z-0.5000 F100.00
G3 X6.0392 Y15.3981 Z-0.5000 I-1.6961 J-1.6957 F600.00
G3 X3.6019 Y13.0392 Z-0.5000 I-0.0392 J-2.3981 F600.00
G3 X5.9608 Y10.6019 Z-0.5000 I2.3981 J-0.0392 F600.00
G3 X7.6961 Y14.6957 Z-0.5000 I0.0392 J2.3981 F600.00
G0 X7.6961 Y14.6957 Z5.0000
G0 X7.8383 Y14.8380 Z5.0000
G0 X7.8383 Y14.8380 Z2.5000
G1 X7.8383 Y14.8380 Z-0.5000 F100.00
G2 X5.9453 Y10.4055 Z-0.5000 I-1.8360 J-1.8363 F600.00
G1 X5.9608 Y10.6019 Z-0.5000 F600.00
G1 X5.9453 Y10.4055 Z-0.5000 F600.00
G1 X5.5935 Y10.4332 Z-0.5000 F600.00
G2 X6.4065 Y15.5668 Z-0.5000 I0.4065 J2.5668 F600.00
G2 X7.8383 Y14.8380 Z-0.5000 I-0.4042 J-2.5651 F600.00
G1 X7.8383 Y14.8380 Z-0.7500 F100.00
G2 X5.9453 Y10.4055 Z-0.7500 I-1.8360 J-1.8363 F600.00
G1 X5.9608 Y10.6019 Z-0.7500 F600.00
G1 X5.9453 Y10.4055 Z-0.7500 F600.00
G1 X5.5935 Y10.4332 Z-0.7500 F600.00
G2 X6.4065 Y15.5668 Z-0.7500 I0.4065 J2.5668 F600.00
G2 X7.8383 Y14.8380 Z-0.7500 I-0.4042 J-2.5651 F600.00
G0 X7.8383 Y14.8380 Z5.0000
G0 X7.6961 Y14.6958 Z5.0000
G0 X7.6961 Y14.6958 Z2.2500
G1 X7.6961 Y14.6958 Z-0.7500 F100.00
G3 X6.0392 Y15.3981 Z-0.7500 I-1.6961 J-1.6958 F600.00
G3 X3.6019 Y13.0392 Z-0.7500 I-0.0392 J-2.3981 F600.00
G3 X5.9608 Y10.6019 Z-0.7500 I2.3981 J-0.0392 F600.00
G3 X7.6961 Y14.6958 Z-0.7500 I0.0392 J2.3981 F600.00
G1 X7.6961 Y14.6958 Z-1.0000 F100.00
G3 X6.0392 Y15.3981 Z-1.0000 I-1.6961 J-1.6958 F600.00
G3 X3.6019 Y13.0392 Z-1.0000 I-0.0392 J-2.3981 F600.00
G3 X5.9608 Y10.6019 Z-1.0000 I2.3981 J-0.0392 F600.00
G3 X7.6961 Y14.6958 Z-1.0000 I0.0392 J2.3981 F600.00
G0 X7.6961 Y14.6958 Z5.0000
G0 X7.8383 Y14.8380 Z5.0000
G0 X7.8383 Y14.8380 Z2.0000
G1 X7.8383 Y14.8380 Z-1.0000 F100.00
G2 X5.9453 Y10.4055 Z-1.0000 I-1.8360 J-1.8364 F600.00
G1 X5.9608 Y10.6019 Z-1.0000 F600.00
G1 X5.9453 Y10.4055 Z-1.0000 F600.00
G1 X5.5935 Y10.4332 Z-1.0000 F600.00
G2 X6.4065 Y15.5668 Z-1.0000 I0.4065 J2.5668 F600.00
G2 X7.8383 Y14.8380 Z-1.0000 I-0.4042 J-2.5651 F600.00
G1 X7.8383 Y14.8380 Z-1.2500 F100.00
G2 X5.9453 Y10.4055 Z-1.2500 I-1.8360 J-1.8364 F600.00
G1 X5.9608 Y10.6019 Z-1.2500 F600.00
G1 X5.9453 Y10.4055 Z-1.2500 F600.00
G1 X5.5935 Y10.4332 Z-1.2500 F600.00
G2 X6.4065 Y15.5668 Z-1.2500 I0.4065 J2.5668 F600.00
G2 X7.8383 Y14.8380 Z-1.2500 I-0.4042 J-2.5651 F600.00
G0 X7.8383 Y14.8380 Z5.0000
G0 X7.6961 Y14.6958 Z5.0000
G0 X7.6961 Y14.6958 Z1.7500
G1 X7.6961 Y14.6958 Z-1.2500 F100.00
G3 X6.0392 Y15.3981 Z-1.2500 I-1.6961 J-1.6958 F600.00
G3 X3.6019 Y13.0392 Z-1.2500 I-0.0392 J-2.3981 F600.00
G3 X5.9608 Y10.6019 Z-1.2500 I2.3981 J-0.0392 F600.00
G3 X7.6961 Y14.6958 Z-1.2500 I0.0392 J2.3981 F600.00
G1 X7.6961 Y14.6958 Z-1.5000 F100.00
G3 X6.0392 Y15.3981 Z-1.5000 I-1.6961 J-1.6958 F600.00
G3 X3.6019 Y13.0392 Z-1.5000 I-0.0392 J-2.3981 F600.00
G3 X5.9608 Y10.6019 Z-1.5000 I2.3981 J-0.0392 F600.00
G3 X7.6961 Y14.6958 Z-1.5000 I0.0392 J2.3981 F600.00
G0 X7.6961 Y14.6958 Z5.0000
G0 X7.8383 Y14.8381 Z5.0000
G0 X7.8383 Y14.8381 Z1.5000
G1 X7.8383 Y14.8381 Z-1.5000 F100.00
G2 X5.9453 Y10.4055 Z-1.5000 I-1.8360 J-1.8364 F600.00
G1 X5.9608 Y10.6019 Z-1.5000 F600.00
G1 X5.9453 Y10.4055 Z-1.5000 F600.00
G1 X5.5935 Y10.4332 Z-1.5000 F600.00
G2 X6.4065 Y15.5668 Z-1.5000 I0.4065 J2.5668 F600.00
G2 X7.8383 Y14.8381 Z-1.5000 I-0.4042 J-2.5651 F600.00
G1 X7.8383 Y14.8381 Z-1.7500 F100.00
G2 X5.9453 Y10.4055 Z-1.7500 I-1.8360 J-1.8364 F600.00
G1 X5.9608 Y10.6019 Z-1.7500 F600.00
G1 X5.9453 Y10.4055 Z-1.7500 F600.00
G1 X5.5935 Y10.4332 Z-1.7500 F600.00
G2 X6.4065 Y15.5668 Z-1.7500 I0.4065 J2.5668 F600.00
G2 X7.8383 Y14.8381 Z-1.7500 I-0.4042 J-2.5651 F600.00
G0 X7.8383 Y14.8381 Z5.0000
G0 X7.6960 Y14.6958 Z5.0000
G0 X7.6960 Y14.6958 Z1.2500
G1 X7.6960 Y14.6958 Z-1.7500 F100.00
G3 X6.0392 Y15.3981 Z-1.7500 I-1.6960 J-1.6958 F600.00
G3 X3.6019 Y13.0392 Z-1.7500 I-0.0392 J-2.3981 F600.00
G3 X5.9608 Y10.6019 Z-1.7500 I2.3981 J-0.0392 F600.00
G3 X7.6960 Y14.6958 Z-1.7500 I0.0392 J2.3981 F600.00
G1 X7.6960 Y14.6958 Z-2.0000 F100.00
G3 X6.0392 Y15.3981 Z-2.0000 I-1.6960 J-1.6958 F600.00
G3 X3.6019 Y13.0392 Z-2.0000 I-0.0392 J-2.3981 F600.00
G3 X5.9608 Y10.6019 Z-2.0000 I2.3981 J-0.0392 F600.00
G3 X7.6960 Y14.6958 Z-2.0000 I0.0392 J2.3981 F600.00
G0 X7.6960 Y14.6958 Z5.0000
G0 X7.8383 Y14.8381 Z5.0000
G0 X7.8383 Y14.8381 Z1.0000
G1 X7.8383 Y14.8381 Z-2.0000 F100.00
G2 X5.9453 Y10.4055 Z-2.0000 I-1.8360 J-1.8364 F600.00
G1 X5.9608 Y10.6019 Z-2.0000 F600.00
G1 X5.9453 Y10.4055 Z-2.0000 F600.00
G1 X5.5935 Y10.4332 Z-2.0000 F600.00
G2 X6.4065 Y15.5668 Z-2.0000 I0.4065 J2.5668 F600.00
G2 X7.8383 Y14.8381 Z-2.0000 I-0.4042 J-2.5651 F600.00
G0 Z5.0000
G0 X20.8384 Y14.8380
G0 Z3.0000
G1 X20.8384 Y14.8380 Z-0.2500 F100.00
G2 X18.9453 Y10.4055 Z-0.2500 I-1.8361 J-1.8363 F600.00
G1 X18.9608 Y10.6019 Z-0.2500 F600.00
G1 X18.9453 Y10.4055 Z-0.2500 F600.00
G1 X18.5935 Y10.4332 Z-0.2500 F600.00
G2 X19.4065 Y15.5668 Z-0.2500 I0.4065 J2.5668 F600.00
G2 X20.8384 Y14.8380 Z-0.2500 I-0.4042 J-2.5651 F600.00
G0 X20.8384 Y14.8380 Z5.0000
G0 X20.6961 Y14.6957 Z5.0000
G0 X20.6961 Y14.6957 Z2.7500
G1 X20.6961 Y14.6957 Z-0.2500 F100.00
G3 X19.0392 Y15.3981 Z-0.2500 I-1.6961 J-1.6957 F600.00
G3 X16.6019 Y13.0392 Z-0.2500 I-0.0392 J-2.3981 F600.00
G3 X18.9608 Y10.6019 Z-0.2500 I2.3981 J-0.0392 F600.00
G3 X20.6961 Y14.6957 Z-0.2500 I0.0392 J2.3981 F600.00
G1 X20.6961 Y14.6957 Z-0.5000 F100.00
G3 X19.0392 Y15.3981 Z-0.5000 I-1.6961 J-1.6957 F600.00
G3 X16.6019 Y13.0392 Z-0.5000 I-0.0392 J-2.3981 F600.00
G3 X18.9608 Y10.6019 Z-0.5000 I2.3981 J-0.0392 F600.00
G3 X20.6961 Y14.6957 Z-0.5000 I0.0392 J2.3981 F600.00
G0 X20.6961 Y14.6957 Z5.0000
G0 X20.8383 Y14.8380 Z5.0000
G0 X20.8383 Y14.8380 Z2.5000
G1 X20.8383 Y14.8380 Z-0.5000 F100.00
G2 X18.9453 Y10.4055 Z-0.5000 I-1.8360 J-1.8363 F600.00
G1 X18.9608 Y10.6019 Z-0.5000 F600.00
G1 X18.9453 Y10.4055 Z-0.5000 F600.00
G1 X18.5935 Y10.4332 Z-0.5000 F600.00
G2 X19.4065 Y15.5668 Z-0.5000 I0.4065 J2.5668 F600.00
G2 X20.8383 Y14.8380 Z-0.5000 I-0.4042 J-2.5651 F600.00
G1 X20.8383 Y14.8380 Z-0.7500 F100.00
G2 X18.9453 Y10.4055 Z-0.7500 I-1.8360 J-1.8363 F600.00
G1 X18.9608 Y10.6019 Z-0.7500 F600.00
G1 X18.9453 Y10.4055 Z-0.7500 F600.00
G1 X18.5935 Y10.4332 Z-0.7500 F600.00
G2 X19.4065 Y15.5668 Z-0.7500 I0.4065 J2.5668 F600.00
G2 X20.8383 Y14.8380 Z-0.7500 I-0.4042 J-2.5651 F600.00
G0 X20.8383 Y14.8380 Z5.0000
G0 X20.6961 Y14.6958 Z5.0000
G0 X20.6961 Y14.6958 Z2.2500
G1 X20.6961 Y14.6958 Z-0.7500 F100.00
G3 X19.0392 Y15.3981 Z-0.7500 I-1.6961 J-1.6958 F600.00
G3 X16.6019 Y13.0392 Z-0.7500 I-0.0392 J-2.3981 F600.00
G3 X18.9608 Y10.6019 Z-0.7500 I2.3981 J-0.0392 F600.00
G3 X20.6961 Y14.6958 Z-0.7500 I0.0392 J2.3981 F600.00
G1 X20.6961 Y14.6958 Z-1.0000 F100.00
G3 X19.0392 Y15.3981 Z-1.0000 I-1.6961 J-1.6958 F600.00
G3 X16.6019 Y13.0392 Z-1.0000 I-0.0392 J-2.3981 F600.00
G3 X18.9608 Y10.6019 Z-1.0000 I2.3981 J-0.0392 F600.00
G3 X20.6961 Y14.6958 Z-1.0000 I0.0392 J2.3981 F600.00
G0 X20.6961 Y14.6958 Z5.0000
G0 X20.8383 Y14.8380 Z5.0000
G0 X20.8383 Y14.8380 Z2.0000
G1 X20.8383 Y14.8380 Z-1.0000 F100.00
G2 X18.9453 Y10.4055 Z-1.0000 I-1.8360 J-1.8364 F600.00
G1 X18.9608 Y10.6019 Z-1.0000 F600.00
G1 X18.9453 Y10.4055 Z-1.0000 F600.00
G1 X18.5935 Y10.4332 Z-1.0000 F600.00
G2 X19.4065 Y15.5668 Z-1.0000 I0.4065 J2.5668 F600.00
G2 X20.8383 Y14.8380 Z-1.0000 I-0.4042 J-2.5651 F600.00
G1 X20.8383 Y14.8380 Z-1.2500 F100.00
G2 X18.9453 Y10.4055 Z-1.2500 I-1.8360 J-1.8364 F600.00
G1 X18.9608 Y10.6019 Z-1.2500 F600.00
G1 X18.9453 Y10.4055 Z-1.2500 F600.00
G1 X18.5935 Y10.4332 Z-1.2500 F600.00
G2 X19.4065 Y15.5668 Z-1.2500 I0.4065 J2.5668 F600.00
G2 X20.8383 Y14.8380 Z-1.2500 I-0.4042 J-2.5651 F600.00
G0 X20.8383 Y14.8380 Z5.0000
G0 X20.6961 Y14.6958 Z5.0000
G0 X20.6961 Y14.6958 Z1.7500
G1 X20.6961 Y14.6958 Z-1.2500 F100.00
G3 X19.0392 Y15.3981 Z-1.2500 I-1.6961 J-1.6958 F600.00
G3 X16.6019 Y13.0392 Z-1.2500 I-0.0392 J-2.3981 F600.00
G3 X18.9608 Y10.6019 Z-1.2500 I2.3981 J-0.0392 F600.00
G3 X20.6961 Y14.6958 Z-1.2500 I0.0392 J2.3981 F600.00
G1 X20.6961 Y14.6958 Z-1.5000 F100.00
G3 X19.0392 Y15.3981 Z-1.5000 I-1.6961 J-1.6958 F600.00
G3 X16.6019 Y13.0392 Z-1.5000 I-0.0392 J-2.3981 F600.00
G3 X18.9608 Y10.6019 Z-1.5000 I2.3981 J-0.0392 F600.00
G3 X20.6961 Y14.6958 Z-1.5000 I0.0392 J2.3981 F600.00
G0 X20.6961 Y14.6958 Z5.0000
G0 X20.8383 Y14.8381 Z5.0000
G0 X20.8383 Y14.8381 Z1.5000
G1 X20.8383 Y14.8381 Z-1.5000 F100.00
G2 X18.9453 Y10.4055 Z-1.5000 I-1.8360 J-1.8364 F600.00
G1 X18.9608 Y10.6019 Z-1.5000 F600.00
G1 X18.9453 Y10.4055 Z-1.5000 F600.00
G1 X18.5935 Y10.4332 Z-1.5000 F600.00
G2 X19.4065 Y15.5668 Z-1.5000 I0.4065 J2.5668 F600.00
G2 X20.8383 Y14.8381 Z-1.5000 I-0.4042 J-2.5651 F600.00
G1 X20.8383 Y14.8381 Z-1.7500 F100.00
G2 X18.9453 Y10.4055 Z-1.7500 I-1.8360 J-1.8364 F600.00
G1 X18.9608 Y10.6019 Z-1.7500 F600.00
G1 X18.9453 Y10.4055 Z-1.7500 F600.00
G1 X18.5935 Y10.4332 Z-1.7500 F600.00
G2 X19.4065 Y15.5668 Z-1.7500 I0.4065 J2.5668 F600.00
G2 X20.8383 Y14.8381 Z-1.7500 I-0.4042 J-2.5651 F600.00
G0 X20.8383 Y14.8381 Z5.0000
G0 X20.6960 Y14.6958 Z5.0000
G0 X20.6960 Y14.6958 Z1.2500
G1 X20.6960 Y14.6958 Z-1.7500 F100.00
G3 X19.0392 Y15.3981 Z-1.7500 I-1.6960 J-1.6958 F600.00
G3 X16.6019 Y13.0392 Z-1.7500 I-0.0392 J-2.3981 F600.00
G3 X18.9608 Y10.6019 Z-1.7500 I2.3981 J-0.0392 F600.00
G3 X20.6960 Y14.6958 Z-1.7500 I0.0392 J2.3981 F600.00
G1 X20.6960 Y14.6958 Z-2.0000 F100.00
G3 X19.0392 Y15.3981 Z-2.0000 I-1.6960 J-1.6958 F600.00
G3 X16.6019 Y13.0392 Z-2.0000 I-0.0392 J-2.3981 F600.00
G3 X18.9608 Y10.6019 Z-2.0000 I2.3981 J-0.0392 F600.00
G3 X20.6960 Y14.6958 Z-2.0000 I0.0392 J2.3981 F600.00
G0 X20.6960 Y14.6958 Z5.0000
G0 X20.8383 Y14.8381 Z5.0000
G0 X20.8383 Y14.8381 Z1.0000
G1 X20.8383 Y14.8381 Z-2.0000 F100.00
G2 X18.9453 Y10.4055 Z-2.0000 I-1.8360 J-1.8364 F600.00
G1 X18.9608 Y10.6019 Z-2.0000 F600.00
G1 X18.9453 Y10.4055 Z-2.0000 F600.00
G1 X18.5935 Y10.4332 Z-2.0000 F600.00
G2 X19.4065 Y15.5668 Z-2.0000 I0.4065 J2.5668 F600.00
G2 X20.8383 Y14.8381 Z-2.0000 I-0.4042 J-2.5651 F600.00
G0 Z5.0000
G0 X33.8384 Y14.8380
G0 Z3.0000
G1 X33.8384 Y14.8380 Z-0.2500 F100.00
G2 X31.9453 Y10.4055 Z-0.2500 I-1.8361 J-1.8363 F600.00
G1 X31.9608 Y10.6019 Z-0.2500 F600.00
G1 X31.9453 Y10.4055 Z-0.2500 F600.00
G1 X31.5935 Y10.4332 Z-0.2500 F600.00
G2 X32.4065 Y15.5668 Z-0.2500 I0.4065 J2.5668 F600.00
G2 X33.8384 Y14.8380 Z-0.2500 I-0.4042 J-2.5651 F600.00
G0 X33.8384 Y14.8380 Z5.0000
G0 X33.6961 Y14.6957 Z5.0000
G0 X33.6961 Y14.6957 Z2.7500
G1 X33.6961 Y14.6957 Z-0.2500 F100.00
G3 X32.0392 Y15.3981 Z-0.2500 I-1.6961 J-1.6957 F600.00
G3 X31.9608 Y10.6019 Z-0.2500 I-0.0392 J-2.3981 F600.00
G3 X33.6961 Y14.6957 Z-0.2500 I0.0392 J2.3981 F600.00
G1 X33.6961 Y14.6957 Z-0.5000 F100.00
G3 X32.0392 Y15.3981 Z-0.5000 I-1.6961 J-1.6957 F600.00
G3 X31.9608 Y10.6019 Z-0.5000 I-0.0392 J-2.3981 F600.00
G3 X33.6961 Y14.6957 Z-0.5000 I0.0392 J2.3981 F600.00
G0 X33.6961 Y14.6957 Z5.0000
G0 X33.8383 Y14.8380 Z5.0000
G0 X33.8383 Y14.8380 Z2.5000
G1 X33.8383 Y14.8380 Z-0.5000 F100.00
G2 X31.9453 Y10.4055 Z-0.5000 I-1.8360 J-1.8363 F600.00
G1 X31.9608 Y10.6019 Z-0.5000 F600.00
G1 X31.9453 Y10.4055 Z-0.5000 F600.00
G1 X31.5935 Y10.4332 Z-0.5000 F600.00
G2 X32.4065 Y15.5668 Z-0.5000 I0.4065 J2.5668 F600.00
G2 X33.8383 Y14.8380 Z-0.5000 I-0.4042 J-2.5651 F600.00
G1 X33.8383 Y14.8380 Z-0.7500 F100.00
G2 X31.9453 Y10.4055 Z-0.7500 I-1.8360 J-1.8363 F600.00
G1 X31.9608 Y10.6019 Z-0.7500 F600.00
G1 X31.9453 Y10.4055 Z-0.7500 F600.00
G1 X31.5935 Y10.4332 Z-0.7500 F600.00
G2 X32.4065 Y15.5668 Z-0.7500 I0.4065 J2.5668 F600.00
G2 X33.8383 Y14.8380 Z-0.7500 I-0.4042 J-2.5651 F600.00
G0 X33.8383 Y14.8380 Z5.0000
G0 X33.6961 Y14.6958 Z5.0000
G0 X33.6961 Y14.6958 Z2.2500
G1 X33.6961 Y14.6958 Z-0.7500 F100.00
G3 X32.0392 Y15.3981 Z-0.7500 I-1.6961 J-1.6958 F600.00
G3 X31.9608 Y10.6019 Z-0.7500 I-0.0392 J-2.3981 F600.00
G3 X33.6961 Y14.6958 Z-0.7500 I0.0392 J2.3981 F600.00
G1 X33.6961 Y14.6958 Z-1.0000 F100.00
G3 X32.0392 Y15.3981 Z-1.0000 I-1.6961 J-1.6958 F600.00
G3 X31.9608 Y10.6019 Z-1.0000 I-0.0392 J-2.3981 F600.00
G3 X33.6961 Y14.6958 Z-1.0000 I0.0392 J2.3981 F600.00
G0 X33.6961 Y14.6958 Z5.0000
G0 X33.8383 Y14.8380 Z5.0000
G0 X33.8383 Y14.8380 Z2.0000
G1 X33.8383 Y14.8380 Z-1.0000 F100.00
G2 X31.9453 Y10.4055 Z-1.0000 I-1.8360 J-1.8364 F600.00
G1 X31.9608 Y10.6019 Z-1.0000 F600.00
G1 X31.9453 Y10.4055 Z-1.0000 F600.00
G1 X31.5935 Y10.4332 Z-1.0000 F600.00
G2 X32.4065 Y15.5668 Z-1.0000 I0.4065 J2.5668 F600.00
G2 X33.8383 Y14.8380 Z-1.0000 I-0.4042 J-2.5651 F600.00
G1 X33.8383 Y14.8380 Z-1.2500 F100.00
G2 X31.9453 Y10.4055 Z-1.2500 I-1.8360 J-1.8364 F600.00
G1 X31.9608 Y10.6019 Z-1.2500 F600.00
G1 X31.9453 Y10.4055 Z-1.2500 F600.00
G1 X31.5935 Y10.4332 Z-1.2500 F600.00
G2 X32.4065 Y15.5668 Z-1.2500 I0.4065 J2.5668 F600.00
G2 X33.8383 Y14.8380 Z-1.2500 I-0.4042 J-2.5651 F600.00
G0 X33.8383 Y14.8380 Z5.0000
G0 X33.6961 Y14.6958 Z5.0000
G0 X33.6961 Y14.6958 Z1.7500
G1 X33.6961 Y14.6958 Z-1.2500 F100.00
G3 X32.0392 Y15.3981 Z-1.2500 I-1.6961 J-1.6958 F600.00
G3 X31.9608 Y10.6019 Z-1.2500 I-0.0392 J-2.3981 F600.00
G3 X33.6961 Y14.6958 Z-1.2500 I0.0392 J2.3981 F600.00
G1 X33.6961 Y14.6958 Z-1.5000 F100.00
G3 X32.0392 Y15.3981 Z-1.5000 I-1.6961 J-1.6958 F600.00
G3 X31.9608 Y10.6019 Z-1.5000 I-0.0392 J-2.3981 F600.00
G3 X33.6961 Y14.6958 Z-1.5000 I0.0392 J2.3981 F600.00
G0 X33.6961 Y14.6958 Z5.0000
G0 X33.8383 Y14.8381 Z5.0000
G0 X33.8383 Y14.8381 Z1.5000
G1 X33.8383 Y14.8381 Z-1.5000 F100.00
G2 X31.9453 Y10.4055 Z-1.5000 I-1.8360 J-1.8364 F600.00
G1 X31.9608 Y10.6019 Z-1.5000 F600.00
G1 X31.9453 Y10.4055 Z-1.5000 F600.00
G1 X31.5935 Y10.4332 Z-1.5000 F600.00
G2 X32.4065 Y15.5668 Z-1.5000 I0.4065 J2.5668 F600.00
G2 X33.8383 Y14.8381 Z-1.5000 I-0.4042 J-2.5651 F600.00
G1 X33.8383 Y14.8381 Z-1.7500 F100.00
G2 X31.9453 Y10.4055 Z-1.7500 I-1.8360 J-1.8364 F600.00
G1 X31.9608 Y10.6019 Z-1.7500 F600.00
G1 X31.9453 Y10.4055 Z-1.7500 F600.00
G1 X31.5935 Y10.4332 Z-1.7500 F600.00
G2 X32.4065 Y15.5668 Z-1.7500 I0.4065 J2.5668 F600.00
G2 X33.8383 Y14.8381 Z-1.7500 I-0.4042 J-2.5651 F600.00
G0 X33.8383 Y14.8381 Z5.0000
G0 X33.6960 Y14.6958 Z5.0000
G0 X33.6960 Y14.6958 Z1.2500
G1 X33.6960 Y14.6958 Z-1.7500 F100.00
G3 X32.0392 Y15.3981 Z-1.7500 I-1.6960 J-1.6958 F600.00
G3 X31.9608 Y10.6019 Z-1.7500 I-0.0392 J-2.3981 F600.00
G3 X33.6960 Y14.6958 Z-1.7500 I0.0392 J2.3981 F600.00
G1 X33.6960 Y14.6958 Z-2.0000 F100.00
G3 X32.0392 Y15.3981 Z-2.0000 I-1.6960 J-1.6958 F600.00
G3 X31.9608 Y10.6019 Z-2.0000 I-0.0392 J-2.3981 F600.00
G3 X33.6960 Y14.6958 Z-2.0000 I0.0392 J2.3981 F600.00
G0 X33.6960 Y14.6958 Z5.0000
G0 X33.8383 Y14.8381 Z5.0000
G0 X33.8383 Y14.8381 Z1.0000
G1 X33.8383 Y14.8381 Z-2.0000 F100.00
G2 X31.9453 Y10.4055 Z-2.0000 I-1.8360 J-1.8364 F600.00
G1 X31.9608 Y10.6019 Z-2.0000 F600.00
G1 X31.9453 Y10.4055 Z-2.0000 F600.00
G1 X31.5935 Y10.4332 Z-2.0000 F600.00
G2 X32.4065 Y15.5668 Z-2.0000 I0.4065 J2.5668 F600.00
G2 X33.8383 Y14.8381 Z-2.0000 I-0.4042 J-2.5651 F600.00
G0 Z5.0000
G0 X46.8384 Y14.8380
G0 Z3.0000
G1 X46.8384 Y14.8380 Z-0.2500 F100.00
G2 X44.9453 Y10.4055 Z-0.2500 I-1.8361 J-1.8363 F600.00
G1 X44.9608 Y10.6019 Z-0.2500 F600.00
G1 X44.9453 Y10.4055 Z-0.2500 F600.00
G1 X44.5935 Y10.4332 Z-0.2500 F600.00
G2 X45.4065 Y15.5668 Z-0.2500 I0.4065 J2.5668 F600.00
G2 X46.8384 Y14.8380 Z-0.2500 I-0.4042 J-2.5651 F600.00
G0 X46.8384 Y14.8380 Z5.0000
G0 X46.6961 Y14.6957 Z5.0000
G0 X46.6961 Y14.6957 Z2.7500
G1 X46.6961 Y14.6957 Z-0.2500 F100.00
G3 X45.0392 Y15.3981 Z-0.2500 I-1.6961 J-1.6957 F600.00
G3 X44.9608 Y10.6019 Z-0.2500 I-0.0392 J-2.3981 F600.00
G3 X46.6961 Y14.6957 Z-0.2500 I0.0392 J2.3981 F600.00
G1 X46.6961 Y14.6957 Z-0.5000 F100.00
G3 X45.0392 Y15.3981 Z-0.5000 I-1.6961 J-1.6957 F600.00
G3 X44.9608 Y10.6019 Z-0.5000 I-0.0392 J-2.3981 F600.00
G3 X46.6961 Y14.6957 Z-0.5000 I0.0392 J2.3981 F600.00
G0 X46.6961 Y14.6957 Z5.0000
G0 X46.8383 Y14.8380 Z5.0000
G0 X46.8383 Y14.8380 Z2.5000
G1 X46.8383 Y14.8380 Z-0.5000 F100.00
G2 X44.9453 Y10.4055 Z-0.5000 I-1.8360 J-1.8363 F600.00
G1 X44.9608 Y10.6019 Z-0.5000 F600.00
G1 X44.9453 Y10.4055 Z-0.5000 F600.00
G1 X44.5935 Y10.4332 Z-0.5000 F600.00
G2 X45.4065 Y15.5668 Z-0.5000 I0.4065 J2.5668 F600.00
G2 X46.8383 Y14.8380 Z-0.5000 I-0.4042 J-2.5651 F600.00
G1 X46.8383 Y14.8380 Z-0.7500 F100.00
G2 X44.9453 Y10.4055 Z-0.7500 I-1.8360 J-1.8363 F600.00
G1 X44.9608 Y10.6019 Z-0.7500 F600.00
G1 X44.9453 Y10.4055 Z-0.7500 F600.00
G1 X44.5935 Y10.4332 Z-0.7500 F600.00
G2 X45.4065 Y15.5668 Z-0.7500 I0.4065 J2.5668 F600.00
G2 X46.8383 Y14.8380 Z-0.7500 I-0.4042 J-2.5651 F600.00
G0 X46.8383 Y14.8380 Z5.0000
G0 X46.6961 Y14.6958 Z5.0000
G0 X46.6961 Y14.6958 Z2.2500
G1 X46.6961 Y14.6958 Z-0.7500 F100.00
G3 X45.0392 Y15.3981 Z-0.7500 I-1.6961 J-1.6958 F600.00
G3 X44.9608 Y10.6019 Z-0.7500 I-0.0392 J-2.3981 F600.00
G3 X46.6961 Y14.6958 Z-0.7500 I0.0392 J2.3981 F600.00
G1 X46.6961 Y14.6958 Z-1.0000 F100.00
G3 X45.0392 Y15.3981 Z-1.0000 I-1.6961 J-1.6958 F600.00
G3 X44.9608 Y10.6019 Z-1.0000 I-0.0392 J-2.3981 F600.00
G3 X46.6961 Y14.6958 Z-1.0000 I0.0392 J2.3981 F600.00
G0 X46.6961 Y14.6958 Z5.0000
G0 X46.8383 Y14.8380 Z5.0000
G0 X46.8383 Y14.8380 Z2.0000
G1 X46.8383 Y14.8380 Z-1.0000 F100.00
G2 X44.9453 Y10.4055 Z-1.0000 I-1.8360 J-1.8364 F600.00
G1 X44.9608 Y10.6019 Z-1.0000 F600.00
G1 X44.9453 Y10.4055 Z-1.0000 F600.00
G1 X44.5935 Y10.4332 Z-1.0000 F600.00
G2 X45.4065 Y15.5668 Z-1.0000 I0.4065 J2.5668 F600.00
G2 X46.8383 Y14.8380 Z-1.0000 I-0.4042 J-2.5651 F600.00
G1 X46.8383 Y14.8380 Z-1.2500 F100.00
G2 X44.9453 Y10.4055 Z-1.2500 I-1.8360 J-1.8364 F600.00
G1 X44.9608 Y10.6019 Z-1.2500 F600.00
G1 X44.9453 Y10.4055 Z-1.2500 F600.00
G1 X44.5935 Y10.4332 Z-1.2500 F600.00
G2 X45.4065 Y15.5668 Z-1.2500 I0.4065 J2.5668 F600.00
G2 X46.8383 Y14.8380 Z-1.2500 I-0.4042 J-2.5651 F600.00
G0 X46.8383 Y14.8380 Z5.0000
G0 X46.6961 Y14.6958 Z5.0000
G0 X46.6961 Y14.6958 Z1.7500
G1 X46.6961 Y14.6958 Z-1.2500 F100.00
G3 X45.0392 Y15.3981 Z-1.2500 I-1.6961 J-1.6958 F600.00
G3 X44.9608 Y10.6019 Z-1.2500 I-0.0392 J-2.3981 F600.00
G3 X46.6961 Y14.6958 Z-1.2500 I0.0392 J2.3981 F600.00
G1 X46.6961 Y14.6958 Z-1.5000 F100.00
G3 X45.0392 Y15.3981 Z-1.5000 I-1.6961 J-1.6958 F600.00
G3 X44.9608 Y10.6019 Z-1.5000 I-0.0392 J-2.3981 F600.00
G3 X46.6961 Y14.6958 Z-1.5000 I0.0392 J2.3981 F600.00
G0 X46.6961 Y14.6958 Z5.0000
G0 X46.8383 Y14.8381 Z5.0000
G0 X46.8383 Y14.8381 Z1.5000
G1 X46.8383 Y14.8381 Z-1.5000 F100.00
G2 X44.9453 Y10.4055 Z-1.5000 I-1.8360 J-1.8364 F600.00
G1 X44.9608 Y10.6019 Z-1.5000 F600.00
G1 X44.9453 Y10.4055 Z-1.5000 F600.00
G1 X44.5935 Y10.4332 Z-1.5000 F600.00
G2 X45.4065 Y15.5668 Z-1.5000 I0.4065 J2.5668 F600.00
G2 X46.8383 Y14.8381 Z-1.5000 I-0.4042 J-2.5651 F600.00
G1 X46.8383 Y14.8381 Z-1.7500 F100.00
G2 X44.9453 Y10.4055 Z-1.7500 I-1.8360 J-1.8364 F600.00
G1 X44.9608 Y10.6019 Z-1.7500 F600.00
G1 X44.9453 Y10.4055 Z-1.7500 F600.00
G1 X44.5935 Y10.4332 Z-1.7500 F600.00
G2 X45.4065 Y15.5668 Z-1.7500 I0.4065 J2.5668 F600.00
G2 X46.8383 Y14.8381 Z-1.7500 I-0.4042 J-2.5651 F600.00
G0 X46.8383 Y14.8381 Z5.0000
G0 X46.6960 Y14.6958 Z5.0000
G0 X46.6960 Y14.6958 Z1.2500
G1 X46.6960 Y14.6958 Z-1.7500 F100.00
G3 X45.0392 Y15.3981 Z-1.7500 I-1.6960 J-1.6958 F600.00
G3 X44.9608 Y10.6019 Z-1.7500 I-0.0392 J-2.3981 F600.00
G3 X46.6960 Y14.6958 Z-1.7500 I0.0392 J2.3981 F600.00
G1 X46.6960 Y14.6958 Z-2.0000 F100.00
G3 X45.0392 Y15.3981 Z-2.0000 I-1.6960 J-1.6958 F600.00
G3 X44.9608 Y10.6019 Z-2.0000 I-0.0392 J-2.3981 F600.00
G3 X46.6960 Y14.6958 Z-2.0000 I0.0392 J2.3981 F600.00
G0 X46.6960 Y14.6958 Z5.0000
G0 X46.8383 Y14.8381 Z5.0000
G0 X46.8383 Y14.8381 Z1.0000
G1 X46.8383 Y14.8381 Z-2.0000 F100.00
G2 X44.9453 Y10.4055 Z-2.0000 I-1.8360 J-1.8364 F600.00
G1 X44.9608 Y10.6019 Z-2.0000 F600.00
G1 X44.9453 Y10.4055 Z-2.0000 F600.00
G1 X44.5935 Y10.4332 Z-2.0000 F600.00
G2 X45.4065 Y15.5668 Z-2.0000 I0.4065 J2.5668 F600.00
G2 X46.8383 Y14.8381 Z-2.0000 I-0.4042 J-2.5651 F600.00
G0 Z5.0000
(finish operation: pockets)
(begin operation: contour_left001)
(Path: contour_left001)
(contour_left001)
(Compensated Tool Path. Diameter: 0.8)
G0 Z5.0000
G0 X12.2828 Y26.2828
G0 Z3.0000
G1 X12.2828 Y26.2828 Z-0.2500 F100.00
G2 X12.4000 Y26.0000 Z-0.2500 I-0.2828 J-0.2828 F600.00
G1 X12.4000 Y0.0000 Z-0.2500 F600.00
G2 X12.0000 Y-0.4000 Z-0.2500 I-0.4000 J0.0000 F600.00
G1 X0.0000 Y-0.4000 Z-0.2500 F600.00
G2 X-0.4000 Y0.0000 Z-0.2500 I0.0000 J0.4000 F600.00
G1 X-0.4000 Y26.0000 Z-0.2500 F600.00
G2 X0.0000 Y26.4000 Z-0.2500 I0.4000 J-0.0000 F600.00
G1 X12.0000 Y26.4000 Z-0.2500 F600.00
G2 X12.2828 Y26.2828 Z-0.2500 I-0.0000 J-0.4000 F600.00
G1 X12.2828 Y26.2828 Z-0.5000 F100.00
G2 X12.4000 Y26.0000 Z-0.5000 I-0.2828 J-0.2828 F600.00
G1 X12.4000 Y0.0000 Z-0.5000 F600.00
G2 X12.0000 Y-0.4000 Z-0.5000 I-0.4000 J0.0000 F600.00
G1 X0.0000 Y-0.4000 Z-0.5000 F600.00
G2 X-0.4000 Y0.0000 Z-0.5000 I0.0000 J0.4000 F600.00
G1 X-0.4000 Y26.0000 Z-0.5000 F600.00
G2 X0.0000 Y26.4000 Z-0.5000 I0.4000 J-0.0000 F600.00
G1 X12.0000 Y26.4000 Z-0.5000 F600.00
G2 X12.2828 Y26.2828 Z-0.5000 I-0.0000 J-0.4000 F600.00
G1 X12.2828 Y26.2828 Z-0.7500 F100.00
G2 X12.4000 Y26.0000 Z-0.7500 I-0.2828 J-0.2828 F600.00
G1 X12.4000 Y0.0000 Z-0.7500 F600.00
G2 X12.0000 Y-0.4000 Z-0.7500 I-0.4000 J0.0000 F600.00
G1 X0.0000 Y-0.4000 Z-0.7500 F600.00
G2 X-0.4000 Y0.0000 Z-0.7500 I0.0000 J0.4000 F600.00
G1 X-0.4000 Y26.0000 Z-0.7500 F600.00
G2 X0.0000 Y26.4000 Z-0.7500 I0.4000 J-0.0000 F600.00
G1 X12.0000 Y26.4000 Z-0.7500 F600.00
G2 X12.2828 Y26.2828 Z-0.7500 I-0.0000 J-0.4000 F600.00
G1 X12.2828 Y26.2828 Z-1.0000 F100.00
G2 X12.4000 Y26.0000 Z-1.0000 I-0.2828 J-0.2828 F600.00
G1 X12.4000 Y0.0000 Z-1.0000 F600.00
G2 X12.0000 Y-0.4000 Z-1.0000 I-0.4000 J0.0000 F600.00
G1 X0.0000 Y-0.4000 Z-1.0000 F600.00
G2 X-0.4000 Y0.0000 Z-1.0000 I0.0000 J0.4000 F600.00
G1 X-0.4000 Y26.0000 Z-1.0000 F600.00
G2 X0.0000 Y26.4000 Z-1.0000 I0.4000 J-0.0000 F600.00
G1 X12.0000 Y26.4000 Z-1.0000 F600.00
G2 X12.2828 Y26.2828 Z-1.0000 I-0.0000 J-0.4000 F600.00
G1 X12.2828 Y26.2828 Z-1.2500 F100.00
G2 X12.4000 Y26.0000 Z-1.2500 I-0.2828 J-0.2828 F600.00
G1 X12.4000 Y0.0000 Z-1.2500 F600.00
G2 X12.0000 Y-0.4000 Z-1.2500 I-0.4000 J0.0000 F600.00
G1 X0.0000 Y-0.4000 Z-1.2500 F600.00
G2 X-0.4000 Y0.0000 Z-1.2500 I0.0000 J0.4000 F600.00
G1 X-0.4000 Y26.0000 Z-1.2500 F600.00
G2 X0.0000 Y26.4000 Z-1.2500 I0.4000 J-0.0000 F600.00
G1 X12.0000 Y26.4000 Z-1.2500 F600.00
G2 X12.2828 Y26.2828 Z-1.2500 I-0.0000 J-0.4000 F600.00
G1 X12.2828 Y26.2828 Z-1.5000 F100.00
G2 X12.4000 Y26.0000 Z-1.5000 I-0.2828 J-0.2828 F600.00
G1 X12.4000 Y0.0000 Z-1.5000 F600.00
G2 X12.0000 Y-0.4000 Z-1.5000 I-0.4000 J0.0000 F600.00
G1 X0.0000 Y-0.4000 Z-1.5000 F600.00
G2 X-0.4000 Y0.0000 Z-1.5000 I0.0000 J0.4000 F600.00
G1 X-0.4000 Y26.0000 Z-1.5000 F600.00
G2 X0.0000 Y26.4000 Z-1.5000 I0.4000 J-0.0000 F600.00
G1 X12.0000 Y26.4000 Z-1.5000 F600.00
G2 X12.2828 Y26.2828 Z-1.5000 I-0.0000 J-0.4000 F600.00
G1 X12.2828 Y26.2828 Z-1.7500 F100.00
G2 X12.4000 Y26.0000 Z-1.7500 I-0.2828 J-0.2828 F600.00
G1 X12.4000 Y0.0000 Z-1.7500 F600.00
G2 X12.0000 Y-0.4000 Z-1.7500 I-0.4000 J0.0000 F600.00
G1 X0.0000 Y-0.4000 Z-1.7500 F600.00
G2 X-0.4000 Y0.0000 Z-1.7500 I0.0000 J0.4000 F600.00
G1 X-0.4000 Y26.0000 Z-1.7500 F600.00
G2 X0.0000 Y26.4000 Z-1.7500 I0.4000 J-0.0000 F600.00
G1 X12.0000 Y26.4000 Z-1.7500 F600.00
G2 X12.2828 Y26.2828 Z-1.7500 I-0.0000 J-0.4000 F600.00
G1 X12.2828 Y26.2828 Z-2.0000 F100.00
G2 X12.4000 Y26.0000 Z-2.0000 I-0.2828 J-0.2828 F600.00
G1 X12.4000 Y0.0000 Z-2.0000 F600.00
G2 X12.0000 Y-0.4000 Z-2.0000 I-0.4000 J0.0000 F600.00
G1 X0.0000 Y-0.4000 Z-2.0000 F600.00
G2 X-0.4000 Y0.0000 Z-2.0000 I0.0000 J0.4000 F600.00
G1 X-0.4000 Y26.0000 Z-2.0000 F600.00
G2 X0.0000 Y26.4000 Z-2.0000 I0.4000 J-0.0000 F600.00
G1 X12.0000 Y26.4000 Z-2.0000 F600.00
G2 X12.2828 Y26.2828 Z-2.0000 I-0.0000 J-0.4000 F600.00
G1 X12.2828 Y26.2828 Z-2.2500 F100.00
G2 X12.4000 Y26.0000 Z-2.2500 I-0.2828 J-0.2828 F600.00
G1 X12.4000 Y0.0000 Z-2.2500 F600.00
G2 X12.0000 Y-0.4000 Z-2.2500 I-0.4000 J0.0000 F600.00
G1 X0.0000 Y-0.4000 Z-2.2500 F600.00
G2 X-0.4000 Y0.0000 Z-2.2500 I0.0000 J0.4000 F600.00
G1 X-0.4000 Y26.0000 Z-2.2500 F600.00
G2 X0.0000 Y26.4000 Z-2.2500 I0.4000 J-0.0000 F600.00
G1 X12.0000 Y26.4000 Z-2.2500 F600.00
G2 X12.2828 Y26.2828 Z-2.2500 I-0.0000 J-0.4000 F600.00
G1 X12.2828 Y26.2828 Z-2.5000 F100.00
G2 X12.4000 Y26.0000 Z-2.5000 I-0.2828 J-0.2828 F600.00
G1 X12.4000 Y0.0000 Z-2.5000 F600.00
G2 X12.0000 Y-0.4000 Z-2.5000 I-0.4000 J0.0000 F600.00
G1 X0.0000 Y-0.4000 Z-2.5000 F600.00
G2 X-0.4000 Y0.0000 Z-2.5000 I0.0000 J0.4000 F600.00
G1 X-0.4000 Y26.0000 Z-2.5000 F600.00
G2 X0.0000 Y26.4000 Z-2.5000 I0.4000 J-0.0000 F600.00
G1 X12.0000 Y26.4000 Z-2.5000 F600.00
G2 X12.2828 Y26.2828 Z-2.5000 I-0.0000 J-0.4000 F600.00
G1 X12.2828 Y26.2828 Z-2.7500 F100.00
G2 X12.4000 Y26.0000 Z-2.7500 I-0.2828 J-0.2828 F600.00
G1 X12.4000 Y0.0000 Z-2.7500 F600.00
G2 X12.0000 Y-0.4000 Z-2.7500 I-0.4000 J0.0000 F600.00
G1 X0.0000 Y-0.4000 Z-2.7500 F600.00
G2 X-0.4000 Y0.0000 Z-2.7500 I0.0000 J0.4000 F600.00
G1 X-0.4000 Y26.0000 Z-2.7500 F600.00
G2 X0.0000 Y26.4000 Z-2.7500 I0.4000 J-0.0000 F600.00
G1 X12.0000 Y26.4000 Z-2.7500 F600.00
G2 X12.2828 Y26.2828 Z-2.7500 I-0.0000 J-0.4000 F600.00
G1 X12.2828 Y26.2828 Z-3.0000 F100.00
G2 X12.4000 Y26.0000 Z-3.0000 I-0.2828 J-0.2828 F600.00
G1 X12.4000 Y0.0000 Z-3.0000 F600.00
G2 X12.0000 Y-0.4000 Z-3.0000 I-0.4000 J0.0000 F600.00
G1 X0.0000 Y-0.4000 Z-3.0000 F600.00
G2 X-0.4000 Y0.0000 Z-3.0000 I0.0000 J0.4000 F600.00
G1 X-0.4000 Y26.0000 Z-3.0000 F600.00
G2 X0.0000 Y26.4000 Z-3.0000 I0.4000 J-0.0000 F600.00
G1 X12.0000 Y26.4000 Z-3.0000 F600.00
G2 X12.2828 Y26.2828 Z-3.0000 I-0.0000 J-0.4000 F600.00
G0 Z5.0000
(finish operation: contour_left001)
(begin operation: contour_right001)
(Path: contour_right001)
(contour_right001)
(Compensated Tool Path. Diameter: 0.8)
G0 Z5.0000
G0 X25.2828 Y26.2828
G0 Z3.0000
G1 X25.2828 Y26.2828 Z-0.2500 F100.00
G2 X25.4000 Y26.0000 Z-0.2500 I-0.2828 J-0.2828 F600.00
G1 X25.4000 Y0.0000 Z-0.2500 F600.00
G2 X25.0000 Y-0.4000 Z-0.2500 I-0.4000 J0.0000 F600.00
G1 X13.0000 Y-0.4000 Z-0.2500 F600.00
G2 X12.6000 Y0.0000 Z-0.2500 I0.0000 J0.4000 F600.00
G1 X12.6000 Y12.2845 Z-0.2500 F600.00
G2 X12.6994 Y12.5485 Z-0.2500 I0.4000 J-0.0000 F600.00
G3 X14.0599 Y25.8026 Z-0.2500 I-7.8427 J7.5019 F600.00
G2 X14.4078 Y26.4000 Z-0.2500 I0.3479 J0.1974 F600.00
G1 X25.0000 Y26.4000 Z-0.2500 F600.00
G2 X25.2828 Y26.2828 Z-0.2500 I-0.0000 J-0.4000 F600.00
G1 X25.2828 Y26.2828 Z-0.5000 F100.00
G2 X25.4000 Y26.0000 Z-0.5000 I-0.2828 J-0.2828 F600.00
G1 X25.4000 Y0.0000 Z-0.5000 F600.00
G2 X25.0000 Y-0.4000 Z-0.5000 I-0.4000 J0.0000 F600.00
G1 X13.0000 Y-0.4000 Z-0.5000 F600.00
G2 X12.6000 Y0.0000 Z-0.5000 I0.0000 J0.4000 F600.00
G1 X12.6000 Y12.2845 Z-0.5000 F600.00
G2 X12.6994 Y12.5485 Z-0.5000 I0.4000 J-0.0000 F600.00
G3 X14.0599 Y25.8026 Z-0.5000 I-7.8427 J7.5019 F600.00
G2 X14.4078 Y26.4000 Z-0.5000 I0.3479 J0.1974 F600.00
G1 X25.0000 Y26.4000 Z-0.5000 F600.00
G2 X25.2828 Y26.2828 Z-0.5000 I-0.0000 J-0.4000 F600.00
G1 X25.2828 Y26.2828 Z-0.7500 F100.00
G2 X25.4000 Y26.0000 Z-0.7500 I-0.2828 J-0.2828 F600.00
G1 X25.4000 Y0.0000 Z-0.7500 F600.00
G2 X25.0000 Y-0.4000 Z-0.7500 I-0.4000 J0.0000 F600.00
G1 X13.0000 Y-0.4000 Z-0.7500 F600.00
G2 X12.6000 Y0.0000 Z-0.7500 I0.0000 J0.4000 F600.00
G1 X12.6000 Y12.2845 Z-0.7500 F600.00
G2 X12.6994 Y12.5485 Z-0.7500 I0.4000 J-0.0000 F600.00
G3 X14.0599 Y25.8026 Z-0.7500 I-7.8427 J7.5019 F600.00
G2 X14.4078 Y26.4000 Z-0.7500 I0.3479 J0.1974 F600.00
G1 X25.0000 Y26.4000 Z-0.7500 F600.00
G2 X25.2828 Y26.2828 Z-0.7500 I-0.0000 J-0.4000 F600.00
G1 X25.2828 Y26.2828 Z-1.0000 F100.00
G2 X25.4000 Y26.0000 Z-1.0000 I-0.2828 J-0.2828 F600.00
G1 X25.4000 Y0.0000 Z-1.0000 F600.00
G2 X25.0000 Y-0.4000 Z-1.0000 I-0.4000 J0.0000 F600.00
G1 X13.0000 Y-0.4000 Z-1.0000 F600.00
G2 X12.6000 Y0.0000 Z-1.0000 I0.0000 J0.4000 F600.00
G1 X12.6000 Y12.2845 Z-1.0000 F600.00
G2 X12.6994 Y12.5485 Z-1.0000 I0.4000 J-0.0000 F600.00
G3 X14.0599 Y25.8026 Z-1.0000 I-7.8427 J7.5019 F600.00
G2 X14.4078 Y26.4000 Z-1.0000 I0.3479 J0.1974 F600.00
G1 X25.0000 Y26.4000 Z-1.0000 F600.00
G2 X25.2828 Y26.2828 Z-1.0000 I-0.0000 J-0.4000 F600.00
G1 X25.2828 Y26.2828 Z-1.2500 F100.00
G2 X25.4000 Y26.0000 Z-1.2500 I-0.2828 J-0.2828 F600.00
G1 X25.4000 Y0.0000 Z-1.2500 F600.00
G2 X25.0000 Y-0.4000 Z-1.2500 I-0.4000 J0.0000 F600.00
G1 X13.0000 Y-0.4000 Z-1.2500 F600.00
G2 X12.6000 Y0.0000 Z-1.2500 I0.0000 J0.4000 F600.00
G1 X12.6000 Y12.2845 Z-1.2500 F600.00
G2 X12.6994 Y12.5485 Z-1.2500 I0.4000 J-0.0000 F600.00
G3 X14.0599 Y25.8026 Z-1.2500 I-7.8427 J7.5019 F600.00
G2 X14.4078 Y26.4000 Z-1.2500 I0.3479 J0.1974 F600.00
G1 X25.0000 Y26.4000 Z-1.2500 F600.00
G2 X25.2828 Y26.2828 Z-1.2500 I-0.0000 J-0.4000 F600.00
G1 X25.2828 Y26.2828 Z-1.5000 F100.00
G2 X25.4000 Y26.0000 Z-1.5000 I-0.2828 J-0.2828 F600.00
G1 X25.4000 Y0.0000 Z-1.5000 F600.00
G2 X25.0000 Y-0.4000 Z-1.5000 I-0.4000 J0.0000 F600.00
G1 X13.0000 Y-0.4000 Z-1.5000 F600.00
G2 X12.6000 Y0.0000 Z-1.5000 I0.0000 J0.4000 F600.00
G1 X12.6000 Y12.2845 Z-1.5000 F600.00
G2 X12.6994 Y12.5485 Z-1.5000 I0.4000 J-0.0000 F600.00
G3 X14.0599 Y25.8026 Z-1.5000 I-7.8427 J7.5019 F600.00
G2 X14.4078 Y26.4000 Z-1.5000 I0.3479 J0.1974 F600.00
G1 X25.0000 Y26.4000 Z-1.5000 F600.00
G2 X25.2828 Y26.2828 Z-1.5000 I-0.0000 J-0.4000 F600.00
G1 X25.2828 Y26.2828 Z-1.7500 F100.00
G2 X25.4000 Y26.0000 Z-1.7500 I-0.2828 J-0.2828 F600.00
G1 X25.4000 Y0.0000 Z-1.7500 F600.00
G2 X25.0000 Y-0.4000 Z-1.7500 I-0.4000 J0.0000 F600.00
G1 X13.0000 Y-0.4000 Z-1.7500 F600.00
G2 X12.6000 Y0.0000 Z-1.7500 I0.0000 J0.4000 F600.00
G1 X12.6000 Y12.2845 Z-1.7500 F600.00
G2 X12.6994 Y12.5485 Z-1.7500 I0.4000 J-0.0000 F600.00
G3 X14.0599 Y25.8026 Z-1.7500 I-7.8427 J7.5019 F600.00
G2 X14.4078 Y26.4000 Z-1.7500 I0.3479 J0.1974 F600.00
G1 X25.0000 Y26.4000 Z-1.7500 F600.00
G2 X25.2828 Y26.2828 Z-1.7500 I-0.0000 J-0.4000 F600.00
G1 X25.2828 Y26.2828 Z-2.0000 F100.00
G2 X25.4000 Y26.0000 Z-2.0000 I-0.2828 J-0.2828 F600.00
G1 X25.4000 Y0.0000 Z-2.0000 F600.00
G2 X25.0000 Y-0.4000 Z-2.0000 I-0.4000 J0.0000 F600.00
G1 X13.0000 Y-0.4000 Z-2.0000 F600.00
G2 X12.6000 Y0.0000 Z-2.0000 I0.0000 J0.4000 F600.00
G1 X12.6000 Y12.2845 Z-2.0000 F600.00
G2 X12.6994 Y12.5485 Z-2.0000 I0.4000 J-0.0000 F600.00
G3 X14.0599 Y25.8026 Z-2.0000 I-7.8427 J7.5019 F600.00
G2 X14.4078 Y26.4000 Z-2.0000 I0.3479 J0.1974 F600.00
G1 X25.0000 Y26.4000 Z-2.0000 F600.00
G2 X25.2828 Y26.2828 Z-2.0000 I-0.0000 J-0.4000 F600.00
G1 X25.2828 Y26.2828 Z-2.2500 F100.00
G2 X25.4000 Y26.0000 Z-2.2500 I-0.2828 J-0.2828 F600.00
G1 X25.4000 Y0.0000 Z-2.2500 F600.00
G2 X25.0000 Y-0.4000 Z-2.2500 I-0.4000 J0.0000 F600.00
G1 X13.0000 Y-0.4000 Z-2.2500 F600.00
G2 X12.6000 Y0.0000 Z-2.2500 I0.0000 J0.4000 F600.00
G1 X12.6000 Y12.2845 Z-2.2500 F600.00
G2 X12.6994 Y12.5485 Z-2.2500 I0.4000 J-0.0000 F600.00
G3 X14.0599 Y25.8026 Z-2.2500 I-7.8427 J7.5019 F600.00
G2 X14.4078 Y26.4000 Z-2.2500 I0.3479 J0.1974 F600.00
G1 X25.0000 Y26.4000 Z-2.2500 F600.00
G2 X25.2828 Y26.2828 Z-2.2500 I-0.0000 J-0.4000 F600.00
G1 X25.2828 Y26.2828 Z-2.5000 F100.00
G2 X25.4000 Y26.0000 Z-2.5000 I-0.2828 J-0.2828 F600.00
G1 X25.4000 Y0.0000 Z-2.5000 F600.00
G2 X25.0000 Y-0.4000 Z-2.5000 I-0.4000 J0.0000 F600.00
G1 X13.0000 Y-0.4000 Z-2.5000 F600.00
G2 X12.6000 Y0.0000 Z-2.5000 I0.0000 J0.4000 F600.00
G1 X12.6000 Y12.2845 Z-2.5000 F600.00
G2 X12.6994 Y12.5485 Z-2.5000 I0.4000 J-0.0000 F600.00
G3 X14.0599 Y25.8026 Z-2.5000 I-7.8427 J7.5019 F600.00
G2 X14.4078 Y26.4000 Z-2.5000 I0.3479 J0.1974 F600.00
G1 X25.0000 Y26.4000 Z-2.5000 F600.00
G2 X25.2828 Y26.2828 Z-2.5000 I-0.0000 J-0.4000 F600.00
G1 X25.2828 Y26.2828 Z-2.7500 F100.00
G2 X25.4000 Y26.0000 Z-2.7500 I-0.2828 J-0.2828 F600.00
G1 X25.4000 Y0.0000 Z-2.7500 F600.00
G2 X25.0000 Y-0.4000 Z-2.7500 I-0.4000 J0.0000 F600.00
G1 X13.0000 Y-0.4000 Z-2.7500 F600.00
G2 X12.6000 Y0.0000 Z-2.7500 I0.0000 J0.4000 F600.00
G1 X12.6000 Y12.2845 Z-2.7500 F600.00
G2 X12.6994 Y12.5485 Z-2.7500 I0.4000 J-0.0000 F600.00
G3 X14.0599 Y25.8026 Z-2.7500 I-7.8427 J7.5019 F600.00
G2 X14.4078 Y26.4000 Z-2.7500 I0.3479 J0.1974 F600.00
G1 X25.0000 Y26.4000 Z-2.7500 F600.00
G2 X25.2828 Y26.2828 Z-2.7500 I-0.0000 J-0.4000 F600.00
G1 X25.2828 Y26.2828 Z-3.0000 F100.00
G2 X25.4000 Y26.0000 Z-3.0000 I-0.2828 J-0.2828 F600.00
G1 X25.4000 Y0.0000 Z-3.0000 F600.00
G2 X25.0000 Y-0.4000 Z-3.0000 I-0.4000 J0.0000 F600.00
G1 X13.0000 Y-0.4000 Z-3.0000 F600.00
G2 X12.6000 Y0.0000 Z-3.0000 I0.0000 J0.4000 F600.00
G1 X12.6000 Y12.2845 Z-3.0000 F600.00
G2 X12.6994 Y12.5485 Z-3.0000 I0.4000 J-0.0000 F600.00
G3 X14.0599 Y25.8026 Z-3.0000 I-7.8427 J7.5019 F600.00
G2 X14.4078 Y26.4000 Z-3.0000 I0.3479 J0.1974 F600.00
G1 X25.0000 Y26.4000 Z-3.0000 F600.00
G2 X25.2828 Y26.2828 Z-3.0000 I-0.0000 J-0.4000 F600.00
G0 Z5.0000
(finish operation: contour_right001)
(begin operation: Contour009)
(Path: Contour009)
(Contour009)
(Compensated Tool Path. Diameter: 0.8)
G0 Z5.0000
G0 X25.2828 Y26.2828
G0 Z3.0000
G1 X25.2828 Y26.2828 Z-0.2500 F100.00
G2 X25.4000 Y26.0000 Z-0.2500 I-0.2828 J-0.2828 F600.00
G1 X25.4000 Y0.0000 Z-0.2500 F600.00
G2 X25.0000 Y-0.4000 Z-0.2500 I-0.4000 J0.0000 F600.00
G1 X13.0000 Y-0.4000 Z-0.2500 F600.00
G2 X12.6000 Y0.0000 Z-0.2500 I0.0000 J0.4000 F600.00
G1 X12.6000 Y12.2845 Z-0.2500 F600.00
G2 X12.6994 Y12.5485 Z-0.2500 I0.4000 J-0.0000 F600.00
G3 X14.0599 Y25.8026 Z-0.2500 I-7.8427 J7.5019 F600.00
G2 X14.4078 Y26.4000 Z-0.2500 I0.3479 J0.1974 F600.00
G1 X25.0000 Y26.4000 Z-0.2500 F600.00
G2 X25.2828 Y26.2828 Z-0.2500 I-0.0000 J-0.4000 F600.00
G1 X25.2828 Y26.2828 Z-0.5000 F100.00
G2 X25.4000 Y26.0000 Z-0.5000 I-0.2828 J-0.2828 F600.00
G1 X25.4000 Y0.0000 Z-0.5000 F600.00
G2 X25.0000 Y-0.4000 Z-0.5000 I-0.4000 J0.0000 F600.00
G1 X13.0000 Y-0.4000 Z-0.5000 F600.00
G2 X12.6000 Y0.0000 Z-0.5000 I0.0000 J0.4000 F600.00
G1 X12.6000 Y12.2845 Z-0.5000 F600.00
G2 X12.6994 Y12.5485 Z-0.5000 I0.4000 J-0.0000 F600.00
G3 X14.0599 Y25.8026 Z-0.5000 I-7.8427 J7.5019 F600.00
G2 X14.4078 Y26.4000 Z-0.5000 I0.3479 J0.1974 F600.00
G1 X25.0000 Y26.4000 Z-0.5000 F600.00
G2 X25.2828 Y26.2828 Z-0.5000 I-0.0000 J-0.4000 F600.00
G1 X25.2828 Y26.2828 Z-0.7500 F100.00
G2 X25.4000 Y26.0000 Z-0.7500 I-0.2828 J-0.2828 F600.00
G1 X25.4000 Y0.0000 Z-0.7500 F600.00
G2 X25.0000 Y-0.4000 Z-0.7500 I-0.4000 J0.0000 F600.00
G1 X13.0000 Y-0.4000 Z-0.7500 F600.00
G2 X12.6000 Y0.0000 Z-0.7500 I0.0000 J0.4000 F600.00
G1 X12.6000 Y12.2845 Z-0.7500 F600.00
G2 X12.6994 Y12.5485 Z-0.7500 I0.4000 J-0.0000 F600.00
G3 X14.0599 Y25.8026 Z-0.7500 I-7.8427 J7.5019 F600.00
G2 X14.4078 Y26.4000 Z-0.7500 I0.3479 J0.1974 F600.00
G1 X25.0000 Y26.4000 Z-0.7500 F600.00
G2 X25.2828 Y26.2828 Z-0.7500 I-0.0000 J-0.4000 F600.00
G1 X25.2828 Y26.2828 Z-1.0000 F100.00
G2 X25.4000 Y26.0000 Z-1.0000 I-0.2828 J-0.2828 F600.00
G1 X25.4000 Y0.0000 Z-1.0000 F600.00
G2 X25.0000 Y-0.4000 Z-1.0000 I-0.4000 J0.0000 F600.00
G1 X13.0000 Y-0.4000 Z-1.0000 F600.00
G2 X12.6000 Y0.0000 Z-1.0000 I0.0000 J0.4000 F600.00
G1 X12.6000 Y12.2845 Z-1.0000 F600.00
G2 X12.6994 Y12.5485 Z-1.0000 I0.4000 J-0.0000 F600.00
G3 X14.0599 Y25.8026 Z-1.0000 I-7.8427 J7.5019 F600.00
G2 X14.4078 Y26.4000 Z-1.0000 I0.3479 J0.1974 F600.00
G1 X25.0000 Y26.4000 Z-1.0000 F600.00
G2 X25.2828 Y26.2828 Z-1.0000 I-0.0000 J-0.4000 F600.00
G1 X25.2828 Y26.2828 Z-1.2500 F100.00
G2 X25.4000 Y26.0000 Z-1.2500 I-0.2828 J-0.2828 F600.00
G1 X25.4000 Y0.0000 Z-1.2500 F600.00
G2 X25.0000 Y-0.4000 Z-1.2500 I-0.4000 J0.0000 F600.00
G1 X13.0000 Y-0.4000 Z-1.2500 F600.00
G2 X12.6000 Y0.0000 Z-1.2500 I0.0000 J0.4000 F600.00
G1 X12.6000 Y12.2845 Z-1.2500 F600.00
G2 X12.6994 Y12.5485 Z-1.2500 I0.4000 J-0.0000 F600.00
G3 X14.0599 Y25.8026 Z-1.2500 I-7.8427 J7.5019 F600.00
G2 X14.4078 Y26.4000 Z-1.2500 I0.3479 J0.1974 F600.00
G1 X25.0000 Y26.4000 Z-1.2500 F600.00
G2 X25.2828 Y26.2828 Z-1.2500 I-0.0000 J-0.4000 F600.00
G1 X25.2828 Y26.2828 Z-1.5000 F100.00
G2 X25.4000 Y26.0000 Z-1.5000 I-0.2828 J-0.2828 F600.00
G1 X25.4000 Y0.0000 Z-1.5000 F600.00
G2 X25.0000 Y-0.4000 Z-1.5000 I-0.4000 J0.0000 F600.00
G1 X13.0000 Y-0.4000 Z-1.5000 F600.00
G2 X12.6000 Y0.0000 Z-1.5000 I0.0000 J0.4000 F600.00
G1 X12.6000 Y12.2845 Z-1.5000 F600.00
G2 X12.6994 Y12.5485 Z-1.5000 I0.4000 J-0.0000 F600.00
G3 X14.0599 Y25.8026 Z-1.5000 I-7.8427 J7.5019 F600.00
G2 X14.4078 Y26.4000 Z-1.5000 I0.3479 J0.1974 F600.00
G1 X25.0000 Y26.4000 Z-1.5000 F600.00
G2 X25.2828 Y26.2828 Z-1.5000 I-0.0000 J-0.4000 F600.00
G1 X25.2828 Y26.2828 Z-1.7500 F100.00
G2 X25.4000 Y26.0000 Z-1.7500 I-0.2828 J-0.2828 F600.00
G1 X25.4000 Y0.0000 Z-1.7500 F600.00
G2 X25.0000 Y-0.4000 Z-1.7500 I-0.4000 J0.0000 F600.00
G1 X13.0000 Y-0.4000 Z-1.7500 F600.00
G2 X12.6000 Y0.0000 Z-1.7500 I0.0000 J0.4000 F600.00
G1 X12.6000 Y12.2845 Z-1.7500 F600.00
G2 X12.6994 Y12.5485 Z-1.7500 I0.4000 J-0.0000 F600.00
G3 X14.0599 Y25.8026 Z-1.7500 I-7.8427 J7.5019 F600.00
G2 X14.4078 Y26.4000 Z-1.7500 I0.3479 J0.1974 F600.00
G1 X25.0000 Y26.4000 Z-1.7500 F600.00
G2 X25.2828 Y26.2828 Z-1.7500 I-0.0000 J-0.4000 F600.00
G1 X25.2828 Y26.2828 Z-2.0000 F100.00
G2 X25.4000 Y26.0000 Z-2.0000 I-0.2828 J-0.2828 F600.00
G1 X25.4000 Y0.0000 Z-2.0000 F600.00
G2 X25.0000 Y-0.4000 Z-2.0000 I-0.4000 J0.0000 F600.00
G1 X13.0000 Y-0.4000 Z-2.0000 F600.00
G2 X12.6000 Y0.0000 Z-2.0000 I0.0000 J0.4000 F600.00
G1 X12.6000 Y12.2845 Z-2.0000 F600.00
G2 X12.6994 Y12.5485 Z-2.0000 I0.4000 J-0.0000 F600.00
G3 X14.0599 Y25.8026 Z-2.0000 I-7.8427 J7.5019 F600.00
G2 X14.4078 Y26.4000 Z-2.0000 I0.3479 J0.1974 F600.00
G1 X25.0000 Y26.4000 Z-2.0000 F600.00
G2 X25.2828 Y26.2828 Z-2.0000 I-0.0000 J-0.4000 F600.00
G1 X25.2828 Y26.2828 Z-2.2500 F100.00
G2 X25.4000 Y26.0000 Z-2.2500 I-0.2828 J-0.2828 F600.00
G1 X25.4000 Y0.0000 Z-2.2500 F600.00
G2 X25.0000 Y-0.4000 Z-2.2500 I-0.4000 J0.0000 F600.00
G1 X13.0000 Y-0.4000 Z-2.2500 F600.00
G2 X12.6000 Y0.0000 Z-2.2500 I0.0000 J0.4000 F600.00
G1 X12.6000 Y12.2845 Z-2.2500 F600.00
G2 X12.6994 Y12.5485 Z-2.2500 I0.4000 J-0.0000 F600.00
G3 X14.0599 Y25.8026 Z-2.2500 I-7.8427 J7.5019 F600.00
G2 X14.4078 Y26.4000 Z-2.2500 I0.3479 J0.1974 F600.00
G1 X25.0000 Y26.4000 Z-2.2500 F600.00
G2 X25.2828 Y26.2828 Z-2.2500 I-0.0000 J-0.4000 F600.00
G1 X25.2828 Y26.2828 Z-2.5000 F100.00
G2 X25.4000 Y26.0000 Z-2.5000 I-0.2828 J-0.2828 F600.00
G1 X25.4000 Y0.0000 Z-2.5000 F600.00
G2 X25.0000 Y-0.4000 Z-2.5000 I-0.4000 J0.0000 F600.00
G1 X13.0000 Y-0.4000 Z-2.5000 F600.00
G2 X12.6000 Y0.0000 Z-2.5000 I0.0000 J0.4000 F600.00
G1 X12.6000 Y12.2845 Z-2.5000 F600.00
G2 X12.6994 Y12.5485 Z-2.5000 I0.4000 J-0.0000 F600.00
G3 X14.0599 Y25.8026 Z-2.5000 I-7.8427 J7.5019 F600.00
G2 X14.4078 Y26.4000 Z-2.5000 I0.3479 J0.1974 F600.00
G1 X25.0000 Y26.4000 Z-2.5000 F600.00
G2 X25.2828 Y26.2828 Z-2.5000 I-0.0000 J-0.4000 F600.00
G1 X25.2828 Y26.2828 Z-2.7500 F100.00
G2 X25.4000 Y26.0000 Z-2.7500 I-0.2828 J-0.2828 F600.00
G1 X25.4000 Y0.0000 Z-2.7500 F600.00
G2 X25.0000 Y-0.4000 Z-2.7500 I-0.4000 J0.0000 F600.00
G1 X13.0000 Y-0.4000 Z-2.7500 F600.00
G2 X12.6000 Y0.0000 Z-2.7500 I0.0000 J0.4000 F600.00
G1 X12.6000 Y12.2845 Z-2.7500 F600.00
G2 X12.6994 Y12.5485 Z-2.7500 I0.4000 J-0.0000 F600.00
G3 X14.0599 Y25.8026 Z-2.7500 I-7.8427 J7.5019 F600.00
G2 X14.4078 Y26.4000 Z-2.7500 I0.3479 J0.1974 F600.00
G1 X25.0000 Y26.4000 Z-2.7500 F600.00
G2 X25.2828 Y26.2828 Z-2.7500 I-0.0000 J-0.4000 F600.00
G1 X25.2828 Y26.2828 Z-3.0000 F100.00
G2 X25.4000 Y26.0000 Z-3.0000 I-0.2828 J-0.2828 F600.00
G1 X25.4000 Y0.0000 Z-3.0000 F600.00
G2 X25.0000 Y-0.4000 Z-3.0000 I-0.4000 J0.0000 F600.00
G1 X13.0000 Y-0.4000 Z-3.0000 F600.00
G2 X12.6000 Y0.0000 Z-3.0000 I0.0000 J0.4000 F600.00
G1 X12.6000 Y12.2845 Z-3.0000 F600.00
G2 X12.6994 Y12.5485 Z-3.0000 I0.4000 J-0.0000 F600.00
G3 X14.0599 Y25.8026 Z-3.0000 I-7.8427 J7.5019 F600.00
G2 X14.4078 Y26.4000 Z-3.0000 I0.3479 J0.1974 F600.00
G1 X25.0000 Y26.4000 Z-3.0000 F600.00
G2 X25.2828 Y26.2828 Z-3.0000 I-0.0000 J-0.4000 F600.00
G0 Z5.0000
G0 X12.2828 Y26.2828
G0 Z3.0000
G1 X12.2828 Y26.2828 Z-0.2500 F100.00
G2 X12.4000 Y26.0000 Z-0.2500 I-0.2828 J-0.2828 F600.00
G1 X12.4000 Y0.0000 Z-0.2500 F600.00
G2 X12.0000 Y-0.4000 Z-0.2500 I-0.4000 J0.0000 F600.00
G1 X0.0000 Y-0.4000 Z-0.2500 F600.00
G2 X-0.4000 Y0.0000 Z-0.2500 I0.0000 J0.4000 F600.00
G1 X-0.4000 Y26.0000 Z-0.2500 F600.00
G2 X0.0000 Y26.4000 Z-0.2500 I0.4000 J-0.0000 F600.00
G1 X12.0000 Y26.4000 Z-0.2500 F600.00
G2 X12.2828 Y26.2828 Z-0.2500 I-0.0000 J-0.4000 F600.00
G1 X12.2828 Y26.2828 Z-0.5000 F100.00
G2 X12.4000 Y26.0000 Z-0.5000 I-0.2828 J-0.2828 F600.00
G1 X12.4000 Y0.0000 Z-0.5000 F600.00
G2 X12.0000 Y-0.4000 Z-0.5000 I-0.4000 J0.0000 F600.00
G1 X0.0000 Y-0.4000 Z-0.5000 F600.00
G2 X-0.4000 Y0.0000 Z-0.5000 I0.0000 J0.4000 F600.00
G1 X-0.4000 Y26.0000 Z-0.5000 F600.00
G2 X0.0000 Y26.4000 Z-0.5000 I0.4000 J-0.0000 F600.00
G1 X12.0000 Y26.4000 Z-0.5000 F600.00
G2 X12.2828 Y26.2828 Z-0.5000 I-0.0000 J-0.4000 F600.00
G1 X12.2828 Y26.2828 Z-0.7500 F100.00
G2 X12.4000 Y26.0000 Z-0.7500 I-0.2828 J-0.2828 F600.00
G1 X12.4000 Y0.0000 Z-0.7500 F600.00
G2 X12.0000 Y-0.4000 Z-0.7500 I-0.4000 J0.0000 F600.00
G1 X0.0000 Y-0.4000 Z-0.7500 F600.00
G2 X-0.4000 Y0.0000 Z-0.7500 I0.0000 J0.4000 F600.00
G1 X-0.4000 Y26.0000 Z-0.7500 F600.00
G2 X0.0000 Y26.4000 Z-0.7500 I0.4000 J-0.0000 F600.00
G1 X12.0000 Y26.4000 Z-0.7500 F600.00
G2 X12.2828 Y26.2828 Z-0.7500 I-0.0000 J-0.4000 F600.00
G1 X12.2828 Y26.2828 Z-1.0000 F100.00
G2 X12.4000 Y26.0000 Z-1.0000 I-0.2828 J-0.2828 F600.00
G1 X12.4000 Y0.0000 Z-1.0000 F600.00
G2 X12.0000 Y-0.4000 Z-1.0000 I-0.4000 J0.0000 F600.00
G1 X0.0000 Y-0.4000 Z-1.0000 F600.00
G2 X-0.4000 Y0.0000 Z-1.0000 I0.0000 J0.4000 F600.00
G1 X-0.4000 Y26.0000 Z-1.0000 F600.00
G2 X0.0000 Y26.4000 Z-1.0000 I0.4000 J-0.0000 F600.00
G1 X12.0000 Y26.4000 Z-1.0000 F600.00
G2 X12.2828 Y26.2828 Z-1.0000 I-0.0000 J-0.4000 F600.00
G1 X12.2828 Y26.2828 Z-1.2500 F100.00
G2 X12.4000 Y26.0000 Z-1.2500 I-0.2828 J-0.2828 F600.00
G1 X12.4000 Y0.0000 Z-1.2500 F600.00
G2 X12.0000 Y-0.4000 Z-1.2500 I-0.4000 J0.0000 F600.00
G1 X0.0000 Y-0.4000 Z-1.2500 F600.00
G2 X-0.4000 Y0.0000 Z-1.2500 I0.0000 J0.4000 F600.00
G1 X-0.4000 Y26.0000 Z-1.2500 F600.00
G2 X0.0000 Y26.4000 Z-1.2500 I0.4000 J-0.0000 F600.00
G1 X12.0000 Y26.4000 Z-1.2500 F600.00
G2 X12.2828 Y26.2828 Z-1.2500 I-0.0000 J-0.4000 F600.00
G1 X12.2828 Y26.2828 Z-1.5000 F100.00
G2 X12.4000 Y26.0000 Z-1.5000 I-0.2828 J-0.2828 F600.00
G1 X12.4000 Y0.0000 Z-1.5000 F600.00
G2 X12.0000 Y-0.4000 Z-1.5000 I-0.4000 J0.0000 F600.00
G1 X0.0000 Y-0.4000 Z-1.5000 F600.00
G2 X-0.4000 Y0.0000 Z-1.5000 I0.0000 J0.4000 F600.00
G1 X-0.4000 Y26.0000 Z-1.5000 F600.00
G2 X0.0000 Y26.4000 Z-1.5000 I0.4000 J-0.0000 F600.00
G1 X12.0000 Y26.4000 Z-1.5000 F600.00
G2 X12.2828 Y26.2828 Z-1.5000 I-0.0000 J-0.4000 F600.00
G1 X12.2828 Y26.2828 Z-1.7500 F100.00
G2 X12.4000 Y26.0000 Z-1.7500 I-0.2828 J-0.2828 F600.00
G1 X12.4000 Y0.0000 Z-1.7500 F600.00
G2 X12.0000 Y-0.4000 Z-1.7500 I-0.4000 J0.0000 F600.00
G1 X0.0000 Y-0.4000 Z-1.7500 F600.00
G2 X-0.4000 Y0.0000 Z-1.7500 I0.0000 J0.4000 F600.00
G1 X-0.4000 Y26.0000 Z-1.7500 F600.00
G2 X0.0000 Y26.4000 Z-1.7500 I0.4000 J-0.0000 F600.00
G1 X12.0000 Y26.4000 Z-1.7500 F600.00
G2 X12.2828 Y26.2828 Z-1.7500 I-0.0000 J-0.4000 F600.00
G1 X12.2828 Y26.2828 Z-2.0000 F100.00
G2 X12.4000 Y26.0000 Z-2.0000 I-0.2828 J-0.2828 F600.00
G1 X12.4000 Y0.0000 Z-2.0000 F600.00
G2 X12.0000 Y-0.4000 Z-2.0000 I-0.4000 J0.0000 F600.00
G1 X0.0000 Y-0.4000 Z-2.0000 F600.00
G2 X-0.4000 Y0.0000 Z-2.0000 I0.0000 J0.4000 F600.00
G1 X-0.4000 Y26.0000 Z-2.0000 F600.00
G2 X0.0000 Y26.4000 Z-2.0000 I0.4000 J-0.0000 F600.00
G1 X12.0000 Y26.4000 Z-2.0000 F600.00
G2 X12.2828 Y26.2828 Z-2.0000 I-0.0000 J-0.4000 F600.00
G1 X12.2828 Y26.2828 Z-2.2500 F100.00
G2 X12.4000 Y26.0000 Z-2.2500 I-0.2828 J-0.2828 F600.00
G1 X12.4000 Y0.0000 Z-2.2500 F600.00
G2 X12.0000 Y-0.4000 Z-2.2500 I-0.4000 J0.0000 F600.00
G1 X0.0000 Y-0.4000 Z-2.2500 F600.00
G2 X-0.4000 Y0.0000 Z-2.2500 I0.0000 J0.4000 F600.00
G1 X-0.4000 Y26.0000 Z-2.2500 F600.00
G2 X0.0000 Y26.4000 Z-2.2500 I0.4000 J-0.0000 F600.00
G1 X12.0000 Y26.4000 Z-2.2500 F600.00
G2 X12.2828 Y26.2828 Z-2.2500 I-0.0000 J-0.4000 F600.00
G1 X12.2828 Y26.2828 Z-2.5000 F100.00
G2 X12.4000 Y26.0000 Z-2.5000 I-0.2828 J-0.2828 F600.00
G1 X12.4000 Y0.0000 Z-2.5000 F600.00
G2 X12.0000 Y-0.4000 Z-2.5000 I-0.4000 J0.0000 F600.00
G1 X0.0000 Y-0.4000 Z-2.5000 F600.00
G2 X-0.4000 Y0.0000 Z-2.5000 I0.0000 J0.4000 F600.00
G1 X-0.4000 Y26.0000 Z-2.5000 F600.00
G2 X0.0000 Y26.4000 Z-2.5000 I0.4000 J-0.0000 F600.00
G1 X12.0000 Y26.4000 Z-2.5000 F600.00
G2 X12.2828 Y26.2828 Z-2.5000 I-0.0000 J-0.4000 F600.00
G1 X12.2828 Y26.2828 Z-2.7500 F100.00
G2 X12.4000 Y26.0000 Z-2.7500 I-0.2828 J-0.2828 F600.00
G1 X12.4000 Y0.0000 Z-2.7500 F600.00
G2 X12.0000 Y-0.4000 Z-2.7500 I-0.4000 J0.0000 F600.00
G1 X0.0000 Y-0.4000 Z-2.7500 F600.00
G2 X-0.4000 Y0.0000 Z-2.7500 I0.0000 J0.4000 F600.00
G1 X-0.4000 Y26.0000 Z-2.7500 F600.00
G2 X0.0000 Y26.4000 Z-2.7500 I0.4000 J-0.0000 F600.00
G1 X12.0000 Y26.4000 Z-2.7500 F600.00
G2 X12.2828 Y26.2828 Z-2.7500 I-0.0000 J-0.4000 F600.00
G1 X12.2828 Y26.2828 Z-3.0000 F100.00
G2 X12.4000 Y26.0000 Z-3.0000 I-0.2828 J-0.2828 F600.00
G1 X12.4000 Y0.0000 Z-3.0000 F600.00
G2 X12.0000 Y-0.4000 Z-3.0000 I-0.4000 J0.0000 F600.00
G1 X0.0000 Y-0.4000 Z-3.0000 F600.00
G2 X-0.4000 Y0.0000 Z-3.0000 I0.0000 J0.4000 F600.00
G1 X-0.4000 Y26.0000 Z-3.0000 F600.00
G2 X0.0000 Y26.4000 Z-3.0000 I0.4000 J-0.0000 F600.00
G1 X12.0000 Y26.4000 Z-3.0000 F600.00
G2 X12.2828 Y26.2828 Z-3.0000 I-0.0000 J-0.4000 F600.00
G0 Z5.0000
G0 X38.2828 Y26.2828
G0 Z3.0000
G1 X38.2828 Y26.2828 Z-0.2500 F100.00
G2 X38.4000 Y26.0000 Z-0.2500 I-0.2828 J-0.2828 F600.00
G1 X38.4000 Y0.0000 Z-0.2500 F600.00
G2 X38.0000 Y-0.4000 Z-0.2500 I-0.4000 J0.0000 F600.00
G1 X26.0000 Y-0.4000 Z-0.2500 F600.00
G2 X25.6000 Y0.0000 Z-0.2500 I0.0000 J0.4000 F600.00
G1 X25.6000 Y26.0000 Z-0.2500 F600.00
G2 X26.0000 Y26.4000 Z-0.2500 I0.4000 J-0.0000 F600.00
G1 X38.0000 Y26.4000 Z-0.2500 F600.00
G2 X38.2828 Y26.2828 Z-0.2500 I-0.0000 J-0.4000 F600.00
G1 X38.2828 Y26.2828 Z-0.5000 F100.00
G2 X38.4000 Y26.0000 Z-0.5000 I-0.2828 J-0.2828 F600.00
G1 X38.4000 Y0.0000 Z-0.5000 F600.00
G2 X38.0000 Y-0.4000 Z-0.5000 I-0.4000 J0.0000 F600.00
G1 X26.0000 Y-0.4000 Z-0.5000 F600.00
G2 X25.6000 Y0.0000 Z-0.5000 I0.0000 J0.4000 F600.00
G1 X25.6000 Y26.0000 Z-0.5000 F600.00
G2 X26.0000 Y26.4000 Z-0.5000 I0.4000 J-0.0000 F600.00
G1 X38.0000 Y26.4000 Z-0.5000 F600.00
G2 X38.2828 Y26.2828 Z-0.5000 I-0.0000 J-0.4000 F600.00
G1 X38.2828 Y26.2828 Z-0.7500 F100.00
G2 X38.4000 Y26.0000 Z-0.7500 I-0.2828 J-0.2828 F600.00
G1 X38.4000 Y0.0000 Z-0.7500 F600.00
G2 X38.0000 Y-0.4000 Z-0.7500 I-0.4000 J0.0000 F600.00
G1 X26.0000 Y-0.4000 Z-0.7500 F600.00
G2 X25.6000 Y0.0000 Z-0.7500 I0.0000 J0.4000 F600.00
G1 X25.6000 Y26.0000 Z-0.7500 F600.00
G2 X26.0000 Y26.4000 Z-0.7500 I0.4000 J-0.0000 F600.00
G1 X38.0000 Y26.4000 Z-0.7500 F600.00
G2 X38.2828 Y26.2828 Z-0.7500 I-0.0000 J-0.4000 F600.00
G1 X38.2828 Y26.2828 Z-1.0000 F100.00
G2 X38.4000 Y26.0000 Z-1.0000 I-0.2828 J-0.2828 F600.00
G1 X38.4000 Y0.0000 Z-1.0000 F600.00
G2 X38.0000 Y-0.4000 Z-1.0000 I-0.4000 J0.0000 F600.00
G1 X26.0000 Y-0.4000 Z-1.0000 F600.00
G2 X25.6000 Y0.0000 Z-1.0000 I0.0000 J0.4000 F600.00
G1 X25.6000 Y26.0000 Z-1.0000 F600.00
G2 X26.0000 Y26.4000 Z-1.0000 I0.4000 J-0.0000 F600.00
G1 X38.0000 Y26.4000 Z-1.0000 F600.00
G2 X38.2828 Y26.2828 Z-1.0000 I-0.0000 J-0.4000 F600.00
G1 X38.2828 Y26.2828 Z-1.2500 F100.00
G2 X38.4000 Y26.0000 Z-1.2500 I-0.2828 J-0.2828 F600.00
G1 X38.4000 Y0.0000 Z-1.2500 F600.00
G2 X38.0000 Y-0.4000 Z-1.2500 I-0.4000 J0.0000 F600.00
G1 X26.0000 Y-0.4000 Z-1.2500 F600.00
G2 X25.6000 Y0.0000 Z-1.2500 I0.0000 J0.4000 F600.00
G1 X25.6000 Y26.0000 Z-1.2500 F600.00
G2 X26.0000 Y26.4000 Z-1.2500 I0.4000 J-0.0000 F600.00
G1 X38.0000 Y26.4000 Z-1.2500 F600.00
G2 X38.2828 Y26.2828 Z-1.2500 I-0.0000 J-0.4000 F600.00
G1 X38.2828 Y26.2828 Z-1.5000 F100.00
G2 X38.4000 Y26.0000 Z-1.5000 I-0.2828 J-0.2828 F600.00
G1 X38.4000 Y0.0000 Z-1.5000 F600.00
G2 X38.0000 Y-0.4000 Z-1.5000 I-0.4000 J0.0000 F600.00
G1 X26.0000 Y-0.4000 Z-1.5000 F600.00
G2 X25.6000 Y0.0000 Z-1.5000 I0.0000 J0.4000 F600.00
G1 X25.6000 Y26.0000 Z-1.5000 F600.00
G2 X26.0000 Y26.4000 Z-1.5000 I0.4000 J-0.0000 F600.00
G1 X38.0000 Y26.4000 Z-1.5000 F600.00
G2 X38.2828 Y26.2828 Z-1.5000 I-0.0000 J-0.4000 F600.00
G1 X38.2828 Y26.2828 Z-1.7500 F100.00
G2 X38.4000 Y26.0000 Z-1.7500 I-0.2828 J-0.2828 F600.00
G1 X38.4000 Y0.0000 Z-1.7500 F600.00
