(Exported by FreeCAD)
(Post Processor: grbl_post)
(Output Time:2019-09-20 13:03:10.390317)
(begin preamble)
G17 G90
G21
(begin operation: T2: end mill 3mm005)
(Path: T2: end mill 3mm005)
(T2: end mill 3mm005)
(begin toolchange)
; M6 T2
M3 S10000.0000
(finish operation: T2: end mill 3mm005)
(begin operation: MillFace028)
(Path: MillFace028)
(MillFace028)
G0 Z5.0000
G0 X24.5000 Y25.5000
G0 Z3.0000
G1 X24.5000 Y25.5000 Z-0.2500 F100.00
G1 X24.5000 Y0.5000 Z-0.2500 F600.00
G1 X13.5000 Y0.5000 Z-0.2500 F600.00
G1 X13.5000 Y12.0961 Z-0.2500 F600.00
G3 X15.2663 Y25.5000 Z-0.2500 I-8.6149 J7.9536 F600.00
G1 X24.5000 Y25.5000 Z-0.2500 F600.00
G0 X24.5000 Y25.5000 Z5.0000
G0 X15.3644 Y25.3056 Z5.0000
G0 X15.3644 Y25.3056 Z2.7500
G1 X15.3644 Y25.3056 Z-0.2500 F100.00
G1 X15.5589 Y25.5000 Z-0.2500 F600.00
G1 X15.2663 Y25.5000 Z-0.2500 F600.00
G2 X15.3644 Y25.3056 Z-0.2500 I-1.2553 J-0.7556 F600.00
G2 X15.9871 Y23.8070 Z-0.2500 I-8.8737 J-4.5658 F600.00
G1 X17.6802 Y25.5000 Z-0.2500 F600.00
G1 X19.8015 Y25.5000 Z-0.2500 F600.00
G1 X16.4177 Y22.1162 Z-0.2500 F600.00
G2 X16.6004 Y20.1776 Z-0.2500 I-8.6570 J-1.7937 F600.00
G1 X21.9228 Y25.5000 Z-0.2500 F600.00
G1 X24.0442 Y25.5000 Z-0.2500 F600.00
G1 X16.4029 Y17.8588 Z-0.2500 F600.00
G2 X15.2530 Y14.5876 Z-0.2500 I-11.0932 J2.0618 F600.00
G1 X24.5000 Y23.8345 Z-0.2500 F600.00
G1 X24.5000 Y21.7132 Z-0.2500 F600.00
G1 X13.5000 Y10.7132 Z-0.2500 F600.00
G1 X13.5000 Y8.5919 Z-0.2500 F600.00
G1 X24.5000 Y19.5919 Z-0.2500 F600.00
G1 X24.5000 Y17.4706 Z-0.2500 F600.00
G1 X13.5000 Y6.4706 Z-0.2500 F600.00
G1 X13.5000 Y4.3492 Z-0.2500 F600.00
G1 X24.5000 Y15.3492 Z-0.2500 F600.00
G1 X24.5000 Y13.2279 Z-0.2500 F600.00
G1 X13.5000 Y2.2279 Z-0.2500 F600.00
G1 X13.5000 Y0.5000 Z-0.2500 F600.00
G1 X13.8934 Y0.5000 Z-0.2500 F600.00
G1 X24.5000 Y11.1066 Z-0.2500 F600.00
G1 X24.5000 Y8.9853 Z-0.2500 F600.00
G1 X16.0147 Y0.5000 Z-0.2500 F600.00
G1 X18.1360 Y0.5000 Z-0.2500 F600.00
G1 X24.5000 Y6.8640 Z-0.2500 F600.00
G1 X24.5000 Y4.7426 Z-0.2500 F600.00
G1 X20.2574 Y0.5000 Z-0.2500 F600.00
G1 X22.3787 Y0.5000 Z-0.2500 F600.00
G1 X24.5000 Y2.6213 Z-0.2500 F600.00
G1 X24.5000 Y0.5000 Z-0.2500 F600.00
G1 X24.5000 Y0.5000 Z-0.5000 F100.00
G1 X24.5000 Y2.6213 Z-0.5000 F600.00
G1 X22.3787 Y0.5000 Z-0.5000 F600.00
G1 X20.2574 Y0.5000 Z-0.5000 F600.00
G1 X24.5000 Y4.7426 Z-0.5000 F600.00
G1 X24.5000 Y6.8640 Z-0.5000 F600.00
G1 X18.1360 Y0.5000 Z-0.5000 F600.00
G1 X16.0147 Y0.5000 Z-0.5000 F600.00
G1 X24.5000 Y8.9853 Z-0.5000 F600.00
G1 X24.5000 Y11.1066 Z-0.5000 F600.00
G1 X13.8934 Y0.5000 Z-0.5000 F600.00
G1 X13.5000 Y0.5000 Z-0.5000 F600.00
G1 X13.5000 Y2.2279 Z-0.5000 F600.00
G1 X24.5000 Y13.2279 Z-0.5000 F600.00
G1 X24.5000 Y15.3492 Z-0.5000 F600.00
G1 X13.5000 Y4.3492 Z-0.5000 F600.00
G1 X13.5000 Y6.4706 Z-0.5000 F600.00
G1 X24.5000 Y17.4706 Z-0.5000 F600.00
G1 X24.5000 Y19.5919 Z-0.5000 F600.00
G1 X13.5000 Y8.5919 Z-0.5000 F600.00
G1 X13.5000 Y10.7132 Z-0.5000 F600.00
G1 X24.5000 Y21.7132 Z-0.5000 F600.00
G1 X24.5000 Y23.8345 Z-0.5000 F600.00
G1 X15.2530 Y14.5876 Z-0.5000 F600.00
G3 X16.4029 Y17.8588 Z-0.5000 I-9.9433 J5.3330 F600.00
G1 X24.0442 Y25.5000 Z-0.5000 F600.00
G1 X21.9228 Y25.5000 Z-0.5000 F600.00
G1 X16.6004 Y20.1776 Z-0.5000 F600.00
G3 X16.4177 Y22.1162 Z-0.5000 I-8.8397 J0.1450 F600.00
G1 X19.8015 Y25.5000 Z-0.5000 F600.00
G1 X17.6802 Y25.5000 Z-0.5000 F600.00
G1 X15.9871 Y23.8070 Z-0.5000 F600.00
G3 X15.3644 Y25.3056 Z-0.5000 I-9.4964 J-3.0672 F600.00
G3 X15.2663 Y25.5000 Z-0.5000 I-1.3535 J-0.5611 F600.00
G1 X15.5589 Y25.5000 Z-0.5000 F600.00
G1 X15.3644 Y25.3056 Z-0.5000 F600.00
G0 X15.3644 Y25.3056 Z5.0000
G0 X15.3658 Y25.3062 Z5.0000
G0 X15.3658 Y25.3062 Z2.5000
G1 X15.3658 Y25.3062 Z-0.5000 F100.00
G3 X15.2663 Y25.5000 Z-0.5000 I-10.4807 J-5.2565 F600.00
G1 X24.5000 Y25.5000 Z-0.5000 F600.00
G1 X24.5000 Y0.5000 Z-0.5000 F600.00
G1 X13.5000 Y0.5000 Z-0.5000 F600.00
G1 X13.5000 Y12.0961 Z-0.5000 F600.00
G3 X15.3658 Y25.3062 Z-0.5000 I-8.6149 J7.9536 F600.00
G0 Z5.0000
(finish operation: MillFace028)
(begin operation: T5: end mill 0.8mm)
(Path: T5: end mill 0.8mm)
(T5: end mill 0.8mm)
(begin toolchange)
M6 T5
M3 S10000.0000
(finish operation: T5: end mill 0.8mm)
(begin operation: holes001)
(Path: holes001)
(Profile_Edges034)
(Compensated Tool Path. Diameter: 0.8)
G0 Z5.0000
G0 X6.5990 Y24.0990
G0 Z3.0000
G1 X6.5990 Y24.0990 Z-0.2500 F100.00
G2 X6.7500 Y23.8936 Z-0.2500 I-0.5990 J-0.5990 F600.00
G2 X6.3936 Y22.7500 Z-0.2500 I-0.7500 J-0.3936 F600.00
G2 X5.2500 Y23.1064 Z-0.2500 I-0.3936 J0.7500 F600.00
G2 X6.5990 Y24.0990 Z-0.2500 I0.7500 J0.3936 F600.00
G1 X6.5990 Y24.0990 Z-0.5000 F100.00
G2 X6.7500 Y23.8936 Z-0.5000 I-0.5990 J-0.5990 F600.00
G2 X6.3936 Y22.7500 Z-0.5000 I-0.7500 J-0.3936 F600.00
G2 X5.2500 Y23.1064 Z-0.5000 I-0.3936 J0.7500 F600.00
G2 X6.5990 Y24.0990 Z-0.5000 I0.7500 J0.3936 F600.00
G1 X6.5990 Y24.0990 Z-0.7500 F100.00
G2 X6.7500 Y23.8936 Z-0.7500 I-0.5990 J-0.5990 F600.00
G2 X6.3936 Y22.7500 Z-0.7500 I-0.7500 J-0.3936 F600.00
G2 X5.2500 Y23.1064 Z-0.7500 I-0.3936 J0.7500 F600.00
G2 X6.5990 Y24.0990 Z-0.7500 I0.7500 J0.3936 F600.00
G1 X6.5990 Y24.0990 Z-1.0000 F100.00
G2 X6.7500 Y23.8936 Z-1.0000 I-0.5990 J-0.5990 F600.00
G2 X6.3936 Y22.7500 Z-1.0000 I-0.7500 J-0.3936 F600.00
G2 X5.2500 Y23.1064 Z-1.0000 I-0.3936 J0.7500 F600.00
G2 X6.5990 Y24.0990 Z-1.0000 I0.7500 J0.3936 F600.00
G1 X6.5990 Y24.0990 Z-1.2500 F100.00
G2 X6.7500 Y23.8936 Z-1.2500 I-0.5990 J-0.5990 F600.00
G2 X6.3936 Y22.7500 Z-1.2500 I-0.7500 J-0.3936 F600.00
G2 X5.2500 Y23.1064 Z-1.2500 I-0.3936 J0.7500 F600.00
G2 X6.5990 Y24.0990 Z-1.2500 I0.7500 J0.3936 F600.00
G1 X6.5990 Y24.0990 Z-1.5000 F100.00
G2 X6.7500 Y23.8936 Z-1.5000 I-0.5990 J-0.5990 F600.00
G2 X6.3936 Y22.7500 Z-1.5000 I-0.7500 J-0.3936 F600.00
G2 X5.2500 Y23.1064 Z-1.5000 I-0.3936 J0.7500 F600.00
G2 X6.5990 Y24.0990 Z-1.5000 I0.7500 J0.3936 F600.00
G1 X6.5990 Y24.0990 Z-1.7500 F100.00
G2 X6.7500 Y23.8936 Z-1.7500 I-0.5990 J-0.5990 F600.00
G2 X6.3936 Y22.7500 Z-1.7500 I-0.7500 J-0.3936 F600.00
G2 X5.2500 Y23.1064 Z-1.7500 I-0.3936 J0.7500 F600.00
G2 X6.5990 Y24.0990 Z-1.7500 I0.7500 J0.3936 F600.00
G1 X6.5990 Y24.0990 Z-2.0000 F100.00
G2 X6.7500 Y23.8936 Z-2.0000 I-0.5990 J-0.5990 F600.00
G2 X6.3936 Y22.7500 Z-2.0000 I-0.7500 J-0.3936 F600.00
G2 X5.2500 Y23.1064 Z-2.0000 I-0.3936 J0.7500 F600.00
G2 X6.5990 Y24.0990 Z-2.0000 I0.7500 J0.3936 F600.00
G1 X6.5990 Y24.0990 Z-2.2500 F100.00
G2 X6.7500 Y23.8936 Z-2.2500 I-0.5990 J-0.5990 F600.00
G2 X6.3936 Y22.7500 Z-2.2500 I-0.7500 J-0.3936 F600.00
G2 X5.2500 Y23.1064 Z-2.2500 I-0.3936 J0.7500 F600.00
G2 X6.5990 Y24.0990 Z-2.2500 I0.7500 J0.3936 F600.00
G1 X6.5990 Y24.0990 Z-2.5000 F100.00
G2 X6.7500 Y23.8936 Z-2.5000 I-0.5990 J-0.5990 F600.00
G2 X6.3936 Y22.7500 Z-2.5000 I-0.7500 J-0.3936 F600.00
G2 X5.2500 Y23.1064 Z-2.5000 I-0.3936 J0.7500 F600.00
G2 X6.5990 Y24.0990 Z-2.5000 I0.7500 J0.3936 F600.00
G1 X6.5990 Y24.0990 Z-2.7500 F100.00
G2 X6.7500 Y23.8936 Z-2.7500 I-0.5990 J-0.5990 F600.00
G2 X6.3936 Y22.7500 Z-2.7500 I-0.7500 J-0.3936 F600.00
G2 X5.2500 Y23.1064 Z-2.7500 I-0.3936 J0.7500 F600.00
G2 X6.5990 Y24.0990 Z-2.7500 I0.7500 J0.3936 F600.00
G1 X6.5990 Y24.0990 Z-3.0000 F100.00
G2 X6.7500 Y23.8936 Z-3.0000 I-0.5990 J-0.5990 F600.00
G2 X6.3936 Y22.7500 Z-3.0000 I-0.7500 J-0.3936 F600.00
G2 X5.2500 Y23.1064 Z-3.0000 I-0.3936 J0.7500 F600.00
G2 X6.5990 Y24.0990 Z-3.0000 I0.7500 J0.3936 F600.00
G0 Z5.0000
G0 X7.1300 Y14.1300
G0 Z3.0000
G1 X7.1300 Y14.1300 Z-0.2500 F100.00
G2 X6.6116 Y11.5236 Z-0.2500 I-1.1300 J-1.1300 F600.00
G2 X5.3884 Y14.4764 Z-0.2500 I-0.6116 J1.4764 F600.00
G2 X7.1300 Y14.1300 Z-0.2500 I0.6116 J-1.4764 F600.00
G1 X7.1300 Y14.1300 Z-0.5000 F100.00
G2 X6.6116 Y11.5236 Z-0.5000 I-1.1300 J-1.1300 F600.00
G2 X5.3884 Y14.4764 Z-0.5000 I-0.6116 J1.4764 F600.00
G2 X7.1300 Y14.1300 Z-0.5000 I0.6116 J-1.4764 F600.00
G1 X7.1300 Y14.1300 Z-0.7500 F100.00
G2 X6.6116 Y11.5236 Z-0.7500 I-1.1300 J-1.1300 F600.00
G2 X5.3884 Y14.4764 Z-0.7500 I-0.6116 J1.4764 F600.00
G2 X7.1300 Y14.1300 Z-0.7500 I0.6116 J-1.4764 F600.00
G1 X7.1300 Y14.1300 Z-1.0000 F100.00
G2 X6.6116 Y11.5236 Z-1.0000 I-1.1300 J-1.1300 F600.00
G2 X5.3884 Y14.4764 Z-1.0000 I-0.6116 J1.4764 F600.00
G2 X7.1300 Y14.1300 Z-1.0000 I0.6116 J-1.4764 F600.00
G1 X7.1300 Y14.1300 Z-1.2500 F100.00
G2 X6.6116 Y11.5236 Z-1.2500 I-1.1300 J-1.1300 F600.00
G2 X5.3884 Y14.4764 Z-1.2500 I-0.6116 J1.4764 F600.00
G2 X7.1300 Y14.1300 Z-1.2500 I0.6116 J-1.4764 F600.00
G1 X7.1300 Y14.1300 Z-1.5000 F100.00
G2 X6.6116 Y11.5236 Z-1.5000 I-1.1300 J-1.1300 F600.00
G2 X5.3884 Y14.4764 Z-1.5000 I-0.6116 J1.4764 F600.00
G2 X7.1300 Y14.1300 Z-1.5000 I0.6116 J-1.4764 F600.00
G1 X7.1300 Y14.1300 Z-1.7500 F100.00
G2 X6.6116 Y11.5236 Z-1.7500 I-1.1300 J-1.1300 F600.00
G2 X5.3884 Y14.4764 Z-1.7500 I-0.6116 J1.4764 F600.00
G2 X7.1300 Y14.1300 Z-1.7500 I0.6116 J-1.4764 F600.00
G1 X7.1300 Y14.1300 Z-2.0000 F100.00
G2 X6.6116 Y11.5236 Z-2.0000 I-1.1300 J-1.1300 F600.00
G2 X5.3884 Y14.4764 Z-2.0000 I-0.6116 J1.4764 F600.00
G2 X7.1300 Y14.1300 Z-2.0000 I0.6116 J-1.4764 F600.00
G1 X7.1300 Y14.1300 Z-2.2500 F100.00
G2 X6.6116 Y11.5236 Z-2.2500 I-1.1300 J-1.1300 F600.00
G2 X5.3884 Y14.4764 Z-2.2500 I-0.6116 J1.4764 F600.00
G2 X7.1300 Y14.1300 Z-2.2500 I0.6116 J-1.4764 F600.00
G1 X7.1300 Y14.1300 Z-2.5000 F100.00
G2 X6.6116 Y11.5236 Z-2.5000 I-1.1300 J-1.1300 F600.00
G2 X5.3884 Y14.4764 Z-2.5000 I-0.6116 J1.4764 F600.00
G2 X7.1300 Y14.1300 Z-2.5000 I0.6116 J-1.4764 F600.00
G1 X7.1300 Y14.1300 Z-2.7500 F100.00
G2 X6.6116 Y11.5236 Z-2.7500 I-1.1300 J-1.1300 F600.00
G2 X5.3884 Y14.4764 Z-2.7500 I-0.6116 J1.4764 F600.00
G2 X7.1300 Y14.1300 Z-2.7500 I0.6116 J-1.4764 F600.00
G1 X7.1300 Y14.1300 Z-3.0000 F100.00
G2 X6.6116 Y11.5236 Z-3.0000 I-1.1300 J-1.1300 F600.00
G2 X5.3884 Y14.4764 Z-3.0000 I-0.6116 J1.4764 F600.00
G2 X7.1300 Y14.1300 Z-3.0000 I0.6116 J-1.4764 F600.00
G0 Z5.0000
G0 X6.5990 Y3.0990
G0 Z3.0000
G1 X6.5990 Y3.0990 Z-0.2500 F100.00
G2 X6.4812 Y1.8029 Z-0.2500 I-0.5990 J-0.5990 F600.00
G2 X5.5188 Y3.1971 Z-0.2500 I-0.4812 J0.6971 F600.00
G2 X6.5990 Y3.0990 Z-0.2500 I0.4812 J-0.6971 F600.00
G1 X6.5990 Y3.0990 Z-0.5000 F100.00
G2 X6.4812 Y1.8029 Z-0.5000 I-0.5990 J-0.5990 F600.00
G2 X5.5188 Y3.1971 Z-0.5000 I-0.4812 J0.6971 F600.00
G2 X6.5990 Y3.0990 Z-0.5000 I0.4812 J-0.6971 F600.00
G1 X6.5990 Y3.0990 Z-0.7500 F100.00
G2 X6.4812 Y1.8029 Z-0.7500 I-0.5990 J-0.5990 F600.00
G2 X5.5188 Y3.1971 Z-0.7500 I-0.4812 J0.6971 F600.00
G2 X6.5990 Y3.0990 Z-0.7500 I0.4812 J-0.6971 F600.00
G1 X6.5990 Y3.0990 Z-1.0000 F100.00
G2 X6.4812 Y1.8029 Z-1.0000 I-0.5990 J-0.5990 F600.00
G2 X5.5188 Y3.1971 Z-1.0000 I-0.4812 J0.6971 F600.00
G2 X6.5990 Y3.0990 Z-1.0000 I0.4812 J-0.6971 F600.00
G1 X6.5990 Y3.0990 Z-1.2500 F100.00
G2 X6.4812 Y1.8029 Z-1.2500 I-0.5990 J-0.5990 F600.00
G2 X5.5188 Y3.1971 Z-1.2500 I-0.4812 J0.6971 F600.00
G2 X6.5990 Y3.0990 Z-1.2500 I0.4812 J-0.6971 F600.00
G1 X6.5990 Y3.0990 Z-1.5000 F100.00
G2 X6.4812 Y1.8029 Z-1.5000 I-0.5990 J-0.5990 F600.00
G2 X5.5188 Y3.1971 Z-1.5000 I-0.4812 J0.6971 F600.00
G2 X6.5990 Y3.0990 Z-1.5000 I0.4812 J-0.6971 F600.00
G1 X6.5990 Y3.0990 Z-1.7500 F100.00
G2 X6.4812 Y1.8029 Z-1.7500 I-0.5990 J-0.5990 F600.00
G2 X5.5188 Y3.1971 Z-1.7500 I-0.4812 J0.6971 F600.00
G2 X6.5990 Y3.0990 Z-1.7500 I0.4812 J-0.6971 F600.00
G1 X6.5990 Y3.0990 Z-2.0000 F100.00
G2 X6.4812 Y1.8029 Z-2.0000 I-0.5990 J-0.5990 F600.00
G2 X5.5188 Y3.1971 Z-2.0000 I-0.4812 J0.6971 F600.00
G2 X6.5990 Y3.0990 Z-2.0000 I0.4812 J-0.6971 F600.00
G1 X6.5990 Y3.0990 Z-2.2500 F100.00
G2 X6.4812 Y1.8029 Z-2.2500 I-0.5990 J-0.5990 F600.00
G2 X5.5188 Y3.1971 Z-2.2500 I-0.4812 J0.6971 F600.00
G2 X6.5990 Y3.0990 Z-2.2500 I0.4812 J-0.6971 F600.00
G1 X6.5990 Y3.0990 Z-2.5000 F100.00
G2 X6.4812 Y1.8029 Z-2.5000 I-0.5990 J-0.5990 F600.00
G2 X5.5188 Y3.1971 Z-2.5000 I-0.4812 J0.6971 F600.00
G2 X6.5990 Y3.0990 Z-2.5000 I0.4812 J-0.6971 F600.00
G1 X6.5990 Y3.0990 Z-2.7500 F100.00
G2 X6.4812 Y1.8029 Z-2.7500 I-0.5990 J-0.5990 F600.00
G2 X5.5188 Y3.1971 Z-2.7500 I-0.4812 J0.6971 F600.00
G2 X6.5990 Y3.0990 Z-2.7500 I0.4812 J-0.6971 F600.00
G1 X6.5990 Y3.0990 Z-3.0000 F100.00
G2 X6.4812 Y1.8029 Z-3.0000 I-0.5990 J-0.5990 F600.00
G2 X5.5188 Y3.1971 Z-3.0000 I-0.4812 J0.6971 F600.00
G2 X6.5990 Y3.0990 Z-3.0000 I0.4812 J-0.6971 F600.00
G0 Z5.0000
G0 X19.5990 Y24.0990
G0 Z3.0000
G1 X19.5990 Y24.0990 Z-0.2500 F100.00
G2 X19.4812 Y22.8029 Z-0.2500 I-0.5990 J-0.5990 F600.00
G2 X18.5188 Y24.1971 Z-0.2500 I-0.4812 J0.6971 F600.00
G2 X19.5990 Y24.0990 Z-0.2500 I0.4812 J-0.6971 F600.00
G1 X19.5990 Y24.0990 Z-0.5000 F100.00
G2 X19.4812 Y22.8029 Z-0.5000 I-0.5990 J-0.5990 F600.00
G2 X18.5188 Y24.1971 Z-0.5000 I-0.4812 J0.6971 F600.00
G2 X19.5990 Y24.0990 Z-0.5000 I0.4812 J-0.6971 F600.00
G1 X19.5990 Y24.0990 Z-0.7500 F100.00
G2 X19.4812 Y22.8029 Z-0.7500 I-0.5990 J-0.5990 F600.00
G2 X18.5188 Y24.1971 Z-0.7500 I-0.4812 J0.6971 F600.00
G2 X19.5990 Y24.0990 Z-0.7500 I0.4812 J-0.6971 F600.00
G1 X19.5990 Y24.0990 Z-1.0000 F100.00
G2 X19.4812 Y22.8029 Z-1.0000 I-0.5990 J-0.5990 F600.00
G2 X18.5188 Y24.1971 Z-1.0000 I-0.4812 J0.6971 F600.00
G2 X19.5990 Y24.0990 Z-1.0000 I0.4812 J-0.6971 F600.00
G1 X19.5990 Y24.0990 Z-1.2500 F100.00
G2 X19.4812 Y22.8029 Z-1.2500 I-0.5990 J-0.5990 F600.00
G2 X18.5188 Y24.1971 Z-1.2500 I-0.4812 J0.6971 F600.00
G2 X19.5990 Y24.0990 Z-1.2500 I0.4812 J-0.6971 F600.00
G1 X19.5990 Y24.0990 Z-1.5000 F100.00
G2 X19.4812 Y22.8029 Z-1.5000 I-0.5990 J-0.5990 F600.00
G2 X18.5188 Y24.1971 Z-1.5000 I-0.4812 J0.6971 F600.00
G2 X19.5990 Y24.0990 Z-1.5000 I0.4812 J-0.6971 F600.00
G1 X19.5990 Y24.0990 Z-1.7500 F100.00
G2 X19.4812 Y22.8029 Z-1.7500 I-0.5990 J-0.5990 F600.00
G2 X18.5188 Y24.1971 Z-1.7500 I-0.4812 J0.6971 F600.00
G2 X19.5990 Y24.0990 Z-1.7500 I0.4812 J-0.6971 F600.00
G1 X19.5990 Y24.0990 Z-2.0000 F100.00
G2 X19.4812 Y22.8029 Z-2.0000 I-0.5990 J-0.5990 F600.00
G2 X18.5188 Y24.1971 Z-2.0000 I-0.4812 J0.6971 F600.00
G2 X19.5990 Y24.0990 Z-2.0000 I0.4812 J-0.6971 F600.00
G1 X19.5990 Y24.0990 Z-2.2500 F100.00
G2 X19.4812 Y22.8029 Z-2.2500 I-0.5990 J-0.5990 F600.00
G2 X18.5188 Y24.1971 Z-2.2500 I-0.4812 J0.6971 F600.00
G2 X19.5990 Y24.0990 Z-2.2500 I0.4812 J-0.6971 F600.00
G1 X19.5990 Y24.0990 Z-2.5000 F100.00
G2 X19.4812 Y22.8029 Z-2.5000 I-0.5990 J-0.5990 F600.00
G2 X18.5188 Y24.1971 Z-2.5000 I-0.4812 J0.6971 F600.00
G2 X19.5990 Y24.0990 Z-2.5000 I0.4812 J-0.6971 F600.00
G1 X19.5990 Y24.0990 Z-2.7500 F100.00
G2 X19.4812 Y22.8029 Z-2.7500 I-0.5990 J-0.5990 F600.00
G2 X18.5188 Y24.1971 Z-2.7500 I-0.4812 J0.6971 F600.00
G2 X19.5990 Y24.0990 Z-2.7500 I0.4812 J-0.6971 F600.00
G1 X19.5990 Y24.0990 Z-3.0000 F100.00
G2 X19.4812 Y22.8029 Z-3.0000 I-0.5990 J-0.5990 F600.00
G2 X18.5188 Y24.1971 Z-3.0000 I-0.4812 J0.6971 F600.00
G2 X19.5990 Y24.0990 Z-3.0000 I0.4812 J-0.6971 F600.00
G0 Z5.0000
G0 X20.1300 Y14.1300
G0 Z3.0000
G1 X20.1300 Y14.1300 Z-0.2500 F100.00
G2 X20.4764 Y13.6116 Z-0.2500 I-1.1300 J-1.1300 F600.00
G2 X17.5236 Y12.3884 Z-0.2500 I-1.4764 J-0.6116 F600.00
G2 X20.1300 Y14.1300 Z-0.2500 I1.4764 J0.6116 F600.00
G1 X20.1300 Y14.1300 Z-0.5000 F100.00
G2 X20.4764 Y13.6116 Z-0.5000 I-1.1300 J-1.1300 F600.00
G2 X17.5236 Y12.3884 Z-0.5000 I-1.4764 J-0.6116 F600.00
G2 X20.1300 Y14.1300 Z-0.5000 I1.4764 J0.6116 F600.00
G1 X20.1300 Y14.1300 Z-0.7500 F100.00
G2 X20.4764 Y13.6116 Z-0.7500 I-1.1300 J-1.1300 F600.00
G2 X17.5236 Y12.3884 Z-0.7500 I-1.4764 J-0.6116 F600.00
G2 X20.1300 Y14.1300 Z-0.7500 I1.4764 J0.6116 F600.00
G1 X20.1300 Y14.1300 Z-1.0000 F100.00
G2 X20.4764 Y13.6116 Z-1.0000 I-1.1300 J-1.1300 F600.00
G2 X17.5236 Y12.3884 Z-1.0000 I-1.4764 J-0.6116 F600.00
G2 X20.1300 Y14.1300 Z-1.0000 I1.4764 J0.6116 F600.00
G1 X20.1300 Y14.1300 Z-1.2500 F100.00
G2 X20.4764 Y13.6116 Z-1.2500 I-1.1300 J-1.1300 F600.00
G2 X17.5236 Y12.3884 Z-1.2500 I-1.4764 J-0.6116 F600.00
G2 X20.1300 Y14.1300 Z-1.2500 I1.4764 J0.6116 F600.00
G1 X20.1300 Y14.1300 Z-1.5000 F100.00
G2 X20.4764 Y13.6116 Z-1.5000 I-1.1300 J-1.1300 F600.00
G2 X17.5236 Y12.3884 Z-1.5000 I-1.4764 J-0.6116 F600.00
G2 X20.1300 Y14.1300 Z-1.5000 I1.4764 J0.6116 F600.00
G1 X20.1300 Y14.1300 Z-1.7500 F100.00
G2 X20.4764 Y13.6116 Z-1.7500 I-1.1300 J-1.1300 F600.00
G2 X17.5236 Y12.3884 Z-1.7500 I-1.4764 J-0.6116 F600.00
G2 X20.1300 Y14.1300 Z-1.7500 I1.4764 J0.6116 F600.00
G1 X20.1300 Y14.1300 Z-2.0000 F100.00
G2 X20.4764 Y13.6116 Z-2.0000 I-1.1300 J-1.1300 F600.00
G2 X17.5236 Y12.3884 Z-2.0000 I-1.4764 J-0.6116 F600.00
G2 X20.1300 Y14.1300 Z-2.0000 I1.4764 J0.6116 F600.00
G1 X20.1300 Y14.1300 Z-2.2500 F100.00
G2 X20.4764 Y13.6116 Z-2.2500 I-1.1300 J-1.1300 F600.00
G2 X17.5236 Y12.3884 Z-2.2500 I-1.4764 J-0.6116 F600.00
G2 X20.1300 Y14.1300 Z-2.2500 I1.4764 J0.6116 F600.00
G1 X20.1300 Y14.1300 Z-2.5000 F100.00
G2 X20.4764 Y13.6116 Z-2.5000 I-1.1300 J-1.1300 F600.00
G2 X17.5236 Y12.3884 Z-2.5000 I-1.4764 J-0.6116 F600.00
G2 X20.1300 Y14.1300 Z-2.5000 I1.4764 J0.6116 F600.00
G1 X20.1300 Y14.1300 Z-2.7500 F100.00
G2 X20.4764 Y13.6116 Z-2.7500 I-1.1300 J-1.1300 F600.00
G2 X17.5236 Y12.3884 Z-2.7500 I-1.4764 J-0.6116 F600.00
G2 X20.1300 Y14.1300 Z-2.7500 I1.4764 J0.6116 F600.00
G1 X20.1300 Y14.1300 Z-3.0000 F100.00
G2 X20.4764 Y13.6116 Z-3.0000 I-1.1300 J-1.1300 F600.00
G2 X17.5236 Y12.3884 Z-3.0000 I-1.4764 J-0.6116 F600.00
G2 X20.1300 Y14.1300 Z-3.0000 I1.4764 J0.6116 F600.00
G0 Z5.0000
G0 X19.5990 Y3.0990
G0 Z3.0000
G1 X19.5990 Y3.0990 Z-0.2500 F100.00
G2 X19.4812 Y1.8029 Z-0.2500 I-0.5990 J-0.5990 F600.00
G2 X18.5188 Y3.1971 Z-0.2500 I-0.4812 J0.6971 F600.00
G2 X19.5990 Y3.0990 Z-0.2500 I0.4812 J-0.6971 F600.00
G1 X19.5990 Y3.0990 Z-0.5000 F100.00
G2 X19.4812 Y1.8029 Z-0.5000 I-0.5990 J-0.5990 F600.00
G2 X18.5188 Y3.1971 Z-0.5000 I-0.4812 J0.6971 F600.00
G2 X19.5990 Y3.0990 Z-0.5000 I0.4812 J-0.6971 F600.00
G1 X19.5990 Y3.0990 Z-0.7500 F100.00
G2 X19.4812 Y1.8029 Z-0.7500 I-0.5990 J-0.5990 F600.00
G2 X18.5188 Y3.1971 Z-0.7500 I-0.4812 J0.6971 F600.00
G2 X19.5990 Y3.0990 Z-0.7500 I0.4812 J-0.6971 F600.00
G1 X19.5990 Y3.0990 Z-1.0000 F100.00
G2 X19.4812 Y1.8029 Z-1.0000 I-0.5990 J-0.5990 F600.00
G2 X18.5188 Y3.1971 Z-1.0000 I-0.4812 J0.6971 F600.00
G2 X19.5990 Y3.0990 Z-1.0000 I0.4812 J-0.6971 F600.00
G1 X19.5990 Y3.0990 Z-1.2500 F100.00
G2 X19.4812 Y1.8029 Z-1.2500 I-0.5990 J-0.5990 F600.00
G2 X18.5188 Y3.1971 Z-1.2500 I-0.4812 J0.6971 F600.00
G2 X19.5990 Y3.0990 Z-1.2500 I0.4812 J-0.6971 F600.00
G1 X19.5990 Y3.0990 Z-1.5000 F100.00
G2 X19.4812 Y1.8029 Z-1.5000 I-0.5990 J-0.5990 F600.00
G2 X18.5188 Y3.1971 Z-1.5000 I-0.4812 J0.6971 F600.00
G2 X19.5990 Y3.0990 Z-1.5000 I0.4812 J-0.6971 F600.00
G1 X19.5990 Y3.0990 Z-1.7500 F100.00
G2 X19.4812 Y1.8029 Z-1.7500 I-0.5990 J-0.5990 F600.00
G2 X18.5188 Y3.1971 Z-1.7500 I-0.4812 J0.6971 F600.00
G2 X19.5990 Y3.0990 Z-1.7500 I0.4812 J-0.6971 F600.00
G1 X19.5990 Y3.0990 Z-2.0000 F100.00
G2 X19.4812 Y1.8029 Z-2.0000 I-0.5990 J-0.5990 F600.00
G2 X18.5188 Y3.1971 Z-2.0000 I-0.4812 J0.6971 F600.00
G2 X19.5990 Y3.0990 Z-2.0000 I0.4812 J-0.6971 F600.00
G1 X19.5990 Y3.0990 Z-2.2500 F100.00
G2 X19.4812 Y1.8029 Z-2.2500 I-0.5990 J-0.5990 F600.00
G2 X18.5188 Y3.1971 Z-2.2500 I-0.4812 J0.6971 F600.00
G2 X19.5990 Y3.0990 Z-2.2500 I0.4812 J-0.6971 F600.00
G1 X19.5990 Y3.0990 Z-2.5000 F100.00
G2 X19.4812 Y1.8029 Z-2.5000 I-0.5990 J-0.5990 F600.00
G2 X18.5188 Y3.1971 Z-2.5000 I-0.4812 J0.6971 F600.00
G2 X19.5990 Y3.0990 Z-2.5000 I0.4812 J-0.6971 F600.00
G1 X19.5990 Y3.0990 Z-2.7500 F100.00
G2 X19.4812 Y1.8029 Z-2.7500 I-0.5990 J-0.5990 F600.00
G2 X18.5188 Y3.1971 Z-2.7500 I-0.4812 J0.6971 F600.00
G2 X19.5990 Y3.0990 Z-2.7500 I0.4812 J-0.6971 F600.00
G1 X19.5990 Y3.0990 Z-3.0000 F100.00
G2 X19.4812 Y1.8029 Z-3.0000 I-0.5990 J-0.5990 F600.00
G2 X18.5188 Y3.1971 Z-3.0000 I-0.4812 J0.6971 F600.00
G2 X19.5990 Y3.0990 Z-3.0000 I0.4812 J-0.6971 F600.00
G0 Z5.0000
(finish operation: holes001)
(begin operation: pocket_outline)
(Path: pocket_outline)
(Profile_Edges035)
(Compensated Tool Path. Diameter: 0.8)
G0 Z5.0000
G0 X7.8376 Y14.8376
G0 Z3.0000
G1 X7.8376 Y14.8376 Z-0.2500 F100.00
G2 X8.4716 Y13.8031 Z-0.2500 I-1.8376 J-1.8376 F600.00
G2 X3.5284 Y12.1969 Z-0.2500 I-2.4716 J-0.8031 F600.00
G2 X7.8376 Y14.8376 Z-0.2500 I2.4716 J0.8031 F600.00
G1 X7.8376 Y14.8376 Z-0.5000 F100.00
G2 X8.4716 Y13.8031 Z-0.5000 I-1.8376 J-1.8376 F600.00
G2 X3.5284 Y12.1969 Z-0.5000 I-2.4716 J-0.8031 F600.00
G2 X7.8376 Y14.8376 Z-0.5000 I2.4716 J0.8031 F600.00
G1 X7.8376 Y14.8376 Z-0.7500 F100.00
G2 X8.4716 Y13.8031 Z-0.7500 I-1.8376 J-1.8376 F600.00
G2 X3.5284 Y12.1969 Z-0.7500 I-2.4716 J-0.8031 F600.00
G2 X7.8376 Y14.8376 Z-0.7500 I2.4716 J0.8031 F600.00
G1 X7.8376 Y14.8376 Z-1.0000 F100.00
G2 X8.4716 Y13.8031 Z-1.0000 I-1.8376 J-1.8376 F600.00
G2 X3.5284 Y12.1969 Z-1.0000 I-2.4716 J-0.8031 F600.00
G2 X7.8376 Y14.8376 Z-1.0000 I2.4716 J0.8031 F600.00
G1 X7.8376 Y14.8376 Z-1.2500 F100.00
G2 X8.4716 Y13.8031 Z-1.2500 I-1.8376 J-1.8376 F600.00
G2 X3.5284 Y12.1969 Z-1.2500 I-2.4716 J-0.8031 F600.00
G2 X7.8376 Y14.8376 Z-1.2500 I2.4716 J0.8031 F600.00
G1 X7.8376 Y14.8376 Z-1.5000 F100.00
G2 X8.4716 Y13.8031 Z-1.5000 I-1.8376 J-1.8376 F600.00
G2 X3.5284 Y12.1969 Z-1.5000 I-2.4716 J-0.8031 F600.00
G2 X7.8376 Y14.8376 Z-1.5000 I2.4716 J0.8031 F600.00
G1 X7.8376 Y14.8376 Z-1.7500 F100.00
G2 X8.4716 Y13.8031 Z-1.7500 I-1.8376 J-1.8376 F600.00
G2 X3.5284 Y12.1969 Z-1.7500 I-2.4716 J-0.8031 F600.00
G2 X7.8376 Y14.8376 Z-1.7500 I2.4716 J0.8031 F600.00
G1 X7.8376 Y14.8376 Z-2.0000 F100.00
G2 X8.4716 Y13.8031 Z-2.0000 I-1.8376 J-1.8376 F600.00
G2 X3.5284 Y12.1969 Z-2.0000 I-2.4716 J-0.8031 F600.00
G2 X7.8376 Y14.8376 Z-2.0000 I2.4716 J0.8031 F600.00
G0 Z5.0000
G0 X20.8376 Y14.8376
G0 Z3.0000
G1 X20.8376 Y14.8376 Z-0.2500 F100.00
G2 X19.8031 Y10.5284 Z-0.2500 I-1.8376 J-1.8376 F600.00
G2 X18.1969 Y15.4716 Z-0.2500 I-0.8031 J2.4716 F600.00
G2 X20.8376 Y14.8376 Z-0.2500 I0.8031 J-2.4716 F600.00
G1 X20.8376 Y14.8376 Z-0.5000 F100.00
G2 X19.8031 Y10.5284 Z-0.5000 I-1.8376 J-1.8376 F600.00
G2 X18.1969 Y15.4716 Z-0.5000 I-0.8031 J2.4716 F600.00
G2 X20.8376 Y14.8376 Z-0.5000 I0.8031 J-2.4716 F600.00
G1 X20.8376 Y14.8376 Z-0.7500 F100.00
G2 X19.8031 Y10.5284 Z-0.7500 I-1.8376 J-1.8376 F600.00
G2 X18.1969 Y15.4716 Z-0.7500 I-0.8031 J2.4716 F600.00
G2 X20.8376 Y14.8376 Z-0.7500 I0.8031 J-2.4716 F600.00
G1 X20.8376 Y14.8376 Z-1.0000 F100.00
G2 X19.8031 Y10.5284 Z-1.0000 I-1.8376 J-1.8376 F600.00
G2 X18.1969 Y15.4716 Z-1.0000 I-0.8031 J2.4716 F600.00
G2 X20.8376 Y14.8376 Z-1.0000 I0.8031 J-2.4716 F600.00
G1 X20.8376 Y14.8376 Z-1.2500 F100.00
G2 X19.8031 Y10.5284 Z-1.2500 I-1.8376 J-1.8376 F600.00
G2 X18.1969 Y15.4716 Z-1.2500 I-0.8031 J2.4716 F600.00
G2 X20.8376 Y14.8376 Z-1.2500 I0.8031 J-2.4716 F600.00
G1 X20.8376 Y14.8376 Z-1.5000 F100.00
G2 X19.8031 Y10.5284 Z-1.5000 I-1.8376 J-1.8376 F600.00
G2 X18.1969 Y15.4716 Z-1.5000 I-0.8031 J2.4716 F600.00
G2 X20.8376 Y14.8376 Z-1.5000 I0.8031 J-2.4716 F600.00
G1 X20.8376 Y14.8376 Z-1.7500 F100.00
G2 X19.8031 Y10.5284 Z-1.7500 I-1.8376 J-1.8376 F600.00
G2 X18.1969 Y15.4716 Z-1.7500 I-0.8031 J2.4716 F600.00
G2 X20.8376 Y14.8376 Z-1.7500 I0.8031 J-2.4716 F600.00
G1 X20.8376 Y14.8376 Z-2.0000 F100.00
G2 X19.8031 Y10.5284 Z-2.0000 I-1.8376 J-1.8376 F600.00
G2 X18.1969 Y15.4716 Z-2.0000 I-0.8031 J2.4716 F600.00
G2 X20.8376 Y14.8376 Z-2.0000 I0.8031 J-2.4716 F600.00
G0 Z5.0000
(finish operation: pocket_outline)
(begin operation: pockets)
(Path: pockets)
(Pocket_Shape005)
G0 Z5.0000
G0 X7.8384 Y14.8380
G0 Z3.0000
G1 X7.8384 Y14.8380 Z-0.2500 F100.00
G2 X5.9453 Y10.4055 Z-0.2500 I-1.8361 J-1.8363 F600.00
G1 X5.9608 Y10.6019 Z-0.2500 F600.00
G1 X5.9453 Y10.4055 Z-0.2500 F600.00
G1 X5.5935 Y10.4332 Z-0.2500 F600.00
G2 X6.4065 Y15.5668 Z-0.2500 I0.4065 J2.5668 F600.00
G2 X7.8384 Y14.8380 Z-0.2500 I-0.4042 J-2.5651 F600.00
G0 X7.8384 Y14.8380 Z5.0000
G0 X7.6961 Y14.6957 Z5.0000
G0 X7.6961 Y14.6957 Z2.7500
G1 X7.6961 Y14.6957 Z-0.2500 F100.00
G3 X6.0392 Y15.3981 Z-0.2500 I-1.6961 J-1.6957 F600.00
G3 X3.6019 Y13.0392 Z-0.2500 I-0.0392 J-2.3981 F600.00
G3 X5.9608 Y10.6019 Z-0.2500 I2.3981 J-0.0392 F600.00
G3 X7.6961 Y14.6957 Z-0.2500 I0.0392 J2.3981 F600.00
G1 X7.6961 Y14.6957 Z-0.5000 F100.00
G3 X6.0392 Y15.3981 Z-0.5000 I-1.6961 J-1.6957 F600.00
G3 X3.6019 Y13.0392 Z-0.5000 I-0.0392 J-2.3981 F600.00
G3 X5.9608 Y10.6019 Z-0.5000 I2.3981 J-0.0392 F600.00
G3 X7.6961 Y14.6957 Z-0.5000 I0.0392 J2.3981 F600.00
G0 X7.6961 Y14.6957 Z5.0000
G0 X7.8383 Y14.8380 Z5.0000
G0 X7.8383 Y14.8380 Z2.5000
G1 X7.8383 Y14.8380 Z-0.5000 F100.00
G2 X5.9453 Y10.4055 Z-0.5000 I-1.8360 J-1.8363 F600.00
G1 X5.9608 Y10.6019 Z-0.5000 F600.00
G1 X5.9453 Y10.4055 Z-0.5000 F600.00
G1 X5.5935 Y10.4332 Z-0.5000 F600.00
G2 X6.4065 Y15.5668 Z-0.5000 I0.4065 J2.5668 F600.00
G2 X7.8383 Y14.8380 Z-0.5000 I-0.4042 J-2.5651 F600.00
G1 X7.8383 Y14.8380 Z-0.7500 F100.00
G2 X5.9453 Y10.4055 Z-0.7500 I-1.8360 J-1.8363 F600.00
G1 X5.9608 Y10.6019 Z-0.7500 F600.00
G1 X5.9453 Y10.4055 Z-0.7500 F600.00
G1 X5.5935 Y10.4332 Z-0.7500 F600.00
G2 X6.4065 Y15.5668 Z-0.7500 I0.4065 J2.5668 F600.00
G2 X7.8383 Y14.8380 Z-0.7500 I-0.4042 J-2.5651 F600.00
G0 X7.8383 Y14.8380 Z5.0000
G0 X7.6961 Y14.6958 Z5.0000
G0 X7.6961 Y14.6958 Z2.2500
G1 X7.6961 Y14.6958 Z-0.7500 F100.00
G3 X6.0392 Y15.3981 Z-0.7500 I-1.6961 J-1.6958 F600.00
G3 X3.6019 Y13.0392 Z-0.7500 I-0.0392 J-2.3981 F600.00
G3 X5.9608 Y10.6019 Z-0.7500 I2.3981 J-0.0392 F600.00
G3 X7.6961 Y14.6958 Z-0.7500 I0.0392 J2.3981 F600.00
G1 X7.6961 Y14.6958 Z-1.0000 F100.00
G3 X6.0392 Y15.3981 Z-1.0000 I-1.6961 J-1.6958 F600.00
G3 X3.6019 Y13.0392 Z-1.0000 I-0.0392 J-2.3981 F600.00
G3 X5.9608 Y10.6019 Z-1.0000 I2.3981 J-0.0392 F600.00
G3 X7.6961 Y14.6958 Z-1.0000 I0.0392 J2.3981 F600.00
G0 X7.6961 Y14.6958 Z5.0000
G0 X7.8383 Y14.8380 Z5.0000
G0 X7.8383 Y14.8380 Z2.0000
G1 X7.8383 Y14.8380 Z-1.0000 F100.00
G2 X5.9453 Y10.4055 Z-1.0000 I-1.8360 J-1.8364 F600.00
G1 X5.9608 Y10.6019 Z-1.0000 F600.00
G1 X5.9453 Y10.4055 Z-1.0000 F600.00
G1 X5.5935 Y10.4332 Z-1.0000 F600.00
G2 X6.4065 Y15.5668 Z-1.0000 I0.4065 J2.5668 F600.00
G2 X7.8383 Y14.8380 Z-1.0000 I-0.4042 J-2.5651 F600.00
G1 X7.8383 Y14.8380 Z-1.2500 F100.00
G2 X5.9453 Y10.4055 Z-1.2500 I-1.8360 J-1.8364 F600.00
G1 X5.9608 Y10.6019 Z-1.2500 F600.00
G1 X5.9453 Y10.4055 Z-1.2500 F600.00
G1 X5.5935 Y10.4332 Z-1.2500 F600.00
G2 X6.4065 Y15.5668 Z-1.2500 I0.4065 J2.5668 F600.00
G2 X7.8383 Y14.8380 Z-1.2500 I-0.4042 J-2.5651 F600.00
G0 X7.8383 Y14.8380 Z5.0000
G0 X7.6961 Y14.6958 Z5.0000
G0 X7.6961 Y14.6958 Z1.7500
G1 X7.6961 Y14.6958 Z-1.2500 F100.00
G3 X6.0392 Y15.3981 Z-1.2500 I-1.6961 J-1.6958 F600.00
G3 X3.6019 Y13.0392 Z-1.2500 I-0.0392 J-2.3981 F600.00
G3 X5.9608 Y10.6019 Z-1.2500 I2.3981 J-0.0392 F600.00
G3 X7.6961 Y14.6958 Z-1.2500 I0.0392 J2.3981 F600.00
G1 X7.6961 Y14.6958 Z-1.5000 F100.00
G3 X6.0392 Y15.3981 Z-1.5000 I-1.6961 J-1.6958 F600.00
G3 X3.6019 Y13.0392 Z-1.5000 I-0.0392 J-2.3981 F600.00
G3 X5.9608 Y10.6019 Z-1.5000 I2.3981 J-0.0392 F600.00
G3 X7.6961 Y14.6958 Z-1.5000 I0.0392 J2.3981 F600.00
G0 X7.6961 Y14.6958 Z5.0000
G0 X7.8383 Y14.8381 Z5.0000
G0 X7.8383 Y14.8381 Z1.5000
G1 X7.8383 Y14.8381 Z-1.5000 F100.00
G2 X5.9453 Y10.4055 Z-1.5000 I-1.8360 J-1.8364 F600.00
G1 X5.9608 Y10.6019 Z-1.5000 F600.00
G1 X5.9453 Y10.4055 Z-1.5000 F600.00
G1 X5.5935 Y10.4332 Z-1.5000 F600.00
G2 X6.4065 Y15.5668 Z-1.5000 I0.4065 J2.5668 F600.00
G2 X7.8383 Y14.8381 Z-1.5000 I-0.4042 J-2.5651 F600.00
G1 X7.8383 Y14.8381 Z-1.7500 F100.00
G2 X5.9453 Y10.4055 Z-1.7500 I-1.8360 J-1.8364 F600.00
G1 X5.9608 Y10.6019 Z-1.7500 F600.00
G1 X5.9453 Y10.4055 Z-1.7500 F600.00
G1 X5.5935 Y10.4332 Z-1.7500 F600.00
G2 X6.4065 Y15.5668 Z-1.7500 I0.4065 J2.5668 F600.00
G2 X7.8383 Y14.8381 Z-1.7500 I-0.4042 J-2.5651 F600.00
G0 X7.8383 Y14.8381 Z5.0000
G0 X7.6960 Y14.6958 Z5.0000
G0 X7.6960 Y14.6958 Z1.2500
G1 X7.6960 Y14.6958 Z-1.7500 F100.00
G3 X6.0392 Y15.3981 Z-1.7500 I-1.6960 J-1.6958 F600.00
G3 X3.6019 Y13.0392 Z-1.7500 I-0.0392 J-2.3981 F600.00
G3 X5.9608 Y10.6019 Z-1.7500 I2.3981 J-0.0392 F600.00
G3 X7.6960 Y14.6958 Z-1.7500 I0.0392 J2.3981 F600.00
G1 X7.6960 Y14.6958 Z-2.0000 F100.00
G3 X6.0392 Y15.3981 Z-2.0000 I-1.6960 J-1.6958 F600.00
G3 X3.6019 Y13.0392 Z-2.0000 I-0.0392 J-2.3981 F600.00
G3 X5.9608 Y10.6019 Z-2.0000 I2.3981 J-0.0392 F600.00
G3 X7.6960 Y14.6958 Z-2.0000 I0.0392 J2.3981 F600.00
G0 X7.6960 Y14.6958 Z5.0000
G0 X7.8383 Y14.8381 Z5.0000
G0 X7.8383 Y14.8381 Z1.0000
G1 X7.8383 Y14.8381 Z-2.0000 F100.00
G2 X5.9453 Y10.4055 Z-2.0000 I-1.8360 J-1.8364 F600.00
G1 X5.9608 Y10.6019 Z-2.0000 F600.00
G1 X5.9453 Y10.4055 Z-2.0000 F600.00
G1 X5.5935 Y10.4332 Z-2.0000 F600.00
G2 X6.4065 Y15.5668 Z-2.0000 I0.4065 J2.5668 F600.00
G2 X7.8383 Y14.8381 Z-2.0000 I-0.4042 J-2.5651 F600.00
G0 Z5.0000
G0 X20.8384 Y14.8380
G0 Z3.0000
G1 X20.8384 Y14.8380 Z-0.2500 F100.00
G2 X18.9453 Y10.4055 Z-0.2500 I-1.8361 J-1.8363 F600.00
G1 X18.9608 Y10.6019 Z-0.2500 F600.00
G1 X18.9453 Y10.4055 Z-0.2500 F600.00
G1 X18.5935 Y10.4332 Z-0.2500 F600.00
G2 X19.4065 Y15.5668 Z-0.2500 I0.4065 J2.5668 F600.00
G2 X20.8384 Y14.8380 Z-0.2500 I-0.4042 J-2.5651 F600.00
G0 X20.8384 Y14.8380 Z5.0000
G0 X20.6961 Y14.6957 Z5.0000
G0 X20.6961 Y14.6957 Z2.7500
G1 X20.6961 Y14.6957 Z-0.2500 F100.00
G3 X19.0392 Y15.3981 Z-0.2500 I-1.6961 J-1.6957 F600.00
G3 X16.6019 Y13.0392 Z-0.2500 I-0.0392 J-2.3981 F600.00
G3 X18.9608 Y10.6019 Z-0.2500 I2.3981 J-0.0392 F600.00
G3 X20.6961 Y14.6957 Z-0.2500 I0.0392 J2.3981 F600.00
G1 X20.6961 Y14.6957 Z-0.5000 F100.00
G3 X19.0392 Y15.3981 Z-0.5000 I-1.6961 J-1.6957 F600.00
G3 X16.6019 Y13.0392 Z-0.5000 I-0.0392 J-2.3981 F600.00
G3 X18.9608 Y10.6019 Z-0.5000 I2.3981 J-0.0392 F600.00
G3 X20.6961 Y14.6957 Z-0.5000 I0.0392 J2.3981 F600.00
G0 X20.6961 Y14.6957 Z5.0000
G0 X20.8383 Y14.8380 Z5.0000
G0 X20.8383 Y14.8380 Z2.5000
G1 X20.8383 Y14.8380 Z-0.5000 F100.00
G2 X18.9453 Y10.4055 Z-0.5000 I-1.8360 J-1.8363 F600.00
G1 X18.9608 Y10.6019 Z-0.5000 F600.00
G1 X18.9453 Y10.4055 Z-0.5000 F600.00
G1 X18.5935 Y10.4332 Z-0.5000 F600.00
G2 X19.4065 Y15.5668 Z-0.5000 I0.4065 J2.5668 F600.00
G2 X20.8383 Y14.8380 Z-0.5000 I-0.4042 J-2.5651 F600.00
G1 X20.8383 Y14.8380 Z-0.7500 F100.00
G2 X18.9453 Y10.4055 Z-0.7500 I-1.8360 J-1.8363 F600.00
G1 X18.9608 Y10.6019 Z-0.7500 F600.00
G1 X18.9453 Y10.4055 Z-0.7500 F600.00
G1 X18.5935 Y10.4332 Z-0.7500 F600.00
G2 X19.4065 Y15.5668 Z-0.7500 I0.4065 J2.5668 F600.00
G2 X20.8383 Y14.8380 Z-0.7500 I-0.4042 J-2.5651 F600.00
G0 X20.8383 Y14.8380 Z5.0000
G0 X20.6961 Y14.6958 Z5.0000
G0 X20.6961 Y14.6958 Z2.2500
G1 X20.6961 Y14.6958 Z-0.7500 F100.00
G3 X19.0392 Y15.3981 Z-0.7500 I-1.6961 J-1.6958 F600.00
G3 X16.6019 Y13.0392 Z-0.7500 I-0.0392 J-2.3981 F600.00
G3 X18.9608 Y10.6019 Z-0.7500 I2.3981 J-0.0392 F600.00
G3 X20.6961 Y14.6958 Z-0.7500 I0.0392 J2.3981 F600.00
G1 X20.6961 Y14.6958 Z-1.0000 F100.00
G3 X19.0392 Y15.3981 Z-1.0000 I-1.6961 J-1.6958 F600.00
G3 X16.6019 Y13.0392 Z-1.0000 I-0.0392 J-2.3981 F600.00
G3 X18.9608 Y10.6019 Z-1.0000 I2.3981 J-0.0392 F600.00
G3 X20.6961 Y14.6958 Z-1.0000 I0.0392 J2.3981 F600.00
G0 X20.6961 Y14.6958 Z5.0000
G0 X20.8383 Y14.8380 Z5.0000
G0 X20.8383 Y14.8380 Z2.0000
G1 X20.8383 Y14.8380 Z-1.0000 F100.00
G2 X18.9453 Y10.4055 Z-1.0000 I-1.8360 J-1.8364 F600.00
G1 X18.9608 Y10.6019 Z-1.0000 F600.00
G1 X18.9453 Y10.4055 Z-1.0000 F600.00
G1 X18.5935 Y10.4332 Z-1.0000 F600.00
G2 X19.4065 Y15.5668 Z-1.0000 I0.4065 J2.5668 F600.00
G2 X20.8383 Y14.8380 Z-1.0000 I-0.4042 J-2.5651 F600.00
G1 X20.8383 Y14.8380 Z-1.2500 F100.00
G2 X18.9453 Y10.4055 Z-1.2500 I-1.8360 J-1.8364 F600.00
G1 X18.9608 Y10.6019 Z-1.2500 F600.00
G1 X18.9453 Y10.4055 Z-1.2500 F600.00
G1 X18.5935 Y10.4332 Z-1.2500 F600.00
G2 X19.4065 Y15.5668 Z-1.2500 I0.4065 J2.5668 F600.00
G2 X20.8383 Y14.8380 Z-1.2500 I-0.4042 J-2.5651 F600.00
G0 X20.8383 Y14.8380 Z5.0000
G0 X20.6961 Y14.6958 Z5.0000
G0 X20.6961 Y14.6958 Z1.7500
G1 X20.6961 Y14.6958 Z-1.2500 F100.00
G3 X19.0392 Y15.3981 Z-1.2500 I-1.6961 J-1.6958 F600.00
G3 X16.6019 Y13.0392 Z-1.2500 I-0.0392 J-2.3981 F600.00
G3 X18.9608 Y10.6019 Z-1.2500 I2.3981 J-0.0392 F600.00
G3 X20.6961 Y14.6958 Z-1.2500 I0.0392 J2.3981 F600.00
G1 X20.6961 Y14.6958 Z-1.5000 F100.00
G3 X19.0392 Y15.3981 Z-1.5000 I-1.6961 J-1.6958 F600.00
G3 X16.6019 Y13.0392 Z-1.5000 I-0.0392 J-2.3981 F600.00
G3 X18.9608 Y10.6019 Z-1.5000 I2.3981 J-0.0392 F600.00
G3 X20.6961 Y14.6958 Z-1.5000 I0.0392 J2.3981 F600.00
G0 X20.6961 Y14.6958 Z5.0000
G0 X20.8383 Y14.8381 Z5.0000
G0 X20.8383 Y14.8381 Z1.5000
G1 X20.8383 Y14.8381 Z-1.5000 F100.00
G2 X18.9453 Y10.4055 Z-1.5000 I-1.8360 J-1.8364 F600.00
G1 X18.9608 Y10.6019 Z-1.5000 F600.00
G1 X18.9453 Y10.4055 Z-1.5000 F600.00
G1 X18.5935 Y10.4332 Z-1.5000 F600.00
G2 X19.4065 Y15.5668 Z-1.5000 I0.4065 J2.5668 F600.00
G2 X20.8383 Y14.8381 Z-1.5000 I-0.4042 J-2.5651 F600.00
G1 X20.8383 Y14.8381 Z-1.7500 F100.00
G2 X18.9453 Y10.4055 Z-1.7500 I-1.8360 J-1.8364 F600.00
G1 X18.9608 Y10.6019 Z-1.7500 F600.00
G1 X18.9453 Y10.4055 Z-1.7500 F600.00
G1 X18.5935 Y10.4332 Z-1.7500 F600.00
G2 X19.4065 Y15.5668 Z-1.7500 I0.4065 J2.5668 F600.00
G2 X20.8383 Y14.8381 Z-1.7500 I-0.4042 J-2.5651 F600.00
G0 X20.8383 Y14.8381 Z5.0000
G0 X20.6960 Y14.6958 Z5.0000
G0 X20.6960 Y14.6958 Z1.2500
G1 X20.6960 Y14.6958 Z-1.7500 F100.00
G3 X19.0392 Y15.3981 Z-1.7500 I-1.6960 J-1.6958 F600.00
G3 X16.6019 Y13.0392 Z-1.7500 I-0.0392 J-2.3981 F600.00
G3 X18.9608 Y10.6019 Z-1.7500 I2.3981 J-0.0392 F600.00
G3 X20.6960 Y14.6958 Z-1.7500 I0.0392 J2.3981 F600.00
G1 X20.6960 Y14.6958 Z-2.0000 F100.00
G3 X19.0392 Y15.3981 Z-2.0000 I-1.6960 J-1.6958 F600.00
G3 X16.6019 Y13.0392 Z-2.0000 I-0.0392 J-2.3981 F600.00
G3 X18.9608 Y10.6019 Z-2.0000 I2.3981 J-0.0392 F600.00
G3 X20.6960 Y14.6958 Z-2.0000 I0.0392 J2.3981 F600.00
G0 X20.6960 Y14.6958 Z5.0000
G0 X20.8383 Y14.8381 Z5.0000
G0 X20.8383 Y14.8381 Z1.0000
G1 X20.8383 Y14.8381 Z-2.0000 F100.00
G2 X18.9453 Y10.4055 Z-2.0000 I-1.8360 J-1.8364 F600.00
G1 X18.9608 Y10.6019 Z-2.0000 F600.00
G1 X18.9453 Y10.4055 Z-2.0000 F600.00
G1 X18.5935 Y10.4332 Z-2.0000 F600.00
G2 X19.4065 Y15.5668 Z-2.0000 I0.4065 J2.5668 F600.00
G2 X20.8383 Y14.8381 Z-2.0000 I-0.4042 J-2.5651 F600.00
G0 Z5.0000
(finish operation: pockets)
(begin operation: contour_left001)
(Path: contour_left001)
(Profile_Edges036)
(Compensated Tool Path. Diameter: 0.8)
G0 Z5.0000
G0 X12.2828 Y26.2828
G0 Z3.0000
G1 X12.2828 Y26.2828 Z-0.2500 F100.00
G2 X12.4000 Y26.0000 Z-0.2500 I-0.2828 J-0.2828 F600.00
G1 X12.4000 Y0.0000 Z-0.2500 F600.00
G2 X12.0000 Y-0.4000 Z-0.2500 I-0.4000 J0.0000 F600.00
G1 X0.0000 Y-0.4000 Z-0.2500 F600.00
G2 X-0.4000 Y0.0000 Z-0.2500 I0.0000 J0.4000 F600.00
G1 X-0.4000 Y26.0000 Z-0.2500 F600.00
G2 X0.0000 Y26.4000 Z-0.2500 I0.4000 J-0.0000 F600.00
G1 X12.0000 Y26.4000 Z-0.2500 F600.00
G2 X12.2828 Y26.2828 Z-0.2500 I-0.0000 J-0.4000 F600.00
G1 X12.2828 Y26.2828 Z-0.5000 F100.00
G2 X12.4000 Y26.0000 Z-0.5000 I-0.2828 J-0.2828 F600.00
G1 X12.4000 Y0.0000 Z-0.5000 F600.00
G2 X12.0000 Y-0.4000 Z-0.5000 I-0.4000 J0.0000 F600.00
G1 X0.0000 Y-0.4000 Z-0.5000 F600.00
G2 X-0.4000 Y0.0000 Z-0.5000 I0.0000 J0.4000 F600.00
G1 X-0.4000 Y26.0000 Z-0.5000 F600.00
G2 X0.0000 Y26.4000 Z-0.5000 I0.4000 J-0.0000 F600.00
G1 X12.0000 Y26.4000 Z-0.5000 F600.00
G2 X12.2828 Y26.2828 Z-0.5000 I-0.0000 J-0.4000 F600.00
G1 X12.2828 Y26.2828 Z-0.7500 F100.00
G2 X12.4000 Y26.0000 Z-0.7500 I-0.2828 J-0.2828 F600.00
G1 X12.4000 Y0.0000 Z-0.7500 F600.00
G2 X12.0000 Y-0.4000 Z-0.7500 I-0.4000 J0.0000 F600.00
G1 X0.0000 Y-0.4000 Z-0.7500 F600.00
G2 X-0.4000 Y0.0000 Z-0.7500 I0.0000 J0.4000 F600.00
G1 X-0.4000 Y26.0000 Z-0.7500 F600.00
G2 X0.0000 Y26.4000 Z-0.7500 I0.4000 J-0.0000 F600.00
G1 X12.0000 Y26.4000 Z-0.7500 F600.00
G2 X12.2828 Y26.2828 Z-0.7500 I-0.0000 J-0.4000 F600.00
G1 X12.2828 Y26.2828 Z-1.0000 F100.00
G2 X12.4000 Y26.0000 Z-1.0000 I-0.2828 J-0.2828 F600.00
G1 X12.4000 Y0.0000 Z-1.0000 F600.00
G2 X12.0000 Y-0.4000 Z-1.0000 I-0.4000 J0.0000 F600.00
G1 X0.0000 Y-0.4000 Z-1.0000 F600.00
G2 X-0.4000 Y0.0000 Z-1.0000 I0.0000 J0.4000 F600.00
G1 X-0.4000 Y26.0000 Z-1.0000 F600.00
G2 X0.0000 Y26.4000 Z-1.0000 I0.4000 J-0.0000 F600.00
G1 X12.0000 Y26.4000 Z-1.0000 F600.00
G2 X12.2828 Y26.2828 Z-1.0000 I-0.0000 J-0.4000 F600.00
G1 X12.2828 Y26.2828 Z-1.2500 F100.00
G2 X12.4000 Y26.0000 Z-1.2500 I-0.2828 J-0.2828 F600.00
G1 X12.4000 Y0.0000 Z-1.2500 F600.00
G2 X12.0000 Y-0.4000 Z-1.2500 I-0.4000 J0.0000 F600.00
G1 X0.0000 Y-0.4000 Z-1.2500 F600.00
G2 X-0.4000 Y0.0000 Z-1.2500 I0.0000 J0.4000 F600.00
G1 X-0.4000 Y26.0000 Z-1.2500 F600.00
G2 X0.0000 Y26.4000 Z-1.2500 I0.4000 J-0.0000 F600.00
G1 X12.0000 Y26.4000 Z-1.2500 F600.00
G2 X12.2828 Y26.2828 Z-1.2500 I-0.0000 J-0.4000 F600.00
G1 X12.2828 Y26.2828 Z-1.5000 F100.00
G2 X12.4000 Y26.0000 Z-1.5000 I-0.2828 J-0.2828 F600.00
G1 X12.4000 Y0.0000 Z-1.5000 F600.00
G2 X12.0000 Y-0.4000 Z-1.5000 I-0.4000 J0.0000 F600.00
G1 X0.0000 Y-0.4000 Z-1.5000 F600.00
G2 X-0.4000 Y0.0000 Z-1.5000 I0.0000 J0.4000 F600.00
G1 X-0.4000 Y26.0000 Z-1.5000 F600.00
G2 X0.0000 Y26.4000 Z-1.5000 I0.4000 J-0.0000 F600.00
G1 X12.0000 Y26.4000 Z-1.5000 F600.00
G2 X12.2828 Y26.2828 Z-1.5000 I-0.0000 J-0.4000 F600.00
G1 X12.2828 Y26.2828 Z-1.7500 F100.00
G2 X12.4000 Y26.0000 Z-1.7500 I-0.2828 J-0.2828 F600.00
G1 X12.4000 Y0.0000 Z-1.7500 F600.00
G2 X12.0000 Y-0.4000 Z-1.7500 I-0.4000 J0.0000 F600.00
G1 X0.0000 Y-0.4000 Z-1.7500 F600.00
G2 X-0.4000 Y0.0000 Z-1.7500 I0.0000 J0.4000 F600.00
G1 X-0.4000 Y26.0000 Z-1.7500 F600.00
G2 X0.0000 Y26.4000 Z-1.7500 I0.4000 J-0.0000 F600.00
G1 X12.0000 Y26.4000 Z-1.7500 F600.00
G2 X12.2828 Y26.2828 Z-1.7500 I-0.0000 J-0.4000 F600.00
G1 X12.2828 Y26.2828 Z-2.0000 F100.00
G2 X12.4000 Y26.0000 Z-2.0000 I-0.2828 J-0.2828 F600.00
G1 X12.4000 Y0.0000 Z-2.0000 F600.00
G2 X12.0000 Y-0.4000 Z-2.0000 I-0.4000 J0.0000 F600.00
G1 X0.0000 Y-0.4000 Z-2.0000 F600.00
G2 X-0.4000 Y0.0000 Z-2.0000 I0.0000 J0.4000 F600.00
G1 X-0.4000 Y26.0000 Z-2.0000 F600.00
G2 X0.0000 Y26.4000 Z-2.0000 I0.4000 J-0.0000 F600.00
G1 X12.0000 Y26.4000 Z-2.0000 F600.00
G2 X12.2828 Y26.2828 Z-2.0000 I-0.0000 J-0.4000 F600.00
G1 X12.2828 Y26.2828 Z-2.2500 F100.00
G2 X12.4000 Y26.0000 Z-2.2500 I-0.2828 J-0.2828 F600.00
G1 X12.4000 Y0.0000 Z-2.2500 F600.00
G2 X12.0000 Y-0.4000 Z-2.2500 I-0.4000 J0.0000 F600.00
G1 X0.0000 Y-0.4000 Z-2.2500 F600.00
G2 X-0.4000 Y0.0000 Z-2.2500 I0.0000 J0.4000 F600.00
G1 X-0.4000 Y26.0000 Z-2.2500 F600.00
G2 X0.0000 Y26.4000 Z-2.2500 I0.4000 J-0.0000 F600.00
G1 X12.0000 Y26.4000 Z-2.2500 F600.00
G2 X12.2828 Y26.2828 Z-2.2500 I-0.0000 J-0.4000 F600.00
G1 X12.2828 Y26.2828 Z-2.5000 F100.00
G2 X12.4000 Y26.0000 Z-2.5000 I-0.2828 J-0.2828 F600.00
G1 X12.4000 Y0.0000 Z-2.5000 F600.00
G2 X12.0000 Y-0.4000 Z-2.5000 I-0.4000 J0.0000 F600.00
G1 X0.0000 Y-0.4000 Z-2.5000 F600.00
G2 X-0.4000 Y0.0000 Z-2.5000 I0.0000 J0.4000 F600.00
G1 X-0.4000 Y26.0000 Z-2.5000 F600.00
G2 X0.0000 Y26.4000 Z-2.5000 I0.4000 J-0.0000 F600.00
G1 X12.0000 Y26.4000 Z-2.5000 F600.00
G2 X12.2828 Y26.2828 Z-2.5000 I-0.0000 J-0.4000 F600.00
G1 X12.2828 Y26.2828 Z-2.7500 F100.00
G2 X12.4000 Y26.0000 Z-2.7500 I-0.2828 J-0.2828 F600.00
G1 X12.4000 Y0.0000 Z-2.7500 F600.00
G2 X12.0000 Y-0.4000 Z-2.7500 I-0.4000 J0.0000 F600.00
G1 X0.0000 Y-0.4000 Z-2.7500 F600.00
G2 X-0.4000 Y0.0000 Z-2.7500 I0.0000 J0.4000 F600.00
G1 X-0.4000 Y26.0000 Z-2.7500 F600.00
G2 X0.0000 Y26.4000 Z-2.7500 I0.4000 J-0.0000 F600.00
G1 X12.0000 Y26.4000 Z-2.7500 F600.00
G2 X12.2828 Y26.2828 Z-2.7500 I-0.0000 J-0.4000 F600.00
G1 X12.2828 Y26.2828 Z-3.0000 F100.00
G2 X12.4000 Y26.0000 Z-3.0000 I-0.2828 J-0.2828 F600.00
G1 X12.4000 Y0.0000 Z-3.0000 F600.00
G2 X12.0000 Y-0.4000 Z-3.0000 I-0.4000 J0.0000 F600.00
G1 X0.0000 Y-0.4000 Z-3.0000 F600.00
G2 X-0.4000 Y0.0000 Z-3.0000 I0.0000 J0.4000 F600.00
G1 X-0.4000 Y26.0000 Z-3.0000 F600.00
G2 X0.0000 Y26.4000 Z-3.0000 I0.4000 J-0.0000 F600.00
G1 X12.0000 Y26.4000 Z-3.0000 F600.00
G2 X12.2828 Y26.2828 Z-3.0000 I-0.0000 J-0.4000 F600.00
G0 Z5.0000
(finish operation: contour_left001)
(begin operation: contour_right001)
(Path: contour_right001)
(Profile_Edges037)
(Compensated Tool Path. Diameter: 0.8)
G0 Z5.0000
G0 X25.2828 Y26.2828
G0 Z3.0000
G1 X25.2828 Y26.2828 Z-0.2500 F100.00
G2 X25.4000 Y26.0000 Z-0.2500 I-0.2828 J-0.2828 F600.00
G1 X25.4000 Y0.0000 Z-0.2500 F600.00
G2 X25.0000 Y-0.4000 Z-0.2500 I-0.4000 J0.0000 F600.00
G1 X13.0000 Y-0.4000 Z-0.2500 F600.00
G2 X12.6000 Y0.0000 Z-0.2500 I0.0000 J0.4000 F600.00
G1 X12.6000 Y12.2845 Z-0.2500 F600.00
G2 X12.6994 Y12.5485 Z-0.2500 I0.4000 J-0.0000 F600.00
G3 X14.0599 Y25.8026 Z-0.2500 I-7.8427 J7.5019 F600.00
G2 X14.4078 Y26.4000 Z-0.2500 I0.3479 J0.1974 F600.00
G1 X25.0000 Y26.4000 Z-0.2500 F600.00
G2 X25.2828 Y26.2828 Z-0.2500 I-0.0000 J-0.4000 F600.00
G1 X25.2828 Y26.2828 Z-0.5000 F100.00
G2 X25.4000 Y26.0000 Z-0.5000 I-0.2828 J-0.2828 F600.00
G1 X25.4000 Y0.0000 Z-0.5000 F600.00
G2 X25.0000 Y-0.4000 Z-0.5000 I-0.4000 J0.0000 F600.00
G1 X13.0000 Y-0.4000 Z-0.5000 F600.00
G2 X12.6000 Y0.0000 Z-0.5000 I0.0000 J0.4000 F600.00
G1 X12.6000 Y12.2845 Z-0.5000 F600.00
G2 X12.6994 Y12.5485 Z-0.5000 I0.4000 J-0.0000 F600.00
G3 X14.0599 Y25.8026 Z-0.5000 I-7.8427 J7.5019 F600.00
G2 X14.4078 Y26.4000 Z-0.5000 I0.3479 J0.1974 F600.00
G1 X25.0000 Y26.4000 Z-0.5000 F600.00
G2 X25.2828 Y26.2828 Z-0.5000 I-0.0000 J-0.4000 F600.00
G1 X25.2828 Y26.2828 Z-0.7500 F100.00
G2 X25.4000 Y26.0000 Z-0.7500 I-0.2828 J-0.2828 F600.00
G1 X25.4000 Y0.0000 Z-0.7500 F600.00
G2 X25.0000 Y-0.4000 Z-0.7500 I-0.4000 J0.0000 F600.00
G1 X13.0000 Y-0.4000 Z-0.7500 F600.00
G2 X12.6000 Y0.0000 Z-0.7500 I0.0000 J0.4000 F600.00
G1 X12.6000 Y12.2845 Z-0.7500 F600.00
G2 X12.6994 Y12.5485 Z-0.7500 I0.4000 J-0.0000 F600.00
G3 X14.0599 Y25.8026 Z-0.7500 I-7.8427 J7.5019 F600.00
G2 X14.4078 Y26.4000 Z-0.7500 I0.3479 J0.1974 F600.00
G1 X25.0000 Y26.4000 Z-0.7500 F600.00
G2 X25.2828 Y26.2828 Z-0.7500 I-0.0000 J-0.4000 F600.00
G1 X25.2828 Y26.2828 Z-1.0000 F100.00
G2 X25.4000 Y26.0000 Z-1.0000 I-0.2828 J-0.2828 F600.00
G1 X25.4000 Y0.0000 Z-1.0000 F600.00
G2 X25.0000 Y-0.4000 Z-1.0000 I-0.4000 J0.0000 F600.00
G1 X13.0000 Y-0.4000 Z-1.0000 F600.00
G2 X12.6000 Y0.0000 Z-1.0000 I0.0000 J0.4000 F600.00
G1 X12.6000 Y12.2845 Z-1.0000 F600.00
G2 X12.6994 Y12.5485 Z-1.0000 I0.4000 J-0.0000 F600.00
G3 X14.0599 Y25.8026 Z-1.0000 I-7.8427 J7.5019 F600.00
G2 X14.4078 Y26.4000 Z-1.0000 I0.3479 J0.1974 F600.00
G1 X25.0000 Y26.4000 Z-1.0000 F600.00
G2 X25.2828 Y26.2828 Z-1.0000 I-0.0000 J-0.4000 F600.00
G1 X25.2828 Y26.2828 Z-1.2500 F100.00
G2 X25.4000 Y26.0000 Z-1.2500 I-0.2828 J-0.2828 F600.00
G1 X25.4000 Y0.0000 Z-1.2500 F600.00
G2 X25.0000 Y-0.4000 Z-1.2500 I-0.4000 J0.0000 F600.00
G1 X13.0000 Y-0.4000 Z-1.2500 F600.00
G2 X12.6000 Y0.0000 Z-1.2500 I0.0000 J0.4000 F600.00
G1 X12.6000 Y12.2845 Z-1.2500 F600.00
G2 X12.6994 Y12.5485 Z-1.2500 I0.4000 J-0.0000 F600.00
G3 X14.0599 Y25.8026 Z-1.2500 I-7.8427 J7.5019 F600.00
G2 X14.4078 Y26.4000 Z-1.2500 I0.3479 J0.1974 F600.00
G1 X25.0000 Y26.4000 Z-1.2500 F600.00
G2 X25.2828 Y26.2828 Z-1.2500 I-0.0000 J-0.4000 F600.00
G1 X25.2828 Y26.2828 Z-1.5000 F100.00
G2 X25.4000 Y26.0000 Z-1.5000 I-0.2828 J-0.2828 F600.00
G1 X25.4000 Y0.0000 Z-1.5000 F600.00
G2 X25.0000 Y-0.4000 Z-1.5000 I-0.4000 J0.0000 F600.00
G1 X13.0000 Y-0.4000 Z-1.5000 F600.00
G2 X12.6000 Y0.0000 Z-1.5000 I0.0000 J0.4000 F600.00
G1 X12.6000 Y12.2845 Z-1.5000 F600.00
G2 X12.6994 Y12.5485 Z-1.5000 I0.4000 J-0.0000 F600.00
G3 X14.0599 Y25.8026 Z-1.5000 I-7.8427 J7.5019 F600.00
G2 X14.4078 Y26.4000 Z-1.5000 I0.3479 J0.1974 F600.00
G1 X25.0000 Y26.4000 Z-1.5000 F600.00
G2 X25.2828 Y26.2828 Z-1.5000 I-0.0000 J-0.4000 F600.00
G1 X25.2828 Y26.2828 Z-1.7500 F100.00
G2 X25.4000 Y26.0000 Z-1.7500 I-0.2828 J-0.2828 F600.00
G1 X25.4000 Y0.0000 Z-1.7500 F600.00
G2 X25.0000 Y-0.4000 Z-1.7500 I-0.4000 J0.0000 F600.00
G1 X13.0000 Y-0.4000 Z-1.7500 F600.00
G2 X12.6000 Y0.0000 Z-1.7500 I0.0000 J0.4000 F600.00
G1 X12.6000 Y12.2845 Z-1.7500 F600.00
G2 X12.6994 Y12.5485 Z-1.7500 I0.4000 J-0.0000 F600.00
G3 X14.0599 Y25.8026 Z-1.7500 I-7.8427 J7.5019 F600.00
G2 X14.4078 Y26.4000 Z-1.7500 I0.3479 J0.1974 F600.00
G1 X25.0000 Y26.4000 Z-1.7500 F600.00
G2 X25.2828 Y26.2828 Z-1.7500 I-0.0000 J-0.4000 F600.00
G1 X25.2828 Y26.2828 Z-2.0000 F100.00
G2 X25.4000 Y26.0000 Z-2.0000 I-0.2828 J-0.2828 F600.00
G1 X25.4000 Y0.0000 Z-2.0000 F600.00
G2 X25.0000 Y-0.4000 Z-2.0000 I-0.4000 J0.0000 F600.00
G1 X13.0000 Y-0.4000 Z-2.0000 F600.00
G2 X12.6000 Y0.0000 Z-2.0000 I0.0000 J0.4000 F600.00
G1 X12.6000 Y12.2845 Z-2.0000 F600.00
G2 X12.6994 Y12.5485 Z-2.0000 I0.4000 J-0.0000 F600.00
G3 X14.0599 Y25.8026 Z-2.0000 I-7.8427 J7.5019 F600.00
G2 X14.4078 Y26.4000 Z-2.0000 I0.3479 J0.1974 F600.00
G1 X25.0000 Y26.4000 Z-2.0000 F600.00
G2 X25.2828 Y26.2828 Z-2.0000 I-0.0000 J-0.4000 F600.00
G1 X25.2828 Y26.2828 Z-2.2500 F100.00
G2 X25.4000 Y26.0000 Z-2.2500 I-0.2828 J-0.2828 F600.00
G1 X25.4000 Y0.0000 Z-2.2500 F600.00
G2 X25.0000 Y-0.4000 Z-2.2500 I-0.4000 J0.0000 F600.00
G1 X13.0000 Y-0.4000 Z-2.2500 F600.00
G2 X12.6000 Y0.0000 Z-2.2500 I0.0000 J0.4000 F600.00
G1 X12.6000 Y12.2845 Z-2.2500 F600.00
G2 X12.6994 Y12.5485 Z-2.2500 I0.4000 J-0.0000 F600.00
G3 X14.0599 Y25.8026 Z-2.2500 I-7.8427 J7.5019 F600.00
G2 X14.4078 Y26.4000 Z-2.2500 I0.3479 J0.1974 F600.00
G1 X25.0000 Y26.4000 Z-2.2500 F600.00
G2 X25.2828 Y26.2828 Z-2.2500 I-0.0000 J-0.4000 F600.00
G1 X25.2828 Y26.2828 Z-2.5000 F100.00
G2 X25.4000 Y26.0000 Z-2.5000 I-0.2828 J-0.2828 F600.00
G1 X25.4000 Y0.0000 Z-2.5000 F600.00
G2 X25.0000 Y-0.4000 Z-2.5000 I-0.4000 J0.0000 F600.00
G1 X13.0000 Y-0.4000 Z-2.5000 F600.00
G2 X12.6000 Y0.0000 Z-2.5000 I0.0000 J0.4000 F600.00
G1 X12.6000 Y12.2845 Z-2.5000 F600.00
G2 X12.6994 Y12.5485 Z-2.5000 I0.4000 J-0.0000 F600.00
G3 X14.0599 Y25.8026 Z-2.5000 I-7.8427 J7.5019 F600.00
G2 X14.4078 Y26.4000 Z-2.5000 I0.3479 J0.1974 F600.00
G1 X25.0000 Y26.4000 Z-2.5000 F600.00
G2 X25.2828 Y26.2828 Z-2.5000 I-0.0000 J-0.4000 F600.00
G1 X25.2828 Y26.2828 Z-2.7500 F100.00
G2 X25.4000 Y26.0000 Z-2.7500 I-0.2828 J-0.2828 F600.00
G1 X25.4000 Y0.0000 Z-2.7500 F600.00
G2 X25.0000 Y-0.4000 Z-2.7500 I-0.4000 J0.0000 F600.00
G1 X13.0000 Y-0.4000 Z-2.7500 F600.00
G2 X12.6000 Y0.0000 Z-2.7500 I0.0000 J0.4000 F600.00
G1 X12.6000 Y12.2845 Z-2.7500 F600.00
G2 X12.6994 Y12.5485 Z-2.7500 I0.4000 J-0.0000 F600.00
G3 X14.0599 Y25.8026 Z-2.7500 I-7.8427 J7.5019 F600.00
G2 X14.4078 Y26.4000 Z-2.7500 I0.3479 J0.1974 F600.00
G1 X25.0000 Y26.4000 Z-2.7500 F600.00
G2 X25.2828 Y26.2828 Z-2.7500 I-0.0000 J-0.4000 F600.00
G1 X25.2828 Y26.2828 Z-3.0000 F100.00
G2 X25.4000 Y26.0000 Z-3.0000 I-0.2828 J-0.2828 F600.00
G1 X25.4000 Y0.0000 Z-3.0000 F600.00
G2 X25.0000 Y-0.4000 Z-3.0000 I-0.4000 J0.0000 F600.00
G1 X13.0000 Y-0.4000 Z-3.0000 F600.00
G2 X12.6000 Y0.0000 Z-3.0000 I0.0000 J0.4000 F600.00
G1 X12.6000 Y12.2845 Z-3.0000 F600.00
G2 X12.6994 Y12.5485 Z-3.0000 I0.4000 J-0.0000 F600.00
G3 X14.0599 Y25.8026 Z-3.0000 I-7.8427 J7.5019 F600.00
G2 X14.4078 Y26.4000 Z-3.0000 I0.3479 J0.1974 F600.00
G1 X25.0000 Y26.4000 Z-3.0000 F600.00
G2 X25.2828 Y26.2828 Z-3.0000 I-0.0000 J-0.4000 F600.00
G0 Z5.0000
(finish operation: contour_right001)
(begin postamble)
M5
G17 G90
; M2
