(Exported by FreeCAD)
(Post Processor: grbl_post)
(Output Time:2019-09-03 21:16:42.259115)
(begin preamble)
G17 G90
G21
(begin operation: T2: end mill 3mm003)
(Path: T2: end mill 3mm003)
(T2: end mill 3mm003)
(begin toolchange)
M6 T2
M3 S10000.0000
(finish operation: T2: end mill 3mm003)
(begin operation: room_for_clamps_left)
(Path: room_for_clamps_left)
(room_for_clamps_left)
G0 Z4.9500
G0 X14.5219 Y36.2054
G0 Z2.9500
G1 X14.5219 Y36.2054 Z0.5000 F100.00
G1 X1.4932 Y48.8173 Z0.5000 F1000.00
G1 X1.4932 Y47.1128 Z0.5000 F1000.00
G1 X13.4697 Y35.1364 Z0.5000 F1000.00
G1 X12.4174 Y34.0673 Z0.5000 F1000.00
G1 X1.4932 Y44.9915 Z0.5000 F1000.00
G1 X1.4932 Y42.8702 Z0.5000 F1000.00
G1 X11.3652 Y32.9982 Z0.5000 F1000.00
G1 X10.3130 Y31.9291 Z0.5000 F1000.00
G1 X1.4932 Y40.7489 Z0.5000 F1000.00
G1 X1.4932 Y38.6276 Z0.5000 F1000.00
G1 X9.2607 Y30.8600 Z0.5000 F1000.00
G1 X8.2085 Y29.7910 Z0.5000 F1000.00
G1 X1.4932 Y36.5062 Z0.5000 F1000.00
G1 X1.4932 Y34.3849 Z0.5000 F1000.00
G1 X7.1562 Y28.7219 Z0.5000 F1000.00
G1 X6.1040 Y27.6528 Z0.5000 F1000.00
G1 X1.4932 Y32.2636 Z0.5000 F1000.00
G1 X1.4932 Y30.1423 Z0.5000 F1000.00
G1 X5.0517 Y26.5837 Z0.5000 F1000.00
G1 X3.9995 Y25.5147 Z0.5000 F1000.00
G1 X1.4932 Y28.0210 Z0.5000 F1000.00
G1 X1.4932 Y25.8996 Z0.5000 F1000.00
G1 X2.9473 Y24.4456 Z0.5000 F1000.00
G1 X1.8950 Y23.3765 Z0.5000 F1000.00
G1 X1.4932 Y23.7783 Z0.5000 F1000.00
G1 X1.4932 Y22.9682 Z0.5000 F1000.00
G1 X1.8950 Y23.3765 Z0.5000 F1000.00
G1 X1.8950 Y23.3765 Z0.0000 F100.00
G1 X1.4932 Y22.9682 Z0.0000 F1000.00
G1 X1.4932 Y23.7783 Z0.0000 F1000.00
G1 X1.8950 Y23.3765 Z0.0000 F1000.00
G1 X2.9473 Y24.4456 Z0.0000 F1000.00
G1 X1.4932 Y25.8996 Z0.0000 F1000.00
G1 X1.4932 Y28.0210 Z0.0000 F1000.00
G1 X3.9995 Y25.5147 Z0.0000 F1000.00
G1 X5.0517 Y26.5837 Z0.0000 F1000.00
G1 X1.4932 Y30.1423 Z0.0000 F1000.00
G1 X1.4932 Y32.2636 Z0.0000 F1000.00
G1 X6.1040 Y27.6528 Z0.0000 F1000.00
G1 X7.1562 Y28.7219 Z0.0000 F1000.00
G1 X1.4932 Y34.3849 Z0.0000 F1000.00
G1 X1.4932 Y36.5062 Z0.0000 F1000.00
G1 X8.2085 Y29.7910 Z0.0000 F1000.00
G1 X9.2607 Y30.8600 Z0.0000 F1000.00
G1 X1.4932 Y38.6276 Z-0.0000 F1000.00
G1 X1.4932 Y40.7489 Z-0.0000 F1000.00
G1 X10.3130 Y31.9291 Z0.0000 F1000.00
G1 X11.3652 Y32.9982 Z0.0000 F1000.00
G1 X1.4932 Y42.8702 Z-0.0000 F1000.00
G1 X1.4932 Y44.9915 Z-0.0000 F1000.00
G1 X12.4174 Y34.0673 Z0.0000 F1000.00
G1 X13.4697 Y35.1364 Z-0.0000 F1000.00
G1 X1.4932 Y47.1128 Z-0.0000 F1000.00
G1 X1.4932 Y48.8173 Z-0.0000 F1000.00
G1 X14.5219 Y36.2054 Z-0.0000 F1000.00
G1 X14.5219 Y36.2054 Z-0.5000 F100.00
G1 X1.4932 Y48.8173 Z-0.5000 F1000.00
G1 X1.4932 Y47.1128 Z-0.5000 F1000.00
G1 X13.4697 Y35.1364 Z-0.5000 F1000.00
G1 X12.4174 Y34.0673 Z-0.5000 F1000.00
G1 X1.4932 Y44.9915 Z-0.5000 F1000.00
G1 X1.4932 Y42.8702 Z-0.5000 F1000.00
G1 X11.3652 Y32.9982 Z-0.5000 F1000.00
G1 X10.3130 Y31.9291 Z-0.5000 F1000.00
G1 X1.4932 Y40.7489 Z-0.5000 F1000.00
G1 X1.4932 Y38.6276 Z-0.5000 F1000.00
G1 X9.2607 Y30.8600 Z-0.5000 F1000.00
G1 X8.2085 Y29.7910 Z-0.5000 F1000.00
G1 X1.4932 Y36.5062 Z-0.5000 F1000.00
G1 X1.4932 Y34.3849 Z-0.5000 F1000.00
G1 X7.1562 Y28.7219 Z-0.5000 F1000.00
G1 X6.1040 Y27.6528 Z-0.5000 F1000.00
G1 X1.4932 Y32.2636 Z-0.5000 F1000.00
G1 X1.4932 Y30.1423 Z-0.5000 F1000.00
G1 X5.0517 Y26.5837 Z-0.5000 F1000.00
G1 X3.9995 Y25.5147 Z-0.5000 F1000.00
G1 X1.4932 Y28.0210 Z-0.5000 F1000.00
G1 X1.4932 Y25.8996 Z-0.5000 F1000.00
G1 X2.9473 Y24.4456 Z-0.5000 F1000.00
G1 X1.8950 Y23.3765 Z-0.5000 F1000.00
G1 X1.4932 Y23.7783 Z-0.5000 F1000.00
G1 X1.4932 Y22.9682 Z-0.5000 F1000.00
G1 X1.8950 Y23.3765 Z-0.5000 F1000.00
G1 X1.8950 Y23.3765 Z-1.0000 F100.00
G1 X1.4932 Y22.9682 Z-1.0000 F1000.00
G1 X1.4932 Y23.7783 Z-1.0000 F1000.00
G1 X1.8950 Y23.3765 Z-1.0000 F1000.00
G1 X2.9473 Y24.4456 Z-1.0000 F1000.00
G1 X1.4932 Y25.8996 Z-1.0000 F1000.00
G1 X1.4932 Y28.0210 Z-1.0000 F1000.00
G1 X3.9995 Y25.5147 Z-1.0000 F1000.00
G1 X5.0517 Y26.5837 Z-1.0000 F1000.00
G1 X1.4932 Y30.1423 Z-1.0000 F1000.00
G1 X1.4932 Y32.2636 Z-1.0000 F1000.00
G1 X6.1040 Y27.6528 Z-1.0000 F1000.00
G1 X7.1562 Y28.7219 Z-1.0000 F1000.00
G1 X1.4932 Y34.3849 Z-1.0000 F1000.00
G1 X1.4932 Y36.5062 Z-1.0000 F1000.00
G1 X8.2085 Y29.7910 Z-1.0000 F1000.00
G1 X9.2607 Y30.8600 Z-1.0000 F1000.00
G1 X1.4932 Y38.6276 Z-1.0000 F1000.00
G1 X1.4932 Y40.7489 Z-1.0000 F1000.00
G1 X10.3130 Y31.9291 Z-1.0000 F1000.00
G1 X11.3652 Y32.9982 Z-1.0000 F1000.00
G1 X1.4932 Y42.8702 Z-1.0000 F1000.00
G1 X1.4932 Y44.9915 Z-1.0000 F1000.00
G1 X12.4174 Y34.0673 Z-1.0000 F1000.00
G1 X13.4697 Y35.1364 Z-1.0000 F1000.00
G1 X1.4932 Y47.1128 Z-1.0000 F1000.00
G1 X1.4932 Y48.8173 Z-1.0000 F1000.00
G1 X14.5219 Y36.2054 Z-1.0000 F1000.00
G1 X14.5219 Y36.2054 Z-1.5000 F100.00
G1 X1.4932 Y48.8173 Z-1.5000 F1000.00
G1 X1.4932 Y47.1128 Z-1.5000 F1000.00
G1 X13.4697 Y35.1364 Z-1.5000 F1000.00
G1 X12.4174 Y34.0673 Z-1.5000 F1000.00
G1 X1.4932 Y44.9915 Z-1.5000 F1000.00
G1 X1.4932 Y42.8702 Z-1.5000 F1000.00
G1 X11.3652 Y32.9982 Z-1.5000 F1000.00
G1 X10.3130 Y31.9291 Z-1.5000 F1000.00
G1 X1.4932 Y40.7489 Z-1.5000 F1000.00
G1 X1.4932 Y38.6276 Z-1.5000 F1000.00
G1 X9.2607 Y30.8600 Z-1.5000 F1000.00
G1 X8.2085 Y29.7910 Z-1.5000 F1000.00
G1 X1.4932 Y36.5062 Z-1.5000 F1000.00
G1 X1.4932 Y34.3849 Z-1.5000 F1000.00
G1 X7.1562 Y28.7219 Z-1.5000 F1000.00
G1 X6.1040 Y27.6528 Z-1.5000 F1000.00
G1 X1.4932 Y32.2636 Z-1.5000 F1000.00
G1 X1.4932 Y30.1423 Z-1.5000 F1000.00
G1 X5.0517 Y26.5837 Z-1.5000 F1000.00
G1 X3.9995 Y25.5147 Z-1.5000 F1000.00
G1 X1.4932 Y28.0210 Z-1.5000 F1000.00
G1 X1.4932 Y25.8996 Z-1.5000 F1000.00
G1 X2.9473 Y24.4456 Z-1.5000 F1000.00
G1 X1.8950 Y23.3765 Z-1.5000 F1000.00
G1 X1.4932 Y23.7783 Z-1.5000 F1000.00
G1 X1.4932 Y22.9682 Z-1.5000 F1000.00
G1 X1.8950 Y23.3765 Z-1.5000 F1000.00
G1 X1.8950 Y23.3765 Z-2.0000 F100.00
G1 X1.4932 Y22.9682 Z-2.0000 F1000.00
G1 X1.4932 Y23.7783 Z-2.0000 F1000.00
G1 X1.8950 Y23.3765 Z-2.0000 F1000.00
G1 X2.9473 Y24.4456 Z-2.0000 F1000.00
G1 X1.4932 Y25.8996 Z-2.0000 F1000.00
G1 X1.4932 Y28.0210 Z-2.0000 F1000.00
G1 X3.9995 Y25.5147 Z-2.0000 F1000.00
G1 X5.0517 Y26.5837 Z-2.0000 F1000.00
G1 X1.4932 Y30.1423 Z-2.0000 F1000.00
G1 X1.4932 Y32.2636 Z-2.0000 F1000.00
G1 X6.1040 Y27.6528 Z-2.0000 F1000.00
G1 X7.1562 Y28.7219 Z-2.0000 F1000.00
G1 X1.4932 Y34.3849 Z-2.0000 F1000.00
G1 X1.4932 Y36.5062 Z-2.0000 F1000.00
G1 X8.2085 Y29.7910 Z-2.0000 F1000.00
G1 X9.2607 Y30.8600 Z-2.0000 F1000.00
G1 X1.4932 Y38.6276 Z-2.0000 F1000.00
G1 X1.4932 Y40.7489 Z-2.0000 F1000.00
G1 X10.3130 Y31.9291 Z-2.0000 F1000.00
G1 X11.3652 Y32.9982 Z-2.0000 F1000.00
G1 X1.4932 Y42.8702 Z-2.0000 F1000.00
G1 X1.4932 Y44.9915 Z-2.0000 F1000.00
G1 X12.4174 Y34.0673 Z-2.0000 F1000.00
G1 X13.4697 Y35.1364 Z-2.0000 F1000.00
G1 X1.4932 Y47.1128 Z-2.0000 F1000.00
G1 X1.4932 Y48.8173 Z-2.0000 F1000.00
G1 X14.5219 Y36.2054 Z-2.0000 F1000.00
G1 X14.5219 Y36.2054 Z-2.5000 F100.00
G1 X1.4932 Y48.8173 Z-2.5000 F1000.00
G1 X1.4932 Y47.1128 Z-2.5000 F1000.00
G1 X13.4697 Y35.1364 Z-2.5000 F1000.00
G1 X12.4174 Y34.0673 Z-2.5000 F1000.00
G1 X1.4932 Y44.9915 Z-2.5000 F1000.00
G1 X1.4932 Y42.8702 Z-2.5000 F1000.00
G1 X11.3652 Y32.9982 Z-2.5000 F1000.00
G1 X10.3130 Y31.9291 Z-2.5000 F1000.00
G1 X1.4932 Y40.7489 Z-2.5000 F1000.00
G1 X1.4932 Y38.6276 Z-2.5000 F1000.00
G1 X9.2607 Y30.8600 Z-2.5000 F1000.00
G1 X8.2085 Y29.7910 Z-2.5000 F1000.00
G1 X1.4932 Y36.5062 Z-2.5000 F1000.00
G1 X1.4932 Y34.3849 Z-2.5000 F1000.00
G1 X7.1562 Y28.7219 Z-2.5000 F1000.00
G1 X6.1040 Y27.6528 Z-2.5000 F1000.00
G1 X1.4932 Y32.2636 Z-2.5000 F1000.00
G1 X1.4932 Y30.1423 Z-2.5000 F1000.00
G1 X5.0517 Y26.5837 Z-2.5000 F1000.00
G1 X3.9995 Y25.5147 Z-2.5000 F1000.00
G1 X1.4932 Y28.0210 Z-2.5000 F1000.00
G1 X1.4932 Y25.8996 Z-2.5000 F1000.00
G1 X2.9473 Y24.4456 Z-2.5000 F1000.00
G1 X1.8950 Y23.3765 Z-2.5000 F1000.00
G1 X1.4932 Y23.7783 Z-2.5000 F1000.00
G1 X1.4932 Y22.9682 Z-2.5000 F1000.00
G1 X1.8950 Y23.3765 Z-2.5000 F1000.00
G1 X1.8950 Y23.3765 Z-3.0000 F100.00
G1 X1.4932 Y22.9682 Z-3.0000 F1000.00
G1 X1.4932 Y23.7783 Z-3.0000 F1000.00
G1 X1.8950 Y23.3765 Z-3.0000 F1000.00
G1 X2.9473 Y24.4456 Z-3.0000 F1000.00
G1 X1.4932 Y25.8996 Z-3.0000 F1000.00
G1 X1.4932 Y28.0210 Z-3.0000 F1000.00
G1 X3.9995 Y25.5147 Z-3.0000 F1000.00
G1 X5.0517 Y26.5837 Z-3.0000 F1000.00
G1 X1.4932 Y30.1423 Z-3.0000 F1000.00
G1 X1.4932 Y32.2636 Z-3.0000 F1000.00
G1 X6.1040 Y27.6528 Z-3.0000 F1000.00
G1 X7.1562 Y28.7219 Z-3.0000 F1000.00
G1 X1.4932 Y34.3849 Z-3.0000 F1000.00
G1 X1.4932 Y36.5062 Z-3.0000 F1000.00
G1 X8.2085 Y29.7910 Z-3.0000 F1000.00
G1 X9.2607 Y30.8600 Z-3.0000 F1000.00
G1 X1.4932 Y38.6276 Z-3.0000 F1000.00
G1 X1.4932 Y40.7489 Z-3.0000 F1000.00
G1 X10.3130 Y31.9291 Z-3.0000 F1000.00
G1 X11.3652 Y32.9982 Z-3.0000 F1000.00
G1 X1.4932 Y42.8702 Z-3.0000 F1000.00
G1 X1.4932 Y44.9915 Z-3.0000 F1000.00
G1 X12.4174 Y34.0673 Z-3.0000 F1000.00
G1 X13.4697 Y35.1364 Z-3.0000 F1000.00
G1 X1.4932 Y47.1128 Z-3.0000 F1000.00
G1 X1.4932 Y48.8173 Z-3.0000 F1000.00
G1 X14.5219 Y36.2054 Z-3.0000 F1000.00
G1 X14.5219 Y36.2054 Z-3.5000 F100.00
G1 X1.4932 Y48.8173 Z-3.5000 F1000.00
G1 X1.4932 Y47.1128 Z-3.5000 F1000.00
G1 X13.4697 Y35.1364 Z-3.5000 F1000.00
G1 X12.4174 Y34.0673 Z-3.5000 F1000.00
G1 X1.4932 Y44.9915 Z-3.5000 F1000.00
G1 X1.4932 Y42.8702 Z-3.5000 F1000.00
G1 X11.3652 Y32.9982 Z-3.5000 F1000.00
G1 X10.3130 Y31.9291 Z-3.5000 F1000.00
G1 X1.4932 Y40.7489 Z-3.5000 F1000.00
G1 X1.4932 Y38.6276 Z-3.5000 F1000.00
G1 X9.2607 Y30.8600 Z-3.5000 F1000.00
G1 X8.2085 Y29.7910 Z-3.5000 F1000.00
G1 X1.4932 Y36.5062 Z-3.5000 F1000.00
G1 X1.4932 Y34.3849 Z-3.5000 F1000.00
G1 X7.1562 Y28.7219 Z-3.5000 F1000.00
G1 X6.1040 Y27.6528 Z-3.5000 F1000.00
G1 X1.4932 Y32.2636 Z-3.5000 F1000.00
G1 X1.4932 Y30.1423 Z-3.5000 F1000.00
G1 X5.0517 Y26.5837 Z-3.5000 F1000.00
G1 X3.9995 Y25.5147 Z-3.5000 F1000.00
G1 X1.4932 Y28.0210 Z-3.5000 F1000.00
G1 X1.4932 Y25.8996 Z-3.5000 F1000.00
G1 X2.9473 Y24.4456 Z-3.5000 F1000.00
G1 X1.8950 Y23.3765 Z-3.5000 F1000.00
G1 X1.4932 Y23.7783 Z-3.5000 F1000.00
G1 X1.4932 Y22.9682 Z-3.5000 F1000.00
G1 X1.8950 Y23.3765 Z-3.5000 F1000.00
G1 X1.8950 Y23.3765 Z-4.0000 F100.00
G1 X1.4932 Y22.9682 Z-4.0000 F1000.00
G1 X1.4932 Y23.7783 Z-4.0000 F1000.00
G1 X1.8950 Y23.3765 Z-4.0000 F1000.00
G1 X2.9473 Y24.4456 Z-4.0000 F1000.00
G1 X1.4932 Y25.8996 Z-4.0000 F1000.00
G1 X1.4932 Y28.0210 Z-4.0000 F1000.00
G1 X3.9995 Y25.5147 Z-4.0000 F1000.00
G1 X5.0517 Y26.5837 Z-4.0000 F1000.00
G1 X1.4932 Y30.1423 Z-4.0000 F1000.00
G1 X1.4932 Y32.2636 Z-4.0000 F1000.00
G1 X6.1040 Y27.6528 Z-4.0000 F1000.00
G1 X7.1562 Y28.7219 Z-4.0000 F1000.00
G1 X1.4932 Y34.3849 Z-4.0000 F1000.00
G1 X1.4932 Y36.5062 Z-4.0000 F1000.00
G1 X8.2085 Y29.7910 Z-4.0000 F1000.00
G1 X9.2607 Y30.8600 Z-4.0000 F1000.00
G1 X1.4932 Y38.6276 Z-4.0000 F1000.00
G1 X1.4932 Y40.7489 Z-4.0000 F1000.00
G1 X10.3130 Y31.9291 Z-4.0000 F1000.00
G1 X11.3652 Y32.9982 Z-4.0000 F1000.00
G1 X1.4932 Y42.8702 Z-4.0000 F1000.00
G1 X1.4932 Y44.9915 Z-4.0000 F1000.00
G1 X12.4174 Y34.0673 Z-4.0000 F1000.00
G1 X13.4697 Y35.1364 Z-4.0000 F1000.00
G1 X1.4932 Y47.1128 Z-4.0000 F1000.00
G1 X1.4932 Y48.8173 Z-4.0000 F1000.00
G1 X14.5219 Y36.2054 Z-4.0000 F1000.00
G1 X14.5219 Y36.2054 Z-4.5000 F100.00
G1 X1.4932 Y48.8173 Z-4.5000 F1000.00
G1 X1.4932 Y47.1128 Z-4.5000 F1000.00
G1 X13.4697 Y35.1364 Z-4.5000 F1000.00
G1 X12.4174 Y34.0673 Z-4.5000 F1000.00
G1 X1.4932 Y44.9915 Z-4.5000 F1000.00
G1 X1.4932 Y42.8702 Z-4.5000 F1000.00
G1 X11.3652 Y32.9982 Z-4.5000 F1000.00
G1 X10.3130 Y31.9291 Z-4.5000 F1000.00
G1 X1.4932 Y40.7489 Z-4.5000 F1000.00
G1 X1.4932 Y38.6276 Z-4.5000 F1000.00
G1 X9.2607 Y30.8600 Z-4.5000 F1000.00
G1 X8.2085 Y29.7910 Z-4.5000 F1000.00
G1 X1.4932 Y36.5062 Z-4.5000 F1000.00
G1 X1.4932 Y34.3849 Z-4.5000 F1000.00
G1 X7.1562 Y28.7219 Z-4.5000 F1000.00
G1 X6.1040 Y27.6528 Z-4.5000 F1000.00
G1 X1.4932 Y32.2636 Z-4.5000 F1000.00
G1 X1.4932 Y30.1423 Z-4.5000 F1000.00
G1 X5.0517 Y26.5837 Z-4.5000 F1000.00
G1 X3.9995 Y25.5147 Z-4.5000 F1000.00
G1 X1.4932 Y28.0210 Z-4.5000 F1000.00
G1 X1.4932 Y25.8996 Z-4.5000 F1000.00
G1 X2.9473 Y24.4456 Z-4.5000 F1000.00
G1 X1.8950 Y23.3765 Z-4.5000 F1000.00
G1 X1.4932 Y23.7783 Z-4.5000 F1000.00
G1 X1.4932 Y22.9682 Z-4.5000 F1000.00
G1 X1.8950 Y23.3765 Z-4.5000 F1000.00
G1 X1.8950 Y23.3765 Z-5.0000 F100.00
G1 X1.4932 Y22.9682 Z-5.0000 F1000.00
G1 X1.4932 Y23.7783 Z-5.0000 F1000.00
G1 X1.8950 Y23.3765 Z-5.0000 F1000.00
G1 X2.9473 Y24.4456 Z-5.0000 F1000.00
G1 X1.4932 Y25.8996 Z-5.0000 F1000.00
G1 X1.4932 Y28.0210 Z-5.0000 F1000.00
G1 X3.9995 Y25.5147 Z-5.0000 F1000.00
G1 X5.0517 Y26.5837 Z-5.0000 F1000.00
G1 X1.4932 Y30.1423 Z-5.0000 F1000.00
G1 X1.4932 Y32.2636 Z-5.0000 F1000.00
G1 X6.1040 Y27.6528 Z-5.0000 F1000.00
G1 X7.1562 Y28.7219 Z-5.0000 F1000.00
G1 X1.4932 Y34.3849 Z-5.0000 F1000.00
G1 X1.4932 Y36.5062 Z-5.0000 F1000.00
G1 X8.2085 Y29.7910 Z-5.0000 F1000.00
G1 X9.2607 Y30.8600 Z-5.0000 F1000.00
G1 X1.4932 Y38.6276 Z-5.0000 F1000.00
G1 X1.4932 Y40.7489 Z-5.0000 F1000.00
G1 X10.3130 Y31.9291 Z-5.0000 F1000.00
G1 X11.3652 Y32.9982 Z-5.0000 F1000.00
G1 X1.4932 Y42.8702 Z-5.0000 F1000.00
G1 X1.4932 Y44.9915 Z-5.0000 F1000.00
G1 X12.4174 Y34.0673 Z-5.0000 F1000.00
G1 X13.4697 Y35.1364 Z-5.0000 F1000.00
G1 X1.4932 Y47.1128 Z-5.0000 F1000.00
G1 X1.4932 Y48.8173 Z-5.0000 F1000.00
G1 X14.5219 Y36.2054 Z-5.0000 F1000.00
G1 X14.5219 Y36.2054 Z-5.5000 F100.00
G1 X1.4932 Y48.8173 Z-5.5000 F1000.00
G1 X1.4932 Y47.1128 Z-5.5000 F1000.00
G1 X13.4697 Y35.1364 Z-5.5000 F1000.00
G1 X12.4174 Y34.0673 Z-5.5000 F1000.00
G1 X1.4932 Y44.9915 Z-5.5000 F1000.00
G1 X1.4932 Y42.8702 Z-5.5000 F1000.00
G1 X11.3652 Y32.9982 Z-5.5000 F1000.00
G1 X10.3130 Y31.9291 Z-5.5000 F1000.00
G1 X1.4932 Y40.7489 Z-5.5000 F1000.00
G1 X1.4932 Y38.6276 Z-5.5000 F1000.00
G1 X9.2607 Y30.8600 Z-5.5000 F1000.00
G1 X8.2085 Y29.7910 Z-5.5000 F1000.00
G1 X1.4932 Y36.5062 Z-5.5000 F1000.00
G1 X1.4932 Y34.3849 Z-5.5000 F1000.00
G1 X7.1562 Y28.7219 Z-5.5000 F1000.00
G1 X6.1040 Y27.6528 Z-5.5000 F1000.00
G1 X1.4932 Y32.2636 Z-5.5000 F1000.00
G1 X1.4932 Y30.1423 Z-5.5000 F1000.00
G1 X5.0517 Y26.5837 Z-5.5000 F1000.00
G1 X3.9995 Y25.5147 Z-5.5000 F1000.00
G1 X1.4932 Y28.0210 Z-5.5000 F1000.00
G1 X1.4932 Y25.8996 Z-5.5000 F1000.00
G1 X2.9473 Y24.4456 Z-5.5000 F1000.00
G1 X1.8950 Y23.3765 Z-5.5000 F1000.00
G1 X1.4932 Y23.7783 Z-5.5000 F1000.00
G1 X1.4932 Y22.9682 Z-5.5000 F1000.00
G1 X1.8950 Y23.3765 Z-5.5000 F1000.00
G1 X1.8950 Y23.3765 Z-6.0000 F100.00
G1 X1.4932 Y22.9682 Z-6.0000 F1000.00
G1 X1.4932 Y23.7783 Z-6.0000 F1000.00
G1 X1.8950 Y23.3765 Z-6.0000 F1000.00
G1 X2.9473 Y24.4456 Z-6.0000 F1000.00
G1 X1.4932 Y25.8996 Z-6.0000 F1000.00
G1 X1.4932 Y28.0210 Z-6.0000 F1000.00
G1 X3.9995 Y25.5147 Z-6.0000 F1000.00
G1 X5.0517 Y26.5837 Z-6.0000 F1000.00
G1 X1.4932 Y30.1423 Z-6.0000 F1000.00
G1 X1.4932 Y32.2636 Z-6.0000 F1000.00
G1 X6.1040 Y27.6528 Z-6.0000 F1000.00
G1 X7.1562 Y28.7219 Z-6.0000 F1000.00
G1 X1.4932 Y34.3849 Z-6.0000 F1000.00
G1 X1.4932 Y36.5062 Z-6.0000 F1000.00
G1 X8.2085 Y29.7910 Z-6.0000 F1000.00
G1 X9.2607 Y30.8600 Z-6.0000 F1000.00
G1 X1.4932 Y38.6276 Z-6.0000 F1000.00
G1 X1.4932 Y40.7489 Z-6.0000 F1000.00
G1 X10.3130 Y31.9291 Z-6.0000 F1000.00
G1 X11.3652 Y32.9982 Z-6.0000 F1000.00
G1 X1.4932 Y42.8702 Z-6.0000 F1000.00
G1 X1.4932 Y44.9915 Z-6.0000 F1000.00
G1 X12.4174 Y34.0673 Z-6.0000 F1000.00
G1 X13.4697 Y35.1364 Z-6.0000 F1000.00
G1 X1.4932 Y47.1128 Z-6.0000 F1000.00
G1 X1.4932 Y48.8173 Z-6.0000 F1000.00
G1 X14.5219 Y36.2054 Z-6.0000 F1000.00
G1 X14.5219 Y36.2054 Z-6.5000 F100.00
G1 X1.4932 Y48.8173 Z-6.5000 F1000.00
G1 X1.4932 Y47.1128 Z-6.5000 F1000.00
G1 X13.4697 Y35.1364 Z-6.5000 F1000.00
G1 X12.4174 Y34.0673 Z-6.5000 F1000.00
G1 X1.4932 Y44.9915 Z-6.5000 F1000.00
G1 X1.4932 Y42.8702 Z-6.5000 F1000.00
G1 X11.3652 Y32.9982 Z-6.5000 F1000.00
G1 X10.3130 Y31.9291 Z-6.5000 F1000.00
G1 X1.4932 Y40.7489 Z-6.5000 F1000.00
G1 X1.4932 Y38.6276 Z-6.5000 F1000.00
G1 X9.2607 Y30.8600 Z-6.5000 F1000.00
G1 X8.2085 Y29.7910 Z-6.5000 F1000.00
G1 X1.4932 Y36.5062 Z-6.5000 F1000.00
G1 X1.4932 Y34.3849 Z-6.5000 F1000.00
G1 X7.1562 Y28.7219 Z-6.5000 F1000.00
G1 X6.1040 Y27.6528 Z-6.5000 F1000.00
G1 X1.4932 Y32.2636 Z-6.5000 F1000.00
G1 X1.4932 Y30.1423 Z-6.5000 F1000.00
G1 X5.0517 Y26.5837 Z-6.5000 F1000.00
G1 X3.9995 Y25.5147 Z-6.5000 F1000.00
G1 X1.4932 Y28.0210 Z-6.5000 F1000.00
G1 X1.4932 Y25.8996 Z-6.5000 F1000.00
G1 X2.9473 Y24.4456 Z-6.5000 F1000.00
G1 X1.8950 Y23.3765 Z-6.5000 F1000.00
G1 X1.4932 Y23.7783 Z-6.5000 F1000.00
G1 X1.4932 Y22.9682 Z-6.5000 F1000.00
G1 X1.8950 Y23.3765 Z-6.5000 F1000.00
G1 X1.8950 Y23.3765 Z-7.0000 F100.00
G1 X1.4932 Y22.9682 Z-7.0000 F1000.00
G1 X1.4932 Y23.7783 Z-7.0000 F1000.00
G1 X1.8950 Y23.3765 Z-7.0000 F1000.00
G1 X2.9473 Y24.4456 Z-7.0000 F1000.00
G1 X1.4932 Y25.8996 Z-7.0000 F1000.00
G1 X1.4932 Y28.0210 Z-7.0000 F1000.00
G1 X3.9995 Y25.5147 Z-7.0000 F1000.00
G1 X5.0517 Y26.5837 Z-7.0000 F1000.00
G1 X1.4932 Y30.1423 Z-7.0000 F1000.00
G1 X1.4932 Y32.2636 Z-7.0000 F1000.00
G1 X6.1040 Y27.6528 Z-7.0000 F1000.00
G1 X7.1562 Y28.7219 Z-7.0000 F1000.00
G1 X1.4932 Y34.3849 Z-7.0000 F1000.00
G1 X1.4932 Y36.5062 Z-7.0000 F1000.00
G1 X8.2085 Y29.7910 Z-7.0000 F1000.00
G1 X9.2607 Y30.8600 Z-7.0000 F1000.00
G1 X1.4932 Y38.6276 Z-7.0000 F1000.00
G1 X1.4932 Y40.7489 Z-7.0000 F1000.00
G1 X10.3130 Y31.9291 Z-7.0000 F1000.00
G1 X11.3652 Y32.9982 Z-7.0000 F1000.00
G1 X1.4932 Y42.8702 Z-7.0000 F1000.00
G1 X1.4932 Y44.9915 Z-7.0000 F1000.00
G1 X12.4174 Y34.0673 Z-7.0000 F1000.00
G1 X13.4697 Y35.1364 Z-7.0000 F1000.00
G1 X1.4932 Y47.1128 Z-7.0000 F1000.00
G1 X1.4932 Y48.8173 Z-7.0000 F1000.00
G1 X14.5219 Y36.2054 Z-7.0000 F1000.00
G1 X14.5219 Y36.2054 Z-7.5000 F100.00
G1 X1.4932 Y48.8173 Z-7.5000 F1000.00
G1 X1.4932 Y47.1128 Z-7.5000 F1000.00
G1 X13.4697 Y35.1364 Z-7.5000 F1000.00
G1 X12.4174 Y34.0673 Z-7.5000 F1000.00
G1 X1.4932 Y44.9915 Z-7.5000 F1000.00
G1 X1.4932 Y42.8702 Z-7.5000 F1000.00
G1 X11.3652 Y32.9982 Z-7.5000 F1000.00
G1 X10.3130 Y31.9291 Z-7.5000 F1000.00
G1 X1.4932 Y40.7489 Z-7.5000 F1000.00
G1 X1.4932 Y38.6276 Z-7.5000 F1000.00
G1 X9.2607 Y30.8600 Z-7.5000 F1000.00
G1 X8.2085 Y29.7910 Z-7.5000 F1000.00
G1 X1.4932 Y36.5062 Z-7.5000 F1000.00
G1 X1.4932 Y34.3849 Z-7.5000 F1000.00
G1 X7.1562 Y28.7219 Z-7.5000 F1000.00
G1 X6.1040 Y27.6528 Z-7.5000 F1000.00
G1 X1.4932 Y32.2636 Z-7.5000 F1000.00
G1 X1.4932 Y30.1423 Z-7.5000 F1000.00
G1 X5.0517 Y26.5837 Z-7.5000 F1000.00
G1 X3.9995 Y25.5147 Z-7.5000 F1000.00
G1 X1.4932 Y28.0210 Z-7.5000 F1000.00
G1 X1.4932 Y25.8996 Z-7.5000 F1000.00
G1 X2.9473 Y24.4456 Z-7.5000 F1000.00
G1 X1.8950 Y23.3765 Z-7.5000 F1000.00
G1 X1.4932 Y23.7783 Z-7.5000 F1000.00
G1 X1.4932 Y22.9682 Z-7.5000 F1000.00
G1 X1.8950 Y23.3765 Z-7.5000 F1000.00
G1 X1.8950 Y23.3765 Z-8.0000 F100.00
G1 X1.4932 Y22.9682 Z-8.0000 F1000.00
G1 X1.4932 Y23.7783 Z-8.0000 F1000.00
G1 X1.8950 Y23.3765 Z-8.0000 F1000.00
G1 X2.9473 Y24.4456 Z-8.0000 F1000.00
G1 X1.4932 Y25.8996 Z-8.0000 F1000.00
G1 X1.4932 Y28.0210 Z-8.0000 F1000.00
G1 X3.9995 Y25.5147 Z-8.0000 F1000.00
G1 X5.0517 Y26.5837 Z-8.0000 F1000.00
G1 X1.4932 Y30.1423 Z-8.0000 F1000.00
G1 X1.4932 Y32.2636 Z-8.0000 F1000.00
G1 X6.1040 Y27.6528 Z-8.0000 F1000.00
G1 X7.1562 Y28.7219 Z-8.0000 F1000.00
G1 X1.4932 Y34.3849 Z-8.0000 F1000.00
G1 X1.4932 Y36.5062 Z-8.0000 F1000.00
G1 X8.2085 Y29.7910 Z-8.0000 F1000.00
G1 X9.2607 Y30.8600 Z-8.0000 F1000.00
G1 X1.4932 Y38.6276 Z-8.0000 F1000.00
G1 X1.4932 Y40.7489 Z-8.0000 F1000.00
G1 X10.3130 Y31.9291 Z-8.0000 F1000.00
G1 X11.3652 Y32.9982 Z-8.0000 F1000.00
G1 X1.4932 Y42.8702 Z-8.0000 F1000.00
G1 X1.4932 Y44.9915 Z-8.0000 F1000.00
G1 X12.4174 Y34.0673 Z-8.0000 F1000.00
G1 X13.4697 Y35.1364 Z-8.0000 F1000.00
G1 X1.4932 Y47.1128 Z-8.0000 F1000.00
G1 X1.4932 Y48.8173 Z-8.0000 F1000.00
G1 X14.5219 Y36.2054 Z-8.0000 F1000.00
G1 X14.5219 Y36.2054 Z-8.5000 F100.00
G1 X1.4932 Y48.8173 Z-8.5000 F1000.00
G1 X1.4932 Y47.1128 Z-8.5000 F1000.00
G1 X13.4697 Y35.1364 Z-8.5000 F1000.00
G1 X12.4174 Y34.0673 Z-8.5000 F1000.00
G1 X1.4932 Y44.9915 Z-8.5000 F1000.00
G1 X1.4932 Y42.8702 Z-8.5000 F1000.00
G1 X11.3652 Y32.9982 Z-8.5000 F1000.00
G1 X10.3130 Y31.9291 Z-8.5000 F1000.00
G1 X1.4932 Y40.7489 Z-8.5000 F1000.00
G1 X1.4932 Y38.6276 Z-8.5000 F1000.00
G1 X9.2607 Y30.8600 Z-8.5000 F1000.00
G1 X8.2085 Y29.7910 Z-8.5000 F1000.00
G1 X1.4932 Y36.5062 Z-8.5000 F1000.00
G1 X1.4932 Y34.3849 Z-8.5000 F1000.00
G1 X7.1562 Y28.7219 Z-8.5000 F1000.00
G1 X6.1040 Y27.6528 Z-8.5000 F1000.00
G1 X1.4932 Y32.2636 Z-8.5000 F1000.00
G1 X1.4932 Y30.1423 Z-8.5000 F1000.00
G1 X5.0517 Y26.5837 Z-8.5000 F1000.00
G1 X3.9995 Y25.5147 Z-8.5000 F1000.00
G1 X1.4932 Y28.0210 Z-8.5000 F1000.00
G1 X1.4932 Y25.8996 Z-8.5000 F1000.00
G1 X2.9473 Y24.4456 Z-8.5000 F1000.00
G1 X1.8950 Y23.3765 Z-8.5000 F1000.00
G1 X1.4932 Y23.7783 Z-8.5000 F1000.00
G1 X1.4932 Y22.9682 Z-8.5000 F1000.00
G1 X1.8950 Y23.3765 Z-8.5000 F1000.00
G1 X1.8950 Y23.3765 Z-9.0000 F100.00
G1 X1.4932 Y22.9682 Z-9.0000 F1000.00
G1 X1.4932 Y23.7783 Z-9.0000 F1000.00
G1 X1.8950 Y23.3765 Z-9.0000 F1000.00
G1 X2.9473 Y24.4456 Z-9.0000 F1000.00
G1 X1.4932 Y25.8996 Z-9.0000 F1000.00
G1 X1.4932 Y28.0210 Z-9.0000 F1000.00
G1 X3.9995 Y25.5147 Z-9.0000 F1000.00
G1 X5.0517 Y26.5837 Z-9.0000 F1000.00
G1 X1.4932 Y30.1423 Z-9.0000 F1000.00
G1 X1.4932 Y32.2636 Z-9.0000 F1000.00
G1 X6.1040 Y27.6528 Z-9.0000 F1000.00
G1 X7.1562 Y28.7219 Z-9.0000 F1000.00
G1 X1.4932 Y34.3849 Z-9.0000 F1000.00
G1 X1.4932 Y36.5062 Z-9.0000 F1000.00
G1 X8.2085 Y29.7910 Z-9.0000 F1000.00
G1 X9.2607 Y30.8600 Z-9.0000 F1000.00
G1 X1.4932 Y38.6276 Z-9.0000 F1000.00
G1 X1.4932 Y40.7489 Z-9.0000 F1000.00
G1 X10.3130 Y31.9291 Z-9.0000 F1000.00
G1 X11.3652 Y32.9982 Z-9.0000 F1000.00
G1 X1.4932 Y42.8702 Z-9.0000 F1000.00
G1 X1.4932 Y44.9915 Z-9.0000 F1000.00
G1 X12.4174 Y34.0673 Z-9.0000 F1000.00
G1 X13.4697 Y35.1364 Z-9.0000 F1000.00
G1 X1.4932 Y47.1128 Z-9.0000 F1000.00
G1 X1.4932 Y48.8173 Z-9.0000 F1000.00
G1 X14.5219 Y36.2054 Z-9.0000 F1000.00
G1 X14.5219 Y36.2054 Z-9.5000 F100.00
G1 X1.4932 Y48.8173 Z-9.5000 F1000.00
G1 X1.4932 Y47.1128 Z-9.5000 F1000.00
G1 X13.4697 Y35.1364 Z-9.5000 F1000.00
G1 X12.4174 Y34.0673 Z-9.5000 F1000.00
G1 X1.4932 Y44.9915 Z-9.5000 F1000.00
G1 X1.4932 Y42.8702 Z-9.5000 F1000.00
G1 X11.3652 Y32.9982 Z-9.5000 F1000.00
G1 X10.3130 Y31.9291 Z-9.5000 F1000.00
G1 X1.4932 Y40.7489 Z-9.5000 F1000.00
G1 X1.4932 Y38.6276 Z-9.5000 F1000.00
G1 X9.2607 Y30.8600 Z-9.5000 F1000.00
G1 X8.2085 Y29.7910 Z-9.5000 F1000.00
G1 X1.4932 Y36.5062 Z-9.5000 F1000.00
G1 X1.4932 Y34.3849 Z-9.5000 F1000.00
G1 X7.1562 Y28.7219 Z-9.5000 F1000.00
G1 X6.1040 Y27.6528 Z-9.5000 F1000.00
G1 X1.4932 Y32.2636 Z-9.5000 F1000.00
G1 X1.4932 Y30.1423 Z-9.5000 F1000.00
G1 X5.0517 Y26.5837 Z-9.5000 F1000.00
G1 X3.9995 Y25.5147 Z-9.5000 F1000.00
G1 X1.4932 Y28.0210 Z-9.5000 F1000.00
G1 X1.4932 Y25.8996 Z-9.5000 F1000.00
G1 X2.9473 Y24.4456 Z-9.5000 F1000.00
G1 X1.8950 Y23.3765 Z-9.5000 F1000.00
G1 X1.4932 Y23.7783 Z-9.5000 F1000.00
G1 X1.4932 Y22.9682 Z-9.5000 F1000.00
G1 X1.8950 Y23.3765 Z-9.5000 F1000.00
G1 X1.8950 Y23.3765 Z-10.0000 F100.00
G1 X1.4932 Y22.9682 Z-10.0000 F1000.00
G1 X1.4932 Y23.7783 Z-10.0000 F1000.00
G1 X1.8950 Y23.3765 Z-10.0000 F1000.00
G1 X2.9473 Y24.4456 Z-10.0000 F1000.00
G1 X1.4932 Y25.8996 Z-10.0000 F1000.00
G1 X1.4932 Y28.0210 Z-10.0000 F1000.00
G1 X3.9995 Y25.5147 Z-10.0000 F1000.00
G1 X5.0517 Y26.5837 Z-10.0000 F1000.00
G1 X1.4932 Y30.1423 Z-10.0000 F1000.00
G1 X1.4932 Y32.2636 Z-10.0000 F1000.00
G1 X6.1040 Y27.6528 Z-10.0000 F1000.00
G1 X7.1562 Y28.7219 Z-10.0000 F1000.00
G1 X1.4932 Y34.3849 Z-10.0000 F1000.00
G1 X1.4932 Y36.5062 Z-10.0000 F1000.00
G1 X8.2085 Y29.7910 Z-10.0000 F1000.00
G1 X9.2607 Y30.8600 Z-10.0000 F1000.00
G1 X1.4932 Y38.6276 Z-10.0000 F1000.00
G1 X1.4932 Y40.7489 Z-10.0000 F1000.00
G1 X10.3130 Y31.9291 Z-10.0000 F1000.00
G1 X11.3652 Y32.9982 Z-10.0000 F1000.00
G1 X1.4932 Y42.8702 Z-10.0000 F1000.00
G1 X1.4932 Y44.9915 Z-10.0000 F1000.00
G1 X12.4174 Y34.0673 Z-10.0000 F1000.00
G1 X13.4697 Y35.1364 Z-10.0000 F1000.00
G1 X1.4932 Y47.1128 Z-10.0000 F1000.00
G1 X1.4932 Y48.8173 Z-10.0000 F1000.00
G1 X14.5219 Y36.2054 Z-10.0000 F1000.00
G1 X14.5219 Y36.2054 Z-10.5000 F100.00
G1 X1.4932 Y48.8173 Z-10.5000 F1000.00
G1 X1.4932 Y47.1128 Z-10.5000 F1000.00
G1 X13.4697 Y35.1364 Z-10.5000 F1000.00
G1 X12.4174 Y34.0673 Z-10.5000 F1000.00
G1 X1.4932 Y44.9915 Z-10.5000 F1000.00
G1 X1.4932 Y42.8702 Z-10.5000 F1000.00
G1 X11.3652 Y32.9982 Z-10.5000 F1000.00
G1 X10.3130 Y31.9291 Z-10.5000 F1000.00
G1 X1.4932 Y40.7489 Z-10.5000 F1000.00
G1 X1.4932 Y38.6276 Z-10.5000 F1000.00
G1 X9.2607 Y30.8600 Z-10.5000 F1000.00
G1 X8.2085 Y29.7910 Z-10.5000 F1000.00
G1 X1.4932 Y36.5062 Z-10.5000 F1000.00
G1 X1.4932 Y34.3849 Z-10.5000 F1000.00
G1 X7.1562 Y28.7219 Z-10.5000 F1000.00
G1 X6.1040 Y27.6528 Z-10.5000 F1000.00
G1 X1.4932 Y32.2636 Z-10.5000 F1000.00
G1 X1.4932 Y30.1423 Z-10.5000 F1000.00
G1 X5.0517 Y26.5837 Z-10.5000 F1000.00
G1 X3.9995 Y25.5147 Z-10.5000 F1000.00
G1 X1.4932 Y28.0210 Z-10.5000 F1000.00
G1 X1.4932 Y25.8996 Z-10.5000 F1000.00
G1 X2.9473 Y24.4456 Z-10.5000 F1000.00
G1 X1.8950 Y23.3765 Z-10.5000 F1000.00
G1 X1.4932 Y23.7783 Z-10.5000 F1000.00
G1 X1.4932 Y22.9682 Z-10.5000 F1000.00
G1 X1.8950 Y23.3765 Z-10.5000 F1000.00
G1 X1.8950 Y23.3765 Z-11.0000 F100.00
G1 X1.4932 Y22.9682 Z-11.0000 F1000.00
G1 X1.4932 Y23.7783 Z-11.0000 F1000.00
G1 X1.8950 Y23.3765 Z-11.0000 F1000.00
G1 X2.9473 Y24.4456 Z-11.0000 F1000.00
G1 X1.4932 Y25.8996 Z-11.0000 F1000.00
G1 X1.4932 Y28.0210 Z-11.0000 F1000.00
G1 X3.9995 Y25.5147 Z-11.0000 F1000.00
G1 X5.0517 Y26.5837 Z-11.0000 F1000.00
G1 X1.4932 Y30.1423 Z-11.0000 F1000.00
G1 X1.4932 Y32.2636 Z-11.0000 F1000.00
G1 X6.1040 Y27.6528 Z-11.0000 F1000.00
G1 X7.1562 Y28.7219 Z-11.0000 F1000.00
G1 X1.4932 Y34.3849 Z-11.0000 F1000.00
G1 X1.4932 Y36.5062 Z-11.0000 F1000.00
G1 X8.2085 Y29.7910 Z-11.0000 F1000.00
G1 X9.2607 Y30.8600 Z-11.0000 F1000.00
G1 X1.4932 Y38.6276 Z-11.0000 F1000.00
G1 X1.4932 Y40.7489 Z-11.0000 F1000.00
G1 X10.3130 Y31.9291 Z-11.0000 F1000.00
G1 X11.3652 Y32.9982 Z-11.0000 F1000.00
G1 X1.4932 Y42.8702 Z-11.0000 F1000.00
G1 X1.4932 Y44.9915 Z-11.0000 F1000.00
G1 X12.4174 Y34.0673 Z-11.0000 F1000.00
G1 X13.4697 Y35.1364 Z-11.0000 F1000.00
G1 X1.4932 Y47.1128 Z-11.0000 F1000.00
G1 X1.4932 Y48.8173 Z-11.0000 F1000.00
G1 X14.5219 Y36.2054 Z-11.0000 F1000.00
G1 X14.5219 Y36.2054 Z-11.5000 F100.00
G1 X1.4932 Y48.8173 Z-11.5000 F1000.00
G1 X1.4932 Y47.1128 Z-11.5000 F1000.00
G1 X13.4697 Y35.1364 Z-11.5000 F1000.00
G1 X12.4174 Y34.0673 Z-11.5000 F1000.00
G1 X1.4932 Y44.9915 Z-11.5000 F1000.00
G1 X1.4932 Y42.8702 Z-11.5000 F1000.00
G1 X11.3652 Y32.9982 Z-11.5000 F1000.00
G1 X10.3130 Y31.9291 Z-11.5000 F1000.00
G1 X1.4932 Y40.7489 Z-11.5000 F1000.00
G1 X1.4932 Y38.6276 Z-11.5000 F1000.00
G1 X9.2607 Y30.8600 Z-11.5000 F1000.00
G1 X8.2085 Y29.7910 Z-11.5000 F1000.00
G1 X1.4932 Y36.5062 Z-11.5000 F1000.00
G1 X1.4932 Y34.3849 Z-11.5000 F1000.00
G1 X7.1562 Y28.7219 Z-11.5000 F1000.00
G1 X6.1040 Y27.6528 Z-11.5000 F1000.00
G1 X1.4932 Y32.2636 Z-11.5000 F1000.00
G1 X1.4932 Y30.1423 Z-11.5000 F1000.00
G1 X5.0517 Y26.5837 Z-11.5000 F1000.00
G1 X3.9995 Y25.5147 Z-11.5000 F1000.00
G1 X1.4932 Y28.0210 Z-11.5000 F1000.00
G1 X1.4932 Y25.8996 Z-11.5000 F1000.00
G1 X2.9473 Y24.4456 Z-11.5000 F1000.00
G1 X1.8950 Y23.3765 Z-11.5000 F1000.00
G1 X1.4932 Y23.7783 Z-11.5000 F1000.00
G1 X1.4932 Y22.9682 Z-11.5000 F1000.00
G1 X1.8950 Y23.3765 Z-11.5000 F1000.00
G1 X1.8950 Y23.3765 Z-12.0000 F100.00
G1 X1.4932 Y22.9682 Z-12.0000 F1000.00
G1 X1.4932 Y23.7783 Z-12.0000 F1000.00
G1 X1.8950 Y23.3765 Z-12.0000 F1000.00
G1 X2.9473 Y24.4456 Z-12.0000 F1000.00
G1 X1.4932 Y25.8996 Z-12.0000 F1000.00
G1 X1.4932 Y28.0210 Z-12.0000 F1000.00
G1 X3.9995 Y25.5147 Z-12.0000 F1000.00
G1 X5.0517 Y26.5837 Z-12.0000 F1000.00
G1 X1.4932 Y30.1423 Z-12.0000 F1000.00
G1 X1.4932 Y32.2636 Z-12.0000 F1000.00
G1 X6.1040 Y27.6528 Z-12.0000 F1000.00
G1 X7.1562 Y28.7219 Z-12.0000 F1000.00
G1 X1.4932 Y34.3849 Z-12.0000 F1000.00
G1 X1.4932 Y36.5062 Z-12.0000 F1000.00
G1 X8.2085 Y29.7910 Z-12.0000 F1000.00
G1 X9.2607 Y30.8600 Z-12.0000 F1000.00
G1 X1.4932 Y38.6276 Z-12.0000 F1000.00
G1 X1.4932 Y40.7489 Z-12.0000 F1000.00
G1 X10.3130 Y31.9291 Z-12.0000 F1000.00
G1 X11.3652 Y32.9982 Z-12.0000 F1000.00
G1 X1.4932 Y42.8702 Z-12.0000 F1000.00
G1 X1.4932 Y44.9915 Z-12.0000 F1000.00
G1 X12.4174 Y34.0673 Z-12.0000 F1000.00
G1 X13.4697 Y35.1364 Z-12.0000 F1000.00
G1 X1.4932 Y47.1128 Z-12.0000 F1000.00
G1 X1.4932 Y48.8173 Z-12.0000 F1000.00
G1 X14.5219 Y36.2054 Z-12.0000 F1000.00
G1 X14.5219 Y36.2054 Z-12.5000 F100.00
G1 X1.4932 Y48.8173 Z-12.5000 F1000.00
G1 X1.4932 Y47.1128 Z-12.5000 F1000.00
G1 X13.4697 Y35.1364 Z-12.5000 F1000.00
G1 X12.4174 Y34.0673 Z-12.5000 F1000.00
G1 X1.4932 Y44.9915 Z-12.5000 F1000.00
G1 X1.4932 Y42.8702 Z-12.5000 F1000.00
G1 X11.3652 Y32.9982 Z-12.5000 F1000.00
G1 X10.3130 Y31.9291 Z-12.5000 F1000.00
G1 X1.4932 Y40.7489 Z-12.5000 F1000.00
G1 X1.4932 Y38.6276 Z-12.5000 F1000.00
G1 X9.2607 Y30.8600 Z-12.5000 F1000.00
G1 X8.2085 Y29.7910 Z-12.5000 F1000.00
G1 X1.4932 Y36.5062 Z-12.5000 F1000.00
G1 X1.4932 Y34.3849 Z-12.5000 F1000.00
G1 X7.1562 Y28.7219 Z-12.5000 F1000.00
G1 X6.1040 Y27.6528 Z-12.5000 F1000.00
G1 X1.4932 Y32.2636 Z-12.5000 F1000.00
G1 X1.4932 Y30.1423 Z-12.5000 F1000.00
G1 X5.0517 Y26.5837 Z-12.5000 F1000.00
G1 X3.9995 Y25.5147 Z-12.5000 F1000.00
G1 X1.4932 Y28.0210 Z-12.5000 F1000.00
G1 X1.4932 Y25.8996 Z-12.5000 F1000.00
G1 X2.9473 Y24.4456 Z-12.5000 F1000.00
G1 X1.8950 Y23.3765 Z-12.5000 F1000.00
G1 X1.4932 Y23.7783 Z-12.5000 F1000.00
G1 X1.4932 Y22.9682 Z-12.5000 F1000.00
G1 X1.8950 Y23.3765 Z-12.5000 F1000.00
G1 X1.8950 Y23.3765 Z-13.0000 F100.00
G1 X1.4932 Y22.9682 Z-13.0000 F1000.00
G1 X1.4932 Y23.7783 Z-13.0000 F1000.00
G1 X1.8950 Y23.3765 Z-13.0000 F1000.00
G1 X2.9473 Y24.4456 Z-13.0000 F1000.00
G1 X1.4932 Y25.8996 Z-13.0000 F1000.00
G1 X1.4932 Y28.0210 Z-13.0000 F1000.00
G1 X3.9995 Y25.5147 Z-13.0000 F1000.00
G1 X5.0517 Y26.5837 Z-13.0000 F1000.00
G1 X1.4932 Y30.1423 Z-13.0000 F1000.00
G1 X1.4932 Y32.2636 Z-13.0000 F1000.00
G1 X6.1040 Y27.6528 Z-13.0000 F1000.00
G1 X7.1562 Y28.7219 Z-13.0000 F1000.00
G1 X1.4932 Y34.3849 Z-13.0000 F1000.00
G1 X1.4932 Y36.5062 Z-13.0000 F1000.00
G1 X8.2085 Y29.7910 Z-13.0000 F1000.00
G1 X9.2607 Y30.8600 Z-13.0000 F1000.00
G1 X1.4932 Y38.6276 Z-13.0000 F1000.00
G1 X1.4932 Y40.7489 Z-13.0000 F1000.00
G1 X10.3130 Y31.9291 Z-13.0000 F1000.00
G1 X11.3652 Y32.9982 Z-13.0000 F1000.00
G1 X1.4932 Y42.8702 Z-13.0000 F1000.00
G1 X1.4932 Y44.9915 Z-13.0000 F1000.00
G1 X12.4174 Y34.0673 Z-13.0000 F1000.00
G1 X13.4697 Y35.1364 Z-13.0000 F1000.00
G1 X1.4932 Y47.1128 Z-13.0000 F1000.00
G1 X1.4932 Y48.8173 Z-13.0000 F1000.00
G1 X14.5219 Y36.2054 Z-13.0000 F1000.00
G1 X14.5219 Y36.2054 Z-13.5000 F100.00
G1 X1.4932 Y48.8173 Z-13.5000 F1000.00
G1 X1.4932 Y47.1128 Z-13.5000 F1000.00
G1 X13.4697 Y35.1364 Z-13.5000 F1000.00
G1 X12.4174 Y34.0673 Z-13.5000 F1000.00
G1 X1.4932 Y44.9915 Z-13.5000 F1000.00
G1 X1.4932 Y42.8702 Z-13.5000 F1000.00
G1 X11.3652 Y32.9982 Z-13.5000 F1000.00
G1 X10.3130 Y31.9291 Z-13.5000 F1000.00
G1 X1.4932 Y40.7489 Z-13.5000 F1000.00
G1 X1.4932 Y38.6276 Z-13.5000 F1000.00
G1 X9.2607 Y30.8600 Z-13.5000 F1000.00
G1 X8.2085 Y29.7910 Z-13.5000 F1000.00
G1 X1.4932 Y36.5062 Z-13.5000 F1000.00
G1 X1.4932 Y34.3849 Z-13.5000 F1000.00
G1 X7.1562 Y28.7219 Z-13.5000 F1000.00
G1 X6.1040 Y27.6528 Z-13.5000 F1000.00
G1 X1.4932 Y32.2636 Z-13.5000 F1000.00
G1 X1.4932 Y30.1423 Z-13.5000 F1000.00
G1 X5.0517 Y26.5837 Z-13.5000 F1000.00
G1 X3.9995 Y25.5147 Z-13.5000 F1000.00
G1 X1.4932 Y28.0210 Z-13.5000 F1000.00
G1 X1.4932 Y25.8996 Z-13.5000 F1000.00
G1 X2.9473 Y24.4456 Z-13.5000 F1000.00
G1 X1.8950 Y23.3765 Z-13.5000 F1000.00
G1 X1.4932 Y23.7783 Z-13.5000 F1000.00
G1 X1.4932 Y22.9682 Z-13.5000 F1000.00
G1 X1.8950 Y23.3765 Z-13.5000 F1000.00
G1 X1.8950 Y23.3765 Z-14.0000 F100.00
G1 X1.4932 Y22.9682 Z-14.0000 F1000.00
G1 X1.4932 Y23.7783 Z-14.0000 F1000.00
G1 X1.8950 Y23.3765 Z-14.0000 F1000.00
G1 X2.9473 Y24.4456 Z-14.0000 F1000.00
G1 X1.4932 Y25.8996 Z-14.0000 F1000.00
G1 X1.4932 Y28.0210 Z-14.0000 F1000.00
G1 X3.9995 Y25.5147 Z-14.0000 F1000.00
G1 X5.0517 Y26.5837 Z-14.0000 F1000.00
G1 X1.4932 Y30.1423 Z-14.0000 F1000.00
G1 X1.4932 Y32.2636 Z-14.0000 F1000.00
G1 X6.1040 Y27.6528 Z-14.0000 F1000.00
G1 X7.1562 Y28.7219 Z-14.0000 F1000.00
G1 X1.4932 Y34.3849 Z-14.0000 F1000.00
G1 X1.4932 Y36.5062 Z-14.0000 F1000.00
G1 X8.2085 Y29.7910 Z-14.0000 F1000.00
G1 X9.2607 Y30.8600 Z-14.0000 F1000.00
G1 X1.4932 Y38.6276 Z-14.0000 F1000.00
G1 X1.4932 Y40.7489 Z-14.0000 F1000.00
G1 X10.3130 Y31.9291 Z-14.0000 F1000.00
G1 X11.3652 Y32.9982 Z-14.0000 F1000.00
G1 X1.4932 Y42.8702 Z-14.0000 F1000.00
G1 X1.4932 Y44.9915 Z-14.0000 F1000.00
G1 X12.4174 Y34.0673 Z-14.0000 F1000.00
G1 X13.4697 Y35.1364 Z-14.0000 F1000.00
G1 X1.4932 Y47.1128 Z-14.0000 F1000.00
G1 X1.4932 Y48.8173 Z-14.0000 F1000.00
G1 X14.5219 Y36.2054 Z-14.0000 F1000.00
G1 X14.5219 Y36.2054 Z-14.5000 F100.00
G1 X1.4932 Y48.8173 Z-14.5000 F1000.00
G1 X1.4932 Y47.1128 Z-14.5000 F1000.00
G1 X13.4697 Y35.1364 Z-14.5000 F1000.00
G1 X12.4174 Y34.0673 Z-14.5000 F1000.00
G1 X1.4932 Y44.9915 Z-14.5000 F1000.00
G1 X1.4932 Y42.8702 Z-14.5000 F1000.00
G1 X11.3652 Y32.9982 Z-14.5000 F1000.00
G1 X10.3130 Y31.9291 Z-14.5000 F1000.00
G1 X1.4932 Y40.7489 Z-14.5000 F1000.00
G1 X1.4932 Y38.6276 Z-14.5000 F1000.00
G1 X9.2607 Y30.8600 Z-14.5000 F1000.00
G1 X8.2085 Y29.7910 Z-14.5000 F1000.00
G1 X1.4932 Y36.5062 Z-14.5000 F1000.00
G1 X1.4932 Y34.3849 Z-14.5000 F1000.00
G1 X7.1562 Y28.7219 Z-14.5000 F1000.00
G1 X6.1040 Y27.6528 Z-14.5000 F1000.00
G1 X1.4932 Y32.2636 Z-14.5000 F1000.00
G1 X1.4932 Y30.1423 Z-14.5000 F1000.00
G1 X5.0517 Y26.5837 Z-14.5000 F1000.00
G1 X3.9995 Y25.5147 Z-14.5000 F1000.00
G1 X1.4932 Y28.0210 Z-14.5000 F1000.00
G1 X1.4932 Y25.8996 Z-14.5000 F1000.00
G1 X2.9473 Y24.4456 Z-14.5000 F1000.00
G1 X1.8950 Y23.3765 Z-14.5000 F1000.00
G1 X1.4932 Y23.7783 Z-14.5000 F1000.00
G1 X1.4932 Y22.9682 Z-14.5000 F1000.00
G1 X1.8950 Y23.3765 Z-14.5000 F1000.00
G1 X1.8950 Y23.3765 Z-15.0000 F100.00
G1 X1.4932 Y22.9682 Z-15.0000 F1000.00
G1 X1.4932 Y23.7783 Z-15.0000 F1000.00
G1 X1.8950 Y23.3765 Z-15.0000 F1000.00
G1 X2.9473 Y24.4456 Z-15.0000 F1000.00
G1 X1.4932 Y25.8996 Z-15.0000 F1000.00
G1 X1.4932 Y28.0210 Z-15.0000 F1000.00
G1 X3.9995 Y25.5147 Z-15.0000 F1000.00
G1 X5.0517 Y26.5837 Z-15.0000 F1000.00
G1 X1.4932 Y30.1423 Z-15.0000 F1000.00
G1 X1.4932 Y32.2636 Z-15.0000 F1000.00
G1 X6.1040 Y27.6528 Z-15.0000 F1000.00
G1 X7.1562 Y28.7219 Z-15.0000 F1000.00
G1 X1.4932 Y34.3849 Z-15.0000 F1000.00
G1 X1.4932 Y36.5062 Z-15.0000 F1000.00
G1 X8.2085 Y29.7910 Z-15.0000 F1000.00
G1 X9.2607 Y30.8600 Z-15.0000 F1000.00
G1 X1.4932 Y38.6276 Z-15.0000 F1000.00
G1 X1.4932 Y40.7489 Z-15.0000 F1000.00
G1 X10.3130 Y31.9291 Z-15.0000 F1000.00
G1 X11.3652 Y32.9982 Z-15.0000 F1000.00
G1 X1.4932 Y42.8702 Z-15.0000 F1000.00
G1 X1.4932 Y44.9915 Z-15.0000 F1000.00
G1 X12.4174 Y34.0673 Z-15.0000 F1000.00
G1 X13.4697 Y35.1364 Z-15.0000 F1000.00
G1 X1.4932 Y47.1128 Z-15.0000 F1000.00
G1 X1.4932 Y48.8173 Z-15.0000 F1000.00
G1 X14.5219 Y36.2054 Z-15.0000 F1000.00
G1 X14.5219 Y36.2054 Z-15.2500 F100.00
G1 X1.4932 Y48.8173 Z-15.2500 F1000.00
G1 X1.4932 Y47.1128 Z-15.2500 F1000.00
G1 X13.4697 Y35.1364 Z-15.2500 F1000.00
G1 X12.4174 Y34.0673 Z-15.2500 F1000.00
G1 X1.4932 Y44.9915 Z-15.2500 F1000.00
G1 X1.4932 Y42.8702 Z-15.2500 F1000.00
G1 X11.3652 Y32.9982 Z-15.2500 F1000.00
G1 X10.3130 Y31.9291 Z-15.2500 F1000.00
G1 X1.4932 Y40.7489 Z-15.2500 F1000.00
G1 X1.4932 Y38.6276 Z-15.2500 F1000.00
G1 X9.2607 Y30.8600 Z-15.2500 F1000.00
G1 X8.2085 Y29.7910 Z-15.2500 F1000.00
G1 X1.4932 Y36.5062 Z-15.2500 F1000.00
G1 X1.4932 Y34.3849 Z-15.2500 F1000.00
G1 X7.1562 Y28.7219 Z-15.2500 F1000.00
G1 X6.1040 Y27.6528 Z-15.2500 F1000.00
G1 X1.4932 Y32.2636 Z-15.2500 F1000.00
G1 X1.4932 Y30.1423 Z-15.2500 F1000.00
G1 X5.0517 Y26.5837 Z-15.2500 F1000.00
G1 X3.9995 Y25.5147 Z-15.2500 F1000.00
G1 X1.4932 Y28.0210 Z-15.2500 F1000.00
G1 X1.4932 Y25.8996 Z-15.2500 F1000.00
G1 X2.9473 Y24.4456 Z-15.2500 F1000.00
G1 X1.8950 Y23.3765 Z-15.2500 F1000.00
G1 X1.4932 Y23.7783 Z-15.2500 F1000.00
G1 X1.4932 Y22.9682 Z-15.2500 F1000.00
G1 X1.8950 Y23.3765 Z-15.2500 F1000.00
G0 Z4.9500
(finish operation: room_for_clamps_left)
(begin operation: room_for_clamps_right)
(Path: room_for_clamps_right)
(room_for_clamps_right)
G0 Z4.9500
G0 X187.5068 Y48.0318
G0 Z2.9500
G1 X187.5068 Y48.0318 Z0.5000 F100.00
G1 X186.4546 Y46.9627 Z0.5000 F1000.00
G1 X187.5068 Y45.9104 Z0.5000 F1000.00
G1 X187.5068 Y43.7891 Z0.5000 F1000.00
G1 X185.4023 Y45.8936 Z0.5000 F1000.00
G1 X184.3501 Y44.8245 Z0.5000 F1000.00
G1 X187.5068 Y41.6678 Z0.5000 F1000.00
G1 X187.5068 Y39.5465 Z0.5000 F1000.00
G1 X183.2978 Y43.7554 Z0.5000 F1000.00
G1 X182.2456 Y42.6864 Z0.5000 F1000.00
G1 X187.5068 Y37.4252 Z0.5000 F1000.00
G1 X187.5068 Y35.3038 Z0.5000 F1000.00
G1 X181.1934 Y41.6173 Z0.5000 F1000.00
G1 X180.1411 Y40.5482 Z0.5000 F1000.00
G1 X187.5068 Y33.1825 Z0.5000 F1000.00
G1 X187.5068 Y31.0612 Z0.5000 F1000.00
G1 X179.0889 Y39.4791 Z0.5000 F1000.00
G1 X178.0366 Y38.4101 Z0.5000 F1000.00
G1 X187.5068 Y28.9399 Z0.5000 F1000.00
G1 X187.5068 Y26.8186 Z0.5000 F1000.00
G1 X176.9844 Y37.3410 Z0.5000 F1000.00
G1 X175.9321 Y36.2719 Z0.5000 F1000.00
G1 X187.5068 Y24.6972 Z0.5000 F1000.00
G1 X187.5068 Y22.5759 Z0.5000 F1000.00
G1 X174.8799 Y35.2028 Z0.5000 F1000.00
G1 X174.4781 Y34.7946 Z0.5000 F1000.00
G1 X187.5068 Y22.1827 Z0.5000 F1000.00
G1 X187.5068 Y22.5759 Z0.5000 F1000.00
G1 X187.5068 Y22.5759 Z0.0000 F100.00
G1 X187.5068 Y22.1827 Z0.0000 F1000.00
G1 X174.4781 Y34.7946 Z0.0000 F1000.00
G1 X174.8799 Y35.2028 Z0.0000 F1000.00
G1 X187.5068 Y22.5759 Z0.0000 F1000.00
G1 X187.5068 Y24.6972 Z0.0000 F1000.00
G1 X175.9321 Y36.2719 Z-0.0000 F1000.00
G1 X176.9844 Y37.3410 Z-0.0000 F1000.00
G1 X187.5068 Y26.8186 Z0.0000 F1000.00
G1 X187.5068 Y28.9399 Z0.0000 F1000.00
G1 X178.0366 Y38.4101 Z-0.0000 F1000.00
G1 X179.0889 Y39.4791 Z-0.0000 F1000.00
G1 X187.5068 Y31.0612 Z0.0000 F1000.00
G1 X187.5068 Y33.1825 Z0.0000 F1000.00
G1 X180.1411 Y40.5482 Z-0.0000 F1000.00
G1 X181.1934 Y41.6173 Z-0.0000 F1000.00
G1 X187.5068 Y35.3038 Z-0.0000 F1000.00
G1 X187.5068 Y37.4252 Z-0.0000 F1000.00
G1 X182.2456 Y42.6864 Z-0.0000 F1000.00
G1 X183.2978 Y43.7554 Z-0.0000 F1000.00
G1 X187.5068 Y39.5465 Z-0.0000 F1000.00
G1 X187.5068 Y41.6678 Z-0.0000 F1000.00
G1 X184.3501 Y44.8245 Z-0.0000 F1000.00
G1 X185.4023 Y45.8936 Z-0.0000 F1000.00
G1 X187.5068 Y43.7891 Z-0.0000 F1000.00
G1 X187.5068 Y45.9104 Z-0.0000 F1000.00
G1 X186.4546 Y46.9627 Z-0.0000 F1000.00
G1 X187.5068 Y48.0318 Z-0.0000 F1000.00
G1 X187.5068 Y48.0318 Z-0.5000 F100.00
G1 X186.4546 Y46.9627 Z-0.5000 F1000.00
G1 X187.5068 Y45.9104 Z-0.5000 F1000.00
G1 X187.5068 Y43.7891 Z-0.5000 F1000.00
G1 X185.4023 Y45.8936 Z-0.5000 F1000.00
G1 X184.3501 Y44.8245 Z-0.5000 F1000.00
G1 X187.5068 Y41.6678 Z-0.5000 F1000.00
G1 X187.5068 Y39.5465 Z-0.5000 F1000.00
G1 X183.2978 Y43.7554 Z-0.5000 F1000.00
G1 X182.2456 Y42.6864 Z-0.5000 F1000.00
G1 X187.5068 Y37.4252 Z-0.5000 F1000.00
G1 X187.5068 Y35.3038 Z-0.5000 F1000.00
G1 X181.1934 Y41.6173 Z-0.5000 F1000.00
G1 X180.1411 Y40.5482 Z-0.5000 F1000.00
G1 X187.5068 Y33.1825 Z-0.5000 F1000.00
G1 X187.5068 Y31.0612 Z-0.5000 F1000.00
G1 X179.0889 Y39.4791 Z-0.5000 F1000.00
G1 X178.0366 Y38.4101 Z-0.5000 F1000.00
G1 X187.5068 Y28.9399 Z-0.5000 F1000.00
G1 X187.5068 Y26.8186 Z-0.5000 F1000.00
G1 X176.9844 Y37.3410 Z-0.5000 F1000.00
G1 X175.9321 Y36.2719 Z-0.5000 F1000.00
G1 X187.5068 Y24.6972 Z-0.5000 F1000.00
G1 X187.5068 Y22.5759 Z-0.5000 F1000.00
G1 X174.8799 Y35.2028 Z-0.5000 F1000.00
G1 X174.4781 Y34.7946 Z-0.5000 F1000.00
G1 X187.5068 Y22.1827 Z-0.5000 F1000.00
G1 X187.5068 Y22.5759 Z-0.5000 F1000.00
G1 X187.5068 Y22.5759 Z-1.0000 F100.00
G1 X187.5068 Y22.1827 Z-1.0000 F1000.00
G1 X174.4781 Y34.7946 Z-1.0000 F1000.00
G1 X174.8799 Y35.2028 Z-1.0000 F1000.00
G1 X187.5068 Y22.5759 Z-1.0000 F1000.00
G1 X187.5068 Y24.6972 Z-1.0000 F1000.00
G1 X175.9321 Y36.2719 Z-1.0000 F1000.00
G1 X176.9844 Y37.3410 Z-1.0000 F1000.00
G1 X187.5068 Y26.8186 Z-1.0000 F1000.00
G1 X187.5068 Y28.9399 Z-1.0000 F1000.00
G1 X178.0366 Y38.4101 Z-1.0000 F1000.00
G1 X179.0889 Y39.4791 Z-1.0000 F1000.00
G1 X187.5068 Y31.0612 Z-1.0000 F1000.00
G1 X187.5068 Y33.1825 Z-1.0000 F1000.00
G1 X180.1411 Y40.5482 Z-1.0000 F1000.00
G1 X181.1934 Y41.6173 Z-1.0000 F1000.00
G1 X187.5068 Y35.3038 Z-1.0000 F1000.00
G1 X187.5068 Y37.4252 Z-1.0000 F1000.00
G1 X182.2456 Y42.6864 Z-1.0000 F1000.00
G1 X183.2978 Y43.7554 Z-1.0000 F1000.00
G1 X187.5068 Y39.5465 Z-1.0000 F1000.00
G1 X187.5068 Y41.6678 Z-1.0000 F1000.00
G1 X184.3501 Y44.8245 Z-1.0000 F1000.00
G1 X185.4023 Y45.8936 Z-1.0000 F1000.00
G1 X187.5068 Y43.7891 Z-1.0000 F1000.00
G1 X187.5068 Y45.9104 Z-1.0000 F1000.00
G1 X186.4546 Y46.9627 Z-1.0000 F1000.00
G1 X187.5068 Y48.0318 Z-1.0000 F1000.00
G1 X187.5068 Y48.0318 Z-1.5000 F100.00
G1 X186.4546 Y46.9627 Z-1.5000 F1000.00
G1 X187.5068 Y45.9104 Z-1.5000 F1000.00
G1 X187.5068 Y43.7891 Z-1.5000 F1000.00
G1 X185.4023 Y45.8936 Z-1.5000 F1000.00
G1 X184.3501 Y44.8245 Z-1.5000 F1000.00
G1 X187.5068 Y41.6678 Z-1.5000 F1000.00
G1 X187.5068 Y39.5465 Z-1.5000 F1000.00
G1 X183.2978 Y43.7554 Z-1.5000 F1000.00
G1 X182.2456 Y42.6864 Z-1.5000 F1000.00
G1 X187.5068 Y37.4252 Z-1.5000 F1000.00
G1 X187.5068 Y35.3038 Z-1.5000 F1000.00
G1 X181.1934 Y41.6173 Z-1.5000 F1000.00
G1 X180.1411 Y40.5482 Z-1.5000 F1000.00
G1 X187.5068 Y33.1825 Z-1.5000 F1000.00
G1 X187.5068 Y31.0612 Z-1.5000 F1000.00
G1 X179.0889 Y39.4791 Z-1.5000 F1000.00
G1 X178.0366 Y38.4101 Z-1.5000 F1000.00
G1 X187.5068 Y28.9399 Z-1.5000 F1000.00
G1 X187.5068 Y26.8186 Z-1.5000 F1000.00
G1 X176.9844 Y37.3410 Z-1.5000 F1000.00
G1 X175.9321 Y36.2719 Z-1.5000 F1000.00
G1 X187.5068 Y24.6972 Z-1.5000 F1000.00
G1 X187.5068 Y22.5759 Z-1.5000 F1000.00
G1 X174.8799 Y35.2028 Z-1.5000 F1000.00
G1 X174.4781 Y34.7946 Z-1.5000 F1000.00
G1 X187.5068 Y22.1827 Z-1.5000 F1000.00
G1 X187.5068 Y22.5759 Z-1.5000 F1000.00
G1 X187.5068 Y22.5759 Z-2.0000 F100.00
G1 X187.5068 Y22.1827 Z-2.0000 F1000.00
G1 X174.4781 Y34.7946 Z-2.0000 F1000.00
G1 X174.8799 Y35.2028 Z-2.0000 F1000.00
G1 X187.5068 Y22.5759 Z-2.0000 F1000.00
G1 X187.5068 Y24.6972 Z-2.0000 F1000.00
G1 X175.9321 Y36.2719 Z-2.0000 F1000.00
G1 X176.9844 Y37.3410 Z-2.0000 F1000.00
G1 X187.5068 Y26.8186 Z-2.0000 F1000.00
G1 X187.5068 Y28.9399 Z-2.0000 F1000.00
G1 X178.0366 Y38.4101 Z-2.0000 F1000.00
G1 X179.0889 Y39.4791 Z-2.0000 F1000.00
G1 X187.5068 Y31.0612 Z-2.0000 F1000.00
G1 X187.5068 Y33.1825 Z-2.0000 F1000.00
G1 X180.1411 Y40.5482 Z-2.0000 F1000.00
G1 X181.1934 Y41.6173 Z-2.0000 F1000.00
G1 X187.5068 Y35.3038 Z-2.0000 F1000.00
G1 X187.5068 Y37.4252 Z-2.0000 F1000.00
G1 X182.2456 Y42.6864 Z-2.0000 F1000.00
G1 X183.2978 Y43.7554 Z-2.0000 F1000.00
G1 X187.5068 Y39.5465 Z-2.0000 F1000.00
G1 X187.5068 Y41.6678 Z-2.0000 F1000.00
G1 X184.3501 Y44.8245 Z-2.0000 F1000.00
G1 X185.4023 Y45.8936 Z-2.0000 F1000.00
G1 X187.5068 Y43.7891 Z-2.0000 F1000.00
G1 X187.5068 Y45.9104 Z-2.0000 F1000.00
G1 X186.4546 Y46.9627 Z-2.0000 F1000.00
G1 X187.5068 Y48.0318 Z-2.0000 F1000.00
G1 X187.5068 Y48.0318 Z-2.5000 F100.00
G1 X186.4546 Y46.9627 Z-2.5000 F1000.00
G1 X187.5068 Y45.9104 Z-2.5000 F1000.00
G1 X187.5068 Y43.7891 Z-2.5000 F1000.00
G1 X185.4023 Y45.8936 Z-2.5000 F1000.00
G1 X184.3501 Y44.8245 Z-2.5000 F1000.00
G1 X187.5068 Y41.6678 Z-2.5000 F1000.00
G1 X187.5068 Y39.5465 Z-2.5000 F1000.00
G1 X183.2978 Y43.7554 Z-2.5000 F1000.00
G1 X182.2456 Y42.6864 Z-2.5000 F1000.00
G1 X187.5068 Y37.4252 Z-2.5000 F1000.00
G1 X187.5068 Y35.3038 Z-2.5000 F1000.00
G1 X181.1934 Y41.6173 Z-2.5000 F1000.00
G1 X180.1411 Y40.5482 Z-2.5000 F1000.00
G1 X187.5068 Y33.1825 Z-2.5000 F1000.00
G1 X187.5068 Y31.0612 Z-2.5000 F1000.00
G1 X179.0889 Y39.4791 Z-2.5000 F1000.00
G1 X178.0366 Y38.4101 Z-2.5000 F1000.00
G1 X187.5068 Y28.9399 Z-2.5000 F1000.00
G1 X187.5068 Y26.8186 Z-2.5000 F1000.00
G1 X176.9844 Y37.3410 Z-2.5000 F1000.00
G1 X175.9321 Y36.2719 Z-2.5000 F1000.00
G1 X187.5068 Y24.6972 Z-2.5000 F1000.00
G1 X187.5068 Y22.5759 Z-2.5000 F1000.00
G1 X174.8799 Y35.2028 Z-2.5000 F1000.00
G1 X174.4781 Y34.7946 Z-2.5000 F1000.00
G1 X187.5068 Y22.1827 Z-2.5000 F1000.00
G1 X187.5068 Y22.5759 Z-2.5000 F1000.00
G1 X187.5068 Y22.5759 Z-3.0000 F100.00
G1 X187.5068 Y22.1827 Z-3.0000 F1000.00
G1 X174.4781 Y34.7946 Z-3.0000 F1000.00
G1 X174.8799 Y35.2028 Z-3.0000 F1000.00
G1 X187.5068 Y22.5759 Z-3.0000 F1000.00
G1 X187.5068 Y24.6972 Z-3.0000 F1000.00
G1 X175.9321 Y36.2719 Z-3.0000 F1000.00
G1 X176.9844 Y37.3410 Z-3.0000 F1000.00
G1 X187.5068 Y26.8186 Z-3.0000 F1000.00
G1 X187.5068 Y28.9399 Z-3.0000 F1000.00
G1 X178.0366 Y38.4101 Z-3.0000 F1000.00
G1 X179.0889 Y39.4791 Z-3.0000 F1000.00
G1 X187.5068 Y31.0612 Z-3.0000 F1000.00
G1 X187.5068 Y33.1825 Z-3.0000 F1000.00
G1 X180.1411 Y40.5482 Z-3.0000 F1000.00
G1 X181.1934 Y41.6173 Z-3.0000 F1000.00
G1 X187.5068 Y35.3038 Z-3.0000 F1000.00
G1 X187.5068 Y37.4252 Z-3.0000 F1000.00
G1 X182.2456 Y42.6864 Z-3.0000 F1000.00
G1 X183.2978 Y43.7554 Z-3.0000 F1000.00
G1 X187.5068 Y39.5465 Z-3.0000 F1000.00
G1 X187.5068 Y41.6678 Z-3.0000 F1000.00
G1 X184.3501 Y44.8245 Z-3.0000 F1000.00
G1 X185.4023 Y45.8936 Z-3.0000 F1000.00
G1 X187.5068 Y43.7891 Z-3.0000 F1000.00
G1 X187.5068 Y45.9104 Z-3.0000 F1000.00
G1 X186.4546 Y46.9627 Z-3.0000 F1000.00
G1 X187.5068 Y48.0318 Z-3.0000 F1000.00
G1 X187.5068 Y48.0318 Z-3.5000 F100.00
G1 X186.4546 Y46.9627 Z-3.5000 F1000.00
G1 X187.5068 Y45.9104 Z-3.5000 F1000.00
G1 X187.5068 Y43.7891 Z-3.5000 F1000.00
G1 X185.4023 Y45.8936 Z-3.5000 F1000.00
G1 X184.3501 Y44.8245 Z-3.5000 F1000.00
G1 X187.5068 Y41.6678 Z-3.5000 F1000.00
G1 X187.5068 Y39.5465 Z-3.5000 F1000.00
G1 X183.2978 Y43.7554 Z-3.5000 F1000.00
G1 X182.2456 Y42.6864 Z-3.5000 F1000.00
G1 X187.5068 Y37.4252 Z-3.5000 F1000.00
G1 X187.5068 Y35.3038 Z-3.5000 F1000.00
G1 X181.1934 Y41.6173 Z-3.5000 F1000.00
G1 X180.1411 Y40.5482 Z-3.5000 F1000.00
G1 X187.5068 Y33.1825 Z-3.5000 F1000.00
G1 X187.5068 Y31.0612 Z-3.5000 F1000.00
G1 X179.0889 Y39.4791 Z-3.5000 F1000.00
G1 X178.0366 Y38.4101 Z-3.5000 F1000.00
G1 X187.5068 Y28.9399 Z-3.5000 F1000.00
G1 X187.5068 Y26.8186 Z-3.5000 F1000.00
G1 X176.9844 Y37.3410 Z-3.5000 F1000.00
G1 X175.9321 Y36.2719 Z-3.5000 F1000.00
G1 X187.5068 Y24.6972 Z-3.5000 F1000.00
G1 X187.5068 Y22.5759 Z-3.5000 F1000.00
G1 X174.8799 Y35.2028 Z-3.5000 F1000.00
G1 X174.4781 Y34.7946 Z-3.5000 F1000.00
G1 X187.5068 Y22.1827 Z-3.5000 F1000.00
G1 X187.5068 Y22.5759 Z-3.5000 F1000.00
G1 X187.5068 Y22.5759 Z-4.0000 F100.00
G1 X187.5068 Y22.1827 Z-4.0000 F1000.00
G1 X174.4781 Y34.7946 Z-4.0000 F1000.00
G1 X174.8799 Y35.2028 Z-4.0000 F1000.00
G1 X187.5068 Y22.5759 Z-4.0000 F1000.00
G1 X187.5068 Y24.6972 Z-4.0000 F1000.00
G1 X175.9321 Y36.2719 Z-4.0000 F1000.00
G1 X176.9844 Y37.3410 Z-4.0000 F1000.00
G1 X187.5068 Y26.8186 Z-4.0000 F1000.00
G1 X187.5068 Y28.9399 Z-4.0000 F1000.00
G1 X178.0366 Y38.4101 Z-4.0000 F1000.00
G1 X179.0889 Y39.4791 Z-4.0000 F1000.00
G1 X187.5068 Y31.0612 Z-4.0000 F1000.00
G1 X187.5068 Y33.1825 Z-4.0000 F1000.00
G1 X180.1411 Y40.5482 Z-4.0000 F1000.00
G1 X181.1934 Y41.6173 Z-4.0000 F1000.00
G1 X187.5068 Y35.3038 Z-4.0000 F1000.00
G1 X187.5068 Y37.4252 Z-4.0000 F1000.00
G1 X182.2456 Y42.6864 Z-4.0000 F1000.00
G1 X183.2978 Y43.7554 Z-4.0000 F1000.00
G1 X187.5068 Y39.5465 Z-4.0000 F1000.00
G1 X187.5068 Y41.6678 Z-4.0000 F1000.00
G1 X184.3501 Y44.8245 Z-4.0000 F1000.00
G1 X185.4023 Y45.8936 Z-4.0000 F1000.00
G1 X187.5068 Y43.7891 Z-4.0000 F1000.00
G1 X187.5068 Y45.9104 Z-4.0000 F1000.00
G1 X186.4546 Y46.9627 Z-4.0000 F1000.00
G1 X187.5068 Y48.0318 Z-4.0000 F1000.00
G1 X187.5068 Y48.0318 Z-4.5000 F100.00
G1 X186.4546 Y46.9627 Z-4.5000 F1000.00
G1 X187.5068 Y45.9104 Z-4.5000 F1000.00
G1 X187.5068 Y43.7891 Z-4.5000 F1000.00
G1 X185.4023 Y45.8936 Z-4.5000 F1000.00
G1 X184.3501 Y44.8245 Z-4.5000 F1000.00
G1 X187.5068 Y41.6678 Z-4.5000 F1000.00
G1 X187.5068 Y39.5465 Z-4.5000 F1000.00
G1 X183.2978 Y43.7554 Z-4.5000 F1000.00
G1 X182.2456 Y42.6864 Z-4.5000 F1000.00
G1 X187.5068 Y37.4252 Z-4.5000 F1000.00
G1 X187.5068 Y35.3038 Z-4.5000 F1000.00
G1 X181.1934 Y41.6173 Z-4.5000 F1000.00
G1 X180.1411 Y40.5482 Z-4.5000 F1000.00
G1 X187.5068 Y33.1825 Z-4.5000 F1000.00
G1 X187.5068 Y31.0612 Z-4.5000 F1000.00
G1 X179.0889 Y39.4791 Z-4.5000 F1000.00
G1 X178.0366 Y38.4101 Z-4.5000 F1000.00
G1 X187.5068 Y28.9399 Z-4.5000 F1000.00
G1 X187.5068 Y26.8186 Z-4.5000 F1000.00
G1 X176.9844 Y37.3410 Z-4.5000 F1000.00
G1 X175.9321 Y36.2719 Z-4.5000 F1000.00
G1 X187.5068 Y24.6972 Z-4.5000 F1000.00
G1 X187.5068 Y22.5759 Z-4.5000 F1000.00
G1 X174.8799 Y35.2028 Z-4.5000 F1000.00
G1 X174.4781 Y34.7946 Z-4.5000 F1000.00
G1 X187.5068 Y22.1827 Z-4.5000 F1000.00
G1 X187.5068 Y22.5759 Z-4.5000 F1000.00
G1 X187.5068 Y22.5759 Z-5.0000 F100.00
G1 X187.5068 Y22.1827 Z-5.0000 F1000.00
G1 X174.4781 Y34.7946 Z-5.0000 F1000.00
G1 X174.8799 Y35.2028 Z-5.0000 F1000.00
G1 X187.5068 Y22.5759 Z-5.0000 F1000.00
G1 X187.5068 Y24.6972 Z-5.0000 F1000.00
G1 X175.9321 Y36.2719 Z-5.0000 F1000.00
G1 X176.9844 Y37.3410 Z-5.0000 F1000.00
G1 X187.5068 Y26.8186 Z-5.0000 F1000.00
G1 X187.5068 Y28.9399 Z-5.0000 F1000.00
G1 X178.0366 Y38.4101 Z-5.0000 F1000.00
G1 X179.0889 Y39.4791 Z-5.0000 F1000.00
G1 X187.5068 Y31.0612 Z-5.0000 F1000.00
G1 X187.5068 Y33.1825 Z-5.0000 F1000.00
G1 X180.1411 Y40.5482 Z-5.0000 F1000.00
G1 X181.1934 Y41.6173 Z-5.0000 F1000.00
G1 X187.5068 Y35.3038 Z-5.0000 F1000.00
G1 X187.5068 Y37.4252 Z-5.0000 F1000.00
G1 X182.2456 Y42.6864 Z-5.0000 F1000.00
G1 X183.2978 Y43.7554 Z-5.0000 F1000.00
G1 X187.5068 Y39.5465 Z-5.0000 F1000.00
G1 X187.5068 Y41.6678 Z-5.0000 F1000.00
G1 X184.3501 Y44.8245 Z-5.0000 F1000.00
G1 X185.4023 Y45.8936 Z-5.0000 F1000.00
G1 X187.5068 Y43.7891 Z-5.0000 F1000.00
G1 X187.5068 Y45.9104 Z-5.0000 F1000.00
G1 X186.4546 Y46.9627 Z-5.0000 F1000.00
G1 X187.5068 Y48.0318 Z-5.0000 F1000.00
G1 X187.5068 Y48.0318 Z-5.5000 F100.00
G1 X186.4546 Y46.9627 Z-5.5000 F1000.00
G1 X187.5068 Y45.9104 Z-5.5000 F1000.00
G1 X187.5068 Y43.7891 Z-5.5000 F1000.00
G1 X185.4023 Y45.8936 Z-5.5000 F1000.00
G1 X184.3501 Y44.8245 Z-5.5000 F1000.00
G1 X187.5068 Y41.6678 Z-5.5000 F1000.00
G1 X187.5068 Y39.5465 Z-5.5000 F1000.00
G1 X183.2978 Y43.7554 Z-5.5000 F1000.00
G1 X182.2456 Y42.6864 Z-5.5000 F1000.00
G1 X187.5068 Y37.4252 Z-5.5000 F1000.00
G1 X187.5068 Y35.3038 Z-5.5000 F1000.00
G1 X181.1934 Y41.6173 Z-5.5000 F1000.00
G1 X180.1411 Y40.5482 Z-5.5000 F1000.00
G1 X187.5068 Y33.1825 Z-5.5000 F1000.00
G1 X187.5068 Y31.0612 Z-5.5000 F1000.00
G1 X179.0889 Y39.4791 Z-5.5000 F1000.00
G1 X178.0366 Y38.4101 Z-5.5000 F1000.00
G1 X187.5068 Y28.9399 Z-5.5000 F1000.00
G1 X187.5068 Y26.8186 Z-5.5000 F1000.00
G1 X176.9844 Y37.3410 Z-5.5000 F1000.00
G1 X175.9321 Y36.2719 Z-5.5000 F1000.00
G1 X187.5068 Y24.6972 Z-5.5000 F1000.00
G1 X187.5068 Y22.5759 Z-5.5000 F1000.00
G1 X174.8799 Y35.2028 Z-5.5000 F1000.00
G1 X174.4781 Y34.7946 Z-5.5000 F1000.00
G1 X187.5068 Y22.1827 Z-5.5000 F1000.00
G1 X187.5068 Y22.5759 Z-5.5000 F1000.00
G1 X187.5068 Y22.5759 Z-6.0000 F100.00
G1 X187.5068 Y22.1827 Z-6.0000 F1000.00
G1 X174.4781 Y34.7946 Z-6.0000 F1000.00
G1 X174.8799 Y35.2028 Z-6.0000 F1000.00
G1 X187.5068 Y22.5759 Z-6.0000 F1000.00
G1 X187.5068 Y24.6972 Z-6.0000 F1000.00
G1 X175.9321 Y36.2719 Z-6.0000 F1000.00
G1 X176.9844 Y37.3410 Z-6.0000 F1000.00
G1 X187.5068 Y26.8186 Z-6.0000 F1000.00
G1 X187.5068 Y28.9399 Z-6.0000 F1000.00
G1 X178.0366 Y38.4101 Z-6.0000 F1000.00
G1 X179.0889 Y39.4791 Z-6.0000 F1000.00
G1 X187.5068 Y31.0612 Z-6.0000 F1000.00
G1 X187.5068 Y33.1825 Z-6.0000 F1000.00
G1 X180.1411 Y40.5482 Z-6.0000 F1000.00
G1 X181.1934 Y41.6173 Z-6.0000 F1000.00
G1 X187.5068 Y35.3038 Z-6.0000 F1000.00
G1 X187.5068 Y37.4252 Z-6.0000 F1000.00
G1 X182.2456 Y42.6864 Z-6.0000 F1000.00
G1 X183.2978 Y43.7554 Z-6.0000 F1000.00
G1 X187.5068 Y39.5465 Z-6.0000 F1000.00
G1 X187.5068 Y41.6678 Z-6.0000 F1000.00
G1 X184.3501 Y44.8245 Z-6.0000 F1000.00
G1 X185.4023 Y45.8936 Z-6.0000 F1000.00
G1 X187.5068 Y43.7891 Z-6.0000 F1000.00
G1 X187.5068 Y45.9104 Z-6.0000 F1000.00
G1 X186.4546 Y46.9627 Z-6.0000 F1000.00
G1 X187.5068 Y48.0318 Z-6.0000 F1000.00
G1 X187.5068 Y48.0318 Z-6.5000 F100.00
G1 X186.4546 Y46.9627 Z-6.5000 F1000.00
G1 X187.5068 Y45.9104 Z-6.5000 F1000.00
G1 X187.5068 Y43.7891 Z-6.5000 F1000.00
G1 X185.4023 Y45.8936 Z-6.5000 F1000.00
G1 X184.3501 Y44.8245 Z-6.5000 F1000.00
G1 X187.5068 Y41.6678 Z-6.5000 F1000.00
G1 X187.5068 Y39.5465 Z-6.5000 F1000.00
G1 X183.2978 Y43.7554 Z-6.5000 F1000.00
G1 X182.2456 Y42.6864 Z-6.5000 F1000.00
G1 X187.5068 Y37.4252 Z-6.5000 F1000.00
G1 X187.5068 Y35.3038 Z-6.5000 F1000.00
G1 X181.1934 Y41.6173 Z-6.5000 F1000.00
G1 X180.1411 Y40.5482 Z-6.5000 F1000.00
G1 X187.5068 Y33.1825 Z-6.5000 F1000.00
G1 X187.5068 Y31.0612 Z-6.5000 F1000.00
G1 X179.0889 Y39.4791 Z-6.5000 F1000.00
G1 X178.0366 Y38.4101 Z-6.5000 F1000.00
G1 X187.5068 Y28.9399 Z-6.5000 F1000.00
G1 X187.5068 Y26.8186 Z-6.5000 F1000.00
G1 X176.9844 Y37.3410 Z-6.5000 F1000.00
G1 X175.9321 Y36.2719 Z-6.5000 F1000.00
G1 X187.5068 Y24.6972 Z-6.5000 F1000.00
G1 X187.5068 Y22.5759 Z-6.5000 F1000.00
G1 X174.8799 Y35.2028 Z-6.5000 F1000.00
G1 X174.4781 Y34.7946 Z-6.5000 F1000.00
G1 X187.5068 Y22.1827 Z-6.5000 F1000.00
G1 X187.5068 Y22.5759 Z-6.5000 F1000.00
G1 X187.5068 Y22.5759 Z-7.0000 F100.00
G1 X187.5068 Y22.1827 Z-7.0000 F1000.00
G1 X174.4781 Y34.7946 Z-7.0000 F1000.00
G1 X174.8799 Y35.2028 Z-7.0000 F1000.00
G1 X187.5068 Y22.5759 Z-7.0000 F1000.00
G1 X187.5068 Y24.6972 Z-7.0000 F1000.00
G1 X175.9321 Y36.2719 Z-7.0000 F1000.00
G1 X176.9844 Y37.3410 Z-7.0000 F1000.00
G1 X187.5068 Y26.8186 Z-7.0000 F1000.00
G1 X187.5068 Y28.9399 Z-7.0000 F1000.00
G1 X178.0366 Y38.4101 Z-7.0000 F1000.00
G1 X179.0889 Y39.4791 Z-7.0000 F1000.00
G1 X187.5068 Y31.0612 Z-7.0000 F1000.00
G1 X187.5068 Y33.1825 Z-7.0000 F1000.00
G1 X180.1411 Y40.5482 Z-7.0000 F1000.00
G1 X181.1934 Y41.6173 Z-7.0000 F1000.00
G1 X187.5068 Y35.3038 Z-7.0000 F1000.00
G1 X187.5068 Y37.4252 Z-7.0000 F1000.00
G1 X182.2456 Y42.6864 Z-7.0000 F1000.00
G1 X183.2978 Y43.7554 Z-7.0000 F1000.00
G1 X187.5068 Y39.5465 Z-7.0000 F1000.00
G1 X187.5068 Y41.6678 Z-7.0000 F1000.00
G1 X184.3501 Y44.8245 Z-7.0000 F1000.00
G1 X185.4023 Y45.8936 Z-7.0000 F1000.00
G1 X187.5068 Y43.7891 Z-7.0000 F1000.00
G1 X187.5068 Y45.9104 Z-7.0000 F1000.00
G1 X186.4546 Y46.9627 Z-7.0000 F1000.00
G1 X187.5068 Y48.0318 Z-7.0000 F1000.00
G1 X187.5068 Y48.0318 Z-7.5000 F100.00
G1 X186.4546 Y46.9627 Z-7.5000 F1000.00
G1 X187.5068 Y45.9104 Z-7.5000 F1000.00
G1 X187.5068 Y43.7891 Z-7.5000 F1000.00
G1 X185.4023 Y45.8936 Z-7.5000 F1000.00
G1 X184.3501 Y44.8245 Z-7.5000 F1000.00
G1 X187.5068 Y41.6678 Z-7.5000 F1000.00
G1 X187.5068 Y39.5465 Z-7.5000 F1000.00
G1 X183.2978 Y43.7554 Z-7.5000 F1000.00
G1 X182.2456 Y42.6864 Z-7.5000 F1000.00
G1 X187.5068 Y37.4252 Z-7.5000 F1000.00
G1 X187.5068 Y35.3038 Z-7.5000 F1000.00
G1 X181.1934 Y41.6173 Z-7.5000 F1000.00
G1 X180.1411 Y40.5482 Z-7.5000 F1000.00
G1 X187.5068 Y33.1825 Z-7.5000 F1000.00
G1 X187.5068 Y31.0612 Z-7.5000 F1000.00
G1 X179.0889 Y39.4791 Z-7.5000 F1000.00
G1 X178.0366 Y38.4101 Z-7.5000 F1000.00
G1 X187.5068 Y28.9399 Z-7.5000 F1000.00
G1 X187.5068 Y26.8186 Z-7.5000 F1000.00
G1 X176.9844 Y37.3410 Z-7.5000 F1000.00
G1 X175.9321 Y36.2719 Z-7.5000 F1000.00
G1 X187.5068 Y24.6972 Z-7.5000 F1000.00
G1 X187.5068 Y22.5759 Z-7.5000 F1000.00
G1 X174.8799 Y35.2028 Z-7.5000 F1000.00
G1 X174.4781 Y34.7946 Z-7.5000 F1000.00
G1 X187.5068 Y22.1827 Z-7.5000 F1000.00
G1 X187.5068 Y22.5759 Z-7.5000 F1000.00
G1 X187.5068 Y22.5759 Z-8.0000 F100.00
G1 X187.5068 Y22.1827 Z-8.0000 F1000.00
G1 X174.4781 Y34.7946 Z-8.0000 F1000.00
G1 X174.8799 Y35.2028 Z-8.0000 F1000.00
G1 X187.5068 Y22.5759 Z-8.0000 F1000.00
G1 X187.5068 Y24.6972 Z-8.0000 F1000.00
G1 X175.9321 Y36.2719 Z-8.0000 F1000.00
G1 X176.9844 Y37.3410 Z-8.0000 F1000.00
G1 X187.5068 Y26.8186 Z-8.0000 F1000.00
G1 X187.5068 Y28.9399 Z-8.0000 F1000.00
G1 X178.0366 Y38.4101 Z-8.0000 F1000.00
G1 X179.0889 Y39.4791 Z-8.0000 F1000.00
G1 X187.5068 Y31.0612 Z-8.0000 F1000.00
G1 X187.5068 Y33.1825 Z-8.0000 F1000.00
G1 X180.1411 Y40.5482 Z-8.0000 F1000.00
G1 X181.1934 Y41.6173 Z-8.0000 F1000.00
G1 X187.5068 Y35.3038 Z-8.0000 F1000.00
G1 X187.5068 Y37.4252 Z-8.0000 F1000.00
G1 X182.2456 Y42.6864 Z-8.0000 F1000.00
G1 X183.2978 Y43.7554 Z-8.0000 F1000.00
G1 X187.5068 Y39.5465 Z-8.0000 F1000.00
G1 X187.5068 Y41.6678 Z-8.0000 F1000.00
G1 X184.3501 Y44.8245 Z-8.0000 F1000.00
G1 X185.4023 Y45.8936 Z-8.0000 F1000.00
G1 X187.5068 Y43.7891 Z-8.0000 F1000.00
G1 X187.5068 Y45.9104 Z-8.0000 F1000.00
G1 X186.4546 Y46.9627 Z-8.0000 F1000.00
G1 X187.5068 Y48.0318 Z-8.0000 F1000.00
G1 X187.5068 Y48.0318 Z-8.5000 F100.00
G1 X186.4546 Y46.9627 Z-8.5000 F1000.00
G1 X187.5068 Y45.9104 Z-8.5000 F1000.00
G1 X187.5068 Y43.7891 Z-8.5000 F1000.00
G1 X185.4023 Y45.8936 Z-8.5000 F1000.00
G1 X184.3501 Y44.8245 Z-8.5000 F1000.00
G1 X187.5068 Y41.6678 Z-8.5000 F1000.00
G1 X187.5068 Y39.5465 Z-8.5000 F1000.00
G1 X183.2978 Y43.7554 Z-8.5000 F1000.00
G1 X182.2456 Y42.6864 Z-8.5000 F1000.00
G1 X187.5068 Y37.4252 Z-8.5000 F1000.00
G1 X187.5068 Y35.3038 Z-8.5000 F1000.00
G1 X181.1934 Y41.6173 Z-8.5000 F1000.00
G1 X180.1411 Y40.5482 Z-8.5000 F1000.00
G1 X187.5068 Y33.1825 Z-8.5000 F1000.00
G1 X187.5068 Y31.0612 Z-8.5000 F1000.00
G1 X179.0889 Y39.4791 Z-8.5000 F1000.00
G1 X178.0366 Y38.4101 Z-8.5000 F1000.00
G1 X187.5068 Y28.9399 Z-8.5000 F1000.00
G1 X187.5068 Y26.8186 Z-8.5000 F1000.00
G1 X176.9844 Y37.3410 Z-8.5000 F1000.00
G1 X175.9321 Y36.2719 Z-8.5000 F1000.00
G1 X187.5068 Y24.6972 Z-8.5000 F1000.00
G1 X187.5068 Y22.5759 Z-8.5000 F1000.00
G1 X174.8799 Y35.2028 Z-8.5000 F1000.00
G1 X174.4781 Y34.7946 Z-8.5000 F1000.00
G1 X187.5068 Y22.1827 Z-8.5000 F1000.00
G1 X187.5068 Y22.5759 Z-8.5000 F1000.00
G1 X187.5068 Y22.5759 Z-9.0000 F100.00
G1 X187.5068 Y22.1827 Z-9.0000 F1000.00
G1 X174.4781 Y34.7946 Z-9.0000 F1000.00
G1 X174.8799 Y35.2028 Z-9.0000 F1000.00
G1 X187.5068 Y22.5759 Z-9.0000 F1000.00
G1 X187.5068 Y24.6972 Z-9.0000 F1000.00
G1 X175.9321 Y36.2719 Z-9.0000 F1000.00
G1 X176.9844 Y37.3410 Z-9.0000 F1000.00
G1 X187.5068 Y26.8186 Z-9.0000 F1000.00
G1 X187.5068 Y28.9399 Z-9.0000 F1000.00
G1 X178.0366 Y38.4101 Z-9.0000 F1000.00
G1 X179.0889 Y39.4791 Z-9.0000 F1000.00
G1 X187.5068 Y31.0612 Z-9.0000 F1000.00
G1 X187.5068 Y33.1825 Z-9.0000 F1000.00
G1 X180.1411 Y40.5482 Z-9.0000 F1000.00
G1 X181.1934 Y41.6173 Z-9.0000 F1000.00
G1 X187.5068 Y35.3038 Z-9.0000 F1000.00
G1 X187.5068 Y37.4252 Z-9.0000 F1000.00
G1 X182.2456 Y42.6864 Z-9.0000 F1000.00
G1 X183.2978 Y43.7554 Z-9.0000 F1000.00
G1 X187.5068 Y39.5465 Z-9.0000 F1000.00
G1 X187.5068 Y41.6678 Z-9.0000 F1000.00
G1 X184.3501 Y44.8245 Z-9.0000 F1000.00
G1 X185.4023 Y45.8936 Z-9.0000 F1000.00
G1 X187.5068 Y43.7891 Z-9.0000 F1000.00
G1 X187.5068 Y45.9104 Z-9.0000 F1000.00
G1 X186.4546 Y46.9627 Z-9.0000 F1000.00
G1 X187.5068 Y48.0318 Z-9.0000 F1000.00
G1 X187.5068 Y48.0318 Z-9.5000 F100.00
G1 X186.4546 Y46.9627 Z-9.5000 F1000.00
G1 X187.5068 Y45.9104 Z-9.5000 F1000.00
G1 X187.5068 Y43.7891 Z-9.5000 F1000.00
G1 X185.4023 Y45.8936 Z-9.5000 F1000.00
G1 X184.3501 Y44.8245 Z-9.5000 F1000.00
G1 X187.5068 Y41.6678 Z-9.5000 F1000.00
G1 X187.5068 Y39.5465 Z-9.5000 F1000.00
G1 X183.2978 Y43.7554 Z-9.5000 F1000.00
G1 X182.2456 Y42.6864 Z-9.5000 F1000.00
G1 X187.5068 Y37.4252 Z-9.5000 F1000.00
G1 X187.5068 Y35.3038 Z-9.5000 F1000.00
G1 X181.1934 Y41.6173 Z-9.5000 F1000.00
G1 X180.1411 Y40.5482 Z-9.5000 F1000.00
G1 X187.5068 Y33.1825 Z-9.5000 F1000.00
G1 X187.5068 Y31.0612 Z-9.5000 F1000.00
G1 X179.0889 Y39.4791 Z-9.5000 F1000.00
G1 X178.0366 Y38.4101 Z-9.5000 F1000.00
G1 X187.5068 Y28.9399 Z-9.5000 F1000.00
G1 X187.5068 Y26.8186 Z-9.5000 F1000.00
G1 X176.9844 Y37.3410 Z-9.5000 F1000.00
G1 X175.9321 Y36.2719 Z-9.5000 F1000.00
G1 X187.5068 Y24.6972 Z-9.5000 F1000.00
G1 X187.5068 Y22.5759 Z-9.5000 F1000.00
G1 X174.8799 Y35.2028 Z-9.5000 F1000.00
G1 X174.4781 Y34.7946 Z-9.5000 F1000.00
G1 X187.5068 Y22.1827 Z-9.5000 F1000.00
G1 X187.5068 Y22.5759 Z-9.5000 F1000.00
G1 X187.5068 Y22.5759 Z-10.0000 F100.00
G1 X187.5068 Y22.1827 Z-10.0000 F1000.00
G1 X174.4781 Y34.7946 Z-10.0000 F1000.00
G1 X174.8799 Y35.2028 Z-10.0000 F1000.00
G1 X187.5068 Y22.5759 Z-10.0000 F1000.00
G1 X187.5068 Y24.6972 Z-10.0000 F1000.00
G1 X175.9321 Y36.2719 Z-10.0000 F1000.00
G1 X176.9844 Y37.3410 Z-10.0000 F1000.00
G1 X187.5068 Y26.8186 Z-10.0000 F1000.00
G1 X187.5068 Y28.9399 Z-10.0000 F1000.00
G1 X178.0366 Y38.4101 Z-10.0000 F1000.00
G1 X179.0889 Y39.4791 Z-10.0000 F1000.00
G1 X187.5068 Y31.0612 Z-10.0000 F1000.00
G1 X187.5068 Y33.1825 Z-10.0000 F1000.00
G1 X180.1411 Y40.5482 Z-10.0000 F1000.00
G1 X181.1934 Y41.6173 Z-10.0000 F1000.00
G1 X187.5068 Y35.3038 Z-10.0000 F1000.00
G1 X187.5068 Y37.4252 Z-10.0000 F1000.00
G1 X182.2456 Y42.6864 Z-10.0000 F1000.00
G1 X183.2978 Y43.7554 Z-10.0000 F1000.00
G1 X187.5068 Y39.5465 Z-10.0000 F1000.00
G1 X187.5068 Y41.6678 Z-10.0000 F1000.00
G1 X184.3501 Y44.8245 Z-10.0000 F1000.00
G1 X185.4023 Y45.8936 Z-10.0000 F1000.00
G1 X187.5068 Y43.7891 Z-10.0000 F1000.00
G1 X187.5068 Y45.9104 Z-10.0000 F1000.00
G1 X186.4546 Y46.9627 Z-10.0000 F1000.00
G1 X187.5068 Y48.0318 Z-10.0000 F1000.00
G1 X187.5068 Y48.0318 Z-10.5000 F100.00
G1 X186.4546 Y46.9627 Z-10.5000 F1000.00
G1 X187.5068 Y45.9104 Z-10.5000 F1000.00
G1 X187.5068 Y43.7891 Z-10.5000 F1000.00
G1 X185.4023 Y45.8936 Z-10.5000 F1000.00
G1 X184.3501 Y44.8245 Z-10.5000 F1000.00
G1 X187.5068 Y41.6678 Z-10.5000 F1000.00
G1 X187.5068 Y39.5465 Z-10.5000 F1000.00
G1 X183.2978 Y43.7554 Z-10.5000 F1000.00
G1 X182.2456 Y42.6864 Z-10.5000 F1000.00
G1 X187.5068 Y37.4252 Z-10.5000 F1000.00
G1 X187.5068 Y35.3038 Z-10.5000 F1000.00
G1 X181.1934 Y41.6173 Z-10.5000 F1000.00
G1 X180.1411 Y40.5482 Z-10.5000 F1000.00
G1 X187.5068 Y33.1825 Z-10.5000 F1000.00
G1 X187.5068 Y31.0612 Z-10.5000 F1000.00
G1 X179.0889 Y39.4791 Z-10.5000 F1000.00
G1 X178.0366 Y38.4101 Z-10.5000 F1000.00
G1 X187.5068 Y28.9399 Z-10.5000 F1000.00
G1 X187.5068 Y26.8186 Z-10.5000 F1000.00
G1 X176.9844 Y37.3410 Z-10.5000 F1000.00
G1 X175.9321 Y36.2719 Z-10.5000 F1000.00
G1 X187.5068 Y24.6972 Z-10.5000 F1000.00
G1 X187.5068 Y22.5759 Z-10.5000 F1000.00
G1 X174.8799 Y35.2028 Z-10.5000 F1000.00
G1 X174.4781 Y34.7946 Z-10.5000 F1000.00
G1 X187.5068 Y22.1827 Z-10.5000 F1000.00
G1 X187.5068 Y22.5759 Z-10.5000 F1000.00
G1 X187.5068 Y22.5759 Z-11.0000 F100.00
G1 X187.5068 Y22.1827 Z-11.0000 F1000.00
G1 X174.4781 Y34.7946 Z-11.0000 F1000.00
G1 X174.8799 Y35.2028 Z-11.0000 F1000.00
G1 X187.5068 Y22.5759 Z-11.0000 F1000.00
G1 X187.5068 Y24.6972 Z-11.0000 F1000.00
G1 X175.9321 Y36.2719 Z-11.0000 F1000.00
G1 X176.9844 Y37.3410 Z-11.0000 F1000.00
G1 X187.5068 Y26.8186 Z-11.0000 F1000.00
G1 X187.5068 Y28.9399 Z-11.0000 F1000.00
G1 X178.0366 Y38.4101 Z-11.0000 F1000.00
G1 X179.0889 Y39.4791 Z-11.0000 F1000.00
G1 X187.5068 Y31.0612 Z-11.0000 F1000.00
G1 X187.5068 Y33.1825 Z-11.0000 F1000.00
G1 X180.1411 Y40.5482 Z-11.0000 F1000.00
G1 X181.1934 Y41.6173 Z-11.0000 F1000.00
G1 X187.5068 Y35.3038 Z-11.0000 F1000.00
G1 X187.5068 Y37.4252 Z-11.0000 F1000.00
G1 X182.2456 Y42.6864 Z-11.0000 F1000.00
G1 X183.2978 Y43.7554 Z-11.0000 F1000.00
G1 X187.5068 Y39.5465 Z-11.0000 F1000.00
G1 X187.5068 Y41.6678 Z-11.0000 F1000.00
G1 X184.3501 Y44.8245 Z-11.0000 F1000.00
G1 X185.4023 Y45.8936 Z-11.0000 F1000.00
G1 X187.5068 Y43.7891 Z-11.0000 F1000.00
G1 X187.5068 Y45.9104 Z-11.0000 F1000.00
G1 X186.4546 Y46.9627 Z-11.0000 F1000.00
G1 X187.5068 Y48.0318 Z-11.0000 F1000.00
G1 X187.5068 Y48.0318 Z-11.5000 F100.00
G1 X186.4546 Y46.9627 Z-11.5000 F1000.00
G1 X187.5068 Y45.9104 Z-11.5000 F1000.00
G1 X187.5068 Y43.7891 Z-11.5000 F1000.00
G1 X185.4023 Y45.8936 Z-11.5000 F1000.00
G1 X184.3501 Y44.8245 Z-11.5000 F1000.00
G1 X187.5068 Y41.6678 Z-11.5000 F1000.00
G1 X187.5068 Y39.5465 Z-11.5000 F1000.00
G1 X183.2978 Y43.7554 Z-11.5000 F1000.00
G1 X182.2456 Y42.6864 Z-11.5000 F1000.00
G1 X187.5068 Y37.4252 Z-11.5000 F1000.00
G1 X187.5068 Y35.3038 Z-11.5000 F1000.00
G1 X181.1934 Y41.6173 Z-11.5000 F1000.00
G1 X180.1411 Y40.5482 Z-11.5000 F1000.00
G1 X187.5068 Y33.1825 Z-11.5000 F1000.00
G1 X187.5068 Y31.0612 Z-11.5000 F1000.00
G1 X179.0889 Y39.4791 Z-11.5000 F1000.00
G1 X178.0366 Y38.4101 Z-11.5000 F1000.00
G1 X187.5068 Y28.9399 Z-11.5000 F1000.00
G1 X187.5068 Y26.8186 Z-11.5000 F1000.00
G1 X176.9844 Y37.3410 Z-11.5000 F1000.00
G1 X175.9321 Y36.2719 Z-11.5000 F1000.00
G1 X187.5068 Y24.6972 Z-11.5000 F1000.00
G1 X187.5068 Y22.5759 Z-11.5000 F1000.00
G1 X174.8799 Y35.2028 Z-11.5000 F1000.00
G1 X174.4781 Y34.7946 Z-11.5000 F1000.00
G1 X187.5068 Y22.1827 Z-11.5000 F1000.00
G1 X187.5068 Y22.5759 Z-11.5000 F1000.00
G1 X187.5068 Y22.5759 Z-12.0000 F100.00
G1 X187.5068 Y22.1827 Z-12.0000 F1000.00
G1 X174.4781 Y34.7946 Z-12.0000 F1000.00
G1 X174.8799 Y35.2028 Z-12.0000 F1000.00
G1 X187.5068 Y22.5759 Z-12.0000 F1000.00
G1 X187.5068 Y24.6972 Z-12.0000 F1000.00
G1 X175.9321 Y36.2719 Z-12.0000 F1000.00
G1 X176.9844 Y37.3410 Z-12.0000 F1000.00
G1 X187.5068 Y26.8186 Z-12.0000 F1000.00
G1 X187.5068 Y28.9399 Z-12.0000 F1000.00
G1 X178.0366 Y38.4101 Z-12.0000 F1000.00
G1 X179.0889 Y39.4791 Z-12.0000 F1000.00
G1 X187.5068 Y31.0612 Z-12.0000 F1000.00
G1 X187.5068 Y33.1825 Z-12.0000 F1000.00
G1 X180.1411 Y40.5482 Z-12.0000 F1000.00
G1 X181.1934 Y41.6173 Z-12.0000 F1000.00
G1 X187.5068 Y35.3038 Z-12.0000 F1000.00
G1 X187.5068 Y37.4252 Z-12.0000 F1000.00
G1 X182.2456 Y42.6864 Z-12.0000 F1000.00
G1 X183.2978 Y43.7554 Z-12.0000 F1000.00
G1 X187.5068 Y39.5465 Z-12.0000 F1000.00
G1 X187.5068 Y41.6678 Z-12.0000 F1000.00
G1 X184.3501 Y44.8245 Z-12.0000 F1000.00
G1 X185.4023 Y45.8936 Z-12.0000 F1000.00
G1 X187.5068 Y43.7891 Z-12.0000 F1000.00
G1 X187.5068 Y45.9104 Z-12.0000 F1000.00
G1 X186.4546 Y46.9627 Z-12.0000 F1000.00
G1 X187.5068 Y48.0318 Z-12.0000 F1000.00
G1 X187.5068 Y48.0318 Z-12.5000 F100.00
G1 X186.4546 Y46.9627 Z-12.5000 F1000.00
G1 X187.5068 Y45.9104 Z-12.5000 F1000.00
G1 X187.5068 Y43.7891 Z-12.5000 F1000.00
G1 X185.4023 Y45.8936 Z-12.5000 F1000.00
G1 X184.3501 Y44.8245 Z-12.5000 F1000.00
G1 X187.5068 Y41.6678 Z-12.5000 F1000.00
G1 X187.5068 Y39.5465 Z-12.5000 F1000.00
G1 X183.2978 Y43.7554 Z-12.5000 F1000.00
G1 X182.2456 Y42.6864 Z-12.5000 F1000.00
G1 X187.5068 Y37.4252 Z-12.5000 F1000.00
G1 X187.5068 Y35.3038 Z-12.5000 F1000.00
G1 X181.1934 Y41.6173 Z-12.5000 F1000.00
G1 X180.1411 Y40.5482 Z-12.5000 F1000.00
G1 X187.5068 Y33.1825 Z-12.5000 F1000.00
G1 X187.5068 Y31.0612 Z-12.5000 F1000.00
G1 X179.0889 Y39.4791 Z-12.5000 F1000.00
G1 X178.0366 Y38.4101 Z-12.5000 F1000.00
G1 X187.5068 Y28.9399 Z-12.5000 F1000.00
G1 X187.5068 Y26.8186 Z-12.5000 F1000.00
G1 X176.9844 Y37.3410 Z-12.5000 F1000.00
G1 X175.9321 Y36.2719 Z-12.5000 F1000.00
G1 X187.5068 Y24.6972 Z-12.5000 F1000.00
G1 X187.5068 Y22.5759 Z-12.5000 F1000.00
G1 X174.8799 Y35.2028 Z-12.5000 F1000.00
G1 X174.4781 Y34.7946 Z-12.5000 F1000.00
G1 X187.5068 Y22.1827 Z-12.5000 F1000.00
G1 X187.5068 Y22.5759 Z-12.5000 F1000.00
G1 X187.5068 Y22.5759 Z-13.0000 F100.00
G1 X187.5068 Y22.1827 Z-13.0000 F1000.00
G1 X174.4781 Y34.7946 Z-13.0000 F1000.00
G1 X174.8799 Y35.2028 Z-13.0000 F1000.00
G1 X187.5068 Y22.5759 Z-13.0000 F1000.00
G1 X187.5068 Y24.6972 Z-13.0000 F1000.00
G1 X175.9321 Y36.2719 Z-13.0000 F1000.00
G1 X176.9844 Y37.3410 Z-13.0000 F1000.00
G1 X187.5068 Y26.8186 Z-13.0000 F1000.00
G1 X187.5068 Y28.9399 Z-13.0000 F1000.00
G1 X178.0366 Y38.4101 Z-13.0000 F1000.00
G1 X179.0889 Y39.4791 Z-13.0000 F1000.00
G1 X187.5068 Y31.0612 Z-13.0000 F1000.00
G1 X187.5068 Y33.1825 Z-13.0000 F1000.00
G1 X180.1411 Y40.5482 Z-13.0000 F1000.00
G1 X181.1934 Y41.6173 Z-13.0000 F1000.00
G1 X187.5068 Y35.3038 Z-13.0000 F1000.00
G1 X187.5068 Y37.4252 Z-13.0000 F1000.00
G1 X182.2456 Y42.6864 Z-13.0000 F1000.00
G1 X183.2978 Y43.7554 Z-13.0000 F1000.00
G1 X187.5068 Y39.5465 Z-13.0000 F1000.00
G1 X187.5068 Y41.6678 Z-13.0000 F1000.00
G1 X184.3501 Y44.8245 Z-13.0000 F1000.00
G1 X185.4023 Y45.8936 Z-13.0000 F1000.00
G1 X187.5068 Y43.7891 Z-13.0000 F1000.00
G1 X187.5068 Y45.9104 Z-13.0000 F1000.00
G1 X186.4546 Y46.9627 Z-13.0000 F1000.00
G1 X187.5068 Y48.0318 Z-13.0000 F1000.00
G1 X187.5068 Y48.0318 Z-13.5000 F100.00
G1 X186.4546 Y46.9627 Z-13.5000 F1000.00
G1 X187.5068 Y45.9104 Z-13.5000 F1000.00
G1 X187.5068 Y43.7891 Z-13.5000 F1000.00
G1 X185.4023 Y45.8936 Z-13.5000 F1000.00
G1 X184.3501 Y44.8245 Z-13.5000 F1000.00
G1 X187.5068 Y41.6678 Z-13.5000 F1000.00
G1 X187.5068 Y39.5465 Z-13.5000 F1000.00
G1 X183.2978 Y43.7554 Z-13.5000 F1000.00
G1 X182.2456 Y42.6864 Z-13.5000 F1000.00
G1 X187.5068 Y37.4252 Z-13.5000 F1000.00
G1 X187.5068 Y35.3038 Z-13.5000 F1000.00
G1 X181.1934 Y41.6173 Z-13.5000 F1000.00
G1 X180.1411 Y40.5482 Z-13.5000 F1000.00
G1 X187.5068 Y33.1825 Z-13.5000 F1000.00
G1 X187.5068 Y31.0612 Z-13.5000 F1000.00
G1 X179.0889 Y39.4791 Z-13.5000 F1000.00
G1 X178.0366 Y38.4101 Z-13.5000 F1000.00
G1 X187.5068 Y28.9399 Z-13.5000 F1000.00
G1 X187.5068 Y26.8186 Z-13.5000 F1000.00
G1 X176.9844 Y37.3410 Z-13.5000 F1000.00
G1 X175.9321 Y36.2719 Z-13.5000 F1000.00
G1 X187.5068 Y24.6972 Z-13.5000 F1000.00
G1 X187.5068 Y22.5759 Z-13.5000 F1000.00
G1 X174.8799 Y35.2028 Z-13.5000 F1000.00
G1 X174.4781 Y34.7946 Z-13.5000 F1000.00
G1 X187.5068 Y22.1827 Z-13.5000 F1000.00
G1 X187.5068 Y22.5759 Z-13.5000 F1000.00
G1 X187.5068 Y22.5759 Z-14.0000 F100.00
G1 X187.5068 Y22.1827 Z-14.0000 F1000.00
G1 X174.4781 Y34.7946 Z-14.0000 F1000.00
G1 X174.8799 Y35.2028 Z-14.0000 F1000.00
G1 X187.5068 Y22.5759 Z-14.0000 F1000.00
G1 X187.5068 Y24.6972 Z-14.0000 F1000.00
G1 X175.9321 Y36.2719 Z-14.0000 F1000.00
G1 X176.9844 Y37.3410 Z-14.0000 F1000.00
G1 X187.5068 Y26.8186 Z-14.0000 F1000.00
G1 X187.5068 Y28.9399 Z-14.0000 F1000.00
G1 X178.0366 Y38.4101 Z-14.0000 F1000.00
G1 X179.0889 Y39.4791 Z-14.0000 F1000.00
G1 X187.5068 Y31.0612 Z-14.0000 F1000.00
G1 X187.5068 Y33.1825 Z-14.0000 F1000.00
G1 X180.1411 Y40.5482 Z-14.0000 F1000.00
G1 X181.1934 Y41.6173 Z-14.0000 F1000.00
G1 X187.5068 Y35.3038 Z-14.0000 F1000.00
G1 X187.5068 Y37.4252 Z-14.0000 F1000.00
G1 X182.2456 Y42.6864 Z-14.0000 F1000.00
G1 X183.2978 Y43.7554 Z-14.0000 F1000.00
G1 X187.5068 Y39.5465 Z-14.0000 F1000.00
G1 X187.5068 Y41.6678 Z-14.0000 F1000.00
G1 X184.3501 Y44.8245 Z-14.0000 F1000.00
G1 X185.4023 Y45.8936 Z-14.0000 F1000.00
G1 X187.5068 Y43.7891 Z-14.0000 F1000.00
G1 X187.5068 Y45.9104 Z-14.0000 F1000.00
G1 X186.4546 Y46.9627 Z-14.0000 F1000.00
G1 X187.5068 Y48.0318 Z-14.0000 F1000.00
G1 X187.5068 Y48.0318 Z-14.5000 F100.00
G1 X186.4546 Y46.9627 Z-14.5000 F1000.00
G1 X187.5068 Y45.9104 Z-14.5000 F1000.00
G1 X187.5068 Y43.7891 Z-14.5000 F1000.00
G1 X185.4023 Y45.8936 Z-14.5000 F1000.00
G1 X184.3501 Y44.8245 Z-14.5000 F1000.00
G1 X187.5068 Y41.6678 Z-14.5000 F1000.00
G1 X187.5068 Y39.5465 Z-14.5000 F1000.00
G1 X183.2978 Y43.7554 Z-14.5000 F1000.00
G1 X182.2456 Y42.6864 Z-14.5000 F1000.00
G1 X187.5068 Y37.4252 Z-14.5000 F1000.00
G1 X187.5068 Y35.3038 Z-14.5000 F1000.00
G1 X181.1934 Y41.6173 Z-14.5000 F1000.00
G1 X180.1411 Y40.5482 Z-14.5000 F1000.00
G1 X187.5068 Y33.1825 Z-14.5000 F1000.00
G1 X187.5068 Y31.0612 Z-14.5000 F1000.00
G1 X179.0889 Y39.4791 Z-14.5000 F1000.00
G1 X178.0366 Y38.4101 Z-14.5000 F1000.00
G1 X187.5068 Y28.9399 Z-14.5000 F1000.00
G1 X187.5068 Y26.8186 Z-14.5000 F1000.00
G1 X176.9844 Y37.3410 Z-14.5000 F1000.00
G1 X175.9321 Y36.2719 Z-14.5000 F1000.00
G1 X187.5068 Y24.6972 Z-14.5000 F1000.00
G1 X187.5068 Y22.5759 Z-14.5000 F1000.00
G1 X174.8799 Y35.2028 Z-14.5000 F1000.00
G1 X174.4781 Y34.7946 Z-14.5000 F1000.00
G1 X187.5068 Y22.1827 Z-14.5000 F1000.00
G1 X187.5068 Y22.5759 Z-14.5000 F1000.00
G1 X187.5068 Y22.5759 Z-15.0000 F100.00
G1 X187.5068 Y22.1827 Z-15.0000 F1000.00
G1 X174.4781 Y34.7946 Z-15.0000 F1000.00
G1 X174.8799 Y35.2028 Z-15.0000 F1000.00
G1 X187.5068 Y22.5759 Z-15.0000 F1000.00
G1 X187.5068 Y24.6972 Z-15.0000 F1000.00
G1 X175.9321 Y36.2719 Z-15.0000 F1000.00
G1 X176.9844 Y37.3410 Z-15.0000 F1000.00
G1 X187.5068 Y26.8186 Z-15.0000 F1000.00
G1 X187.5068 Y28.9399 Z-15.0000 F1000.00
G1 X178.0366 Y38.4101 Z-15.0000 F1000.00
G1 X179.0889 Y39.4791 Z-15.0000 F1000.00
G1 X187.5068 Y31.0612 Z-15.0000 F1000.00
G1 X187.5068 Y33.1825 Z-15.0000 F1000.00
G1 X180.1411 Y40.5482 Z-15.0000 F1000.00
G1 X181.1934 Y41.6173 Z-15.0000 F1000.00
G1 X187.5068 Y35.3038 Z-15.0000 F1000.00
G1 X187.5068 Y37.4252 Z-15.0000 F1000.00
G1 X182.2456 Y42.6864 Z-15.0000 F1000.00
G1 X183.2978 Y43.7554 Z-15.0000 F1000.00
G1 X187.5068 Y39.5465 Z-15.0000 F1000.00
G1 X187.5068 Y41.6678 Z-15.0000 F1000.00
G1 X184.3501 Y44.8245 Z-15.0000 F1000.00
G1 X185.4023 Y45.8936 Z-15.0000 F1000.00
G1 X187.5068 Y43.7891 Z-15.0000 F1000.00
G1 X187.5068 Y45.9104 Z-15.0000 F1000.00
G1 X186.4546 Y46.9627 Z-15.0000 F1000.00
G1 X187.5068 Y48.0318 Z-15.0000 F1000.00
G1 X187.5068 Y48.0318 Z-15.2500 F100.00
G1 X186.4546 Y46.9627 Z-15.2500 F1000.00
G1 X187.5068 Y45.9104 Z-15.2500 F1000.00
G1 X187.5068 Y43.7891 Z-15.2500 F1000.00
G1 X185.4023 Y45.8936 Z-15.2500 F1000.00
G1 X184.3501 Y44.8245 Z-15.2500 F1000.00
G1 X187.5068 Y41.6678 Z-15.2500 F1000.00
G1 X187.5068 Y39.5465 Z-15.2500 F1000.00
G1 X183.2978 Y43.7554 Z-15.2500 F1000.00
G1 X182.2456 Y42.6864 Z-15.2500 F1000.00
G1 X187.5068 Y37.4252 Z-15.2500 F1000.00
G1 X187.5068 Y35.3038 Z-15.2500 F1000.00
G1 X181.1934 Y41.6173 Z-15.2500 F1000.00
G1 X180.1411 Y40.5482 Z-15.2500 F1000.00
G1 X187.5068 Y33.1825 Z-15.2500 F1000.00
G1 X187.5068 Y31.0612 Z-15.2500 F1000.00
G1 X179.0889 Y39.4791 Z-15.2500 F1000.00
G1 X178.0366 Y38.4101 Z-15.2500 F1000.00
G1 X187.5068 Y28.9399 Z-15.2500 F1000.00
G1 X187.5068 Y26.8186 Z-15.2500 F1000.00
G1 X176.9844 Y37.3410 Z-15.2500 F1000.00
G1 X175.9321 Y36.2719 Z-15.2500 F1000.00
G1 X187.5068 Y24.6972 Z-15.2500 F1000.00
G1 X187.5068 Y22.5759 Z-15.2500 F1000.00
G1 X174.8799 Y35.2028 Z-15.2500 F1000.00
G1 X174.4781 Y34.7946 Z-15.2500 F1000.00
G1 X187.5068 Y22.1827 Z-15.2500 F1000.00
G1 X187.5068 Y22.5759 Z-15.2500 F1000.00
G0 Z4.9500
(finish operation: room_for_clamps_right)
(begin operation: corner_bottom_left001)
(Path: corner_bottom_left001)
(corner_bottom_left001)
G0 Z4.9500
G0 X13.3990 Y1.5000
G0 Z2.9500
G1 X13.3990 Y1.5000 Z-0.5500 F100.00
G1 X12.3258 Y2.5481 Z-0.5500 F1000.00
G1 X11.2777 Y1.5000 Z-0.5500 F1000.00
G1 X9.1564 Y1.5000 Z-0.5500 F1000.00
G1 X11.2527 Y3.5963 Z-0.5500 F1000.00
G1 X10.1795 Y4.6444 Z-0.5500 F1000.00
G1 X7.0350 Y1.5000 Z-0.5500 F1000.00
G1 X4.9137 Y1.5000 Z-0.5500 F1000.00
G1 X9.1063 Y5.6926 Z-0.5500 F1000.00
G1 X8.0331 Y6.7407 Z-0.5500 F1000.00
G1 X2.7924 Y1.5000 Z-0.5500 F1000.00
G1 X1.5000 Y1.5000 Z-0.5500 F1000.00
G1 X1.5000 Y2.3289 Z-0.5500 F1000.00
G1 X6.9600 Y7.7889 Z-0.5500 F1000.00
G1 X5.8868 Y8.8370 Z-0.5500 F1000.00
G1 X1.5000 Y4.4502 Z-0.5500 F1000.00
G1 X1.5000 Y6.5716 Z-0.5500 F1000.00
G1 X4.8136 Y9.8852 Z-0.5500 F1000.00
G1 X3.7404 Y10.9333 Z-0.5500 F1000.00
G1 X1.5000 Y8.6929 Z-0.5500 F1000.00
G1 X1.5000 Y10.8142 Z-0.5500 F1000.00
G1 X2.6673 Y11.9815 Z-0.5500 F1000.00
G1 X1.5941 Y13.0296 Z-0.5500 F1000.00
G1 X1.5000 Y12.9355 Z-0.5500 F1000.00
G1 X1.5000 Y13.1215 Z-0.5500 F1000.00
G1 X1.5941 Y13.0296 Z-0.5500 F1000.00
G1 X1.5941 Y13.0296 Z-1.0500 F100.00
G1 X1.5000 Y13.1215 Z-1.0500 F1000.00
G1 X1.5000 Y12.9355 Z-1.0500 F1000.00
G1 X1.5941 Y13.0296 Z-1.0500 F1000.00
G1 X2.6673 Y11.9815 Z-1.0500 F1000.00
G1 X1.5000 Y10.8142 Z-1.0500 F1000.00
G1 X1.5000 Y8.6929 Z-1.0500 F1000.00
G1 X3.7404 Y10.9333 Z-1.0500 F1000.00
G1 X4.8136 Y9.8852 Z-1.0500 F1000.00
G1 X1.5000 Y6.5716 Z-1.0500 F1000.00
G1 X1.5000 Y4.4502 Z-1.0500 F1000.00
G1 X5.8868 Y8.8370 Z-1.0500 F1000.00
G1 X6.9600 Y7.7889 Z-1.0500 F1000.00
G1 X1.5000 Y2.3289 Z-1.0500 F1000.00
G1 X1.5000 Y1.5000 Z-1.0500 F1000.00
G1 X2.7924 Y1.5000 Z-1.0500 F1000.00
G1 X8.0331 Y6.7407 Z-1.0500 F1000.00
G1 X9.1063 Y5.6926 Z-1.0500 F1000.00
G1 X4.9137 Y1.5000 Z-1.0500 F1000.00
G1 X7.0350 Y1.5000 Z-1.0500 F1000.00
G1 X10.1795 Y4.6444 Z-1.0500 F1000.00
G1 X11.2527 Y3.5963 Z-1.0500 F1000.00
G1 X9.1564 Y1.5000 Z-1.0500 F1000.00
G1 X11.2777 Y1.5000 Z-1.0500 F1000.00
G1 X12.3258 Y2.5481 Z-1.0500 F1000.00
G1 X13.3990 Y1.5000 Z-1.0500 F1000.00
G1 X13.3990 Y1.5000 Z-1.5500 F100.00
G1 X12.3258 Y2.5481 Z-1.5500 F1000.00
G1 X11.2777 Y1.5000 Z-1.5500 F1000.00
G1 X9.1564 Y1.5000 Z-1.5500 F1000.00
G1 X11.2527 Y3.5963 Z-1.5500 F1000.00
G1 X10.1795 Y4.6444 Z-1.5500 F1000.00
G1 X7.0350 Y1.5000 Z-1.5500 F1000.00
G1 X4.9137 Y1.5000 Z-1.5500 F1000.00
G1 X9.1063 Y5.6926 Z-1.5500 F1000.00
G1 X8.0331 Y6.7407 Z-1.5500 F1000.00
G1 X2.7924 Y1.5000 Z-1.5500 F1000.00
G1 X1.5000 Y1.5000 Z-1.5500 F1000.00
G1 X1.5000 Y2.3289 Z-1.5500 F1000.00
G1 X6.9600 Y7.7889 Z-1.5500 F1000.00
G1 X5.8868 Y8.8370 Z-1.5500 F1000.00
G1 X1.5000 Y4.4502 Z-1.5500 F1000.00
G1 X1.5000 Y6.5716 Z-1.5500 F1000.00
G1 X4.8136 Y9.8852 Z-1.5500 F1000.00
G1 X3.7404 Y10.9333 Z-1.5500 F1000.00
G1 X1.5000 Y8.6929 Z-1.5500 F1000.00
G1 X1.5000 Y10.8142 Z-1.5500 F1000.00
G1 X2.6673 Y11.9815 Z-1.5500 F1000.00
G1 X1.5941 Y13.0296 Z-1.5500 F1000.00
G1 X1.5000 Y12.9355 Z-1.5500 F1000.00
G1 X1.5000 Y13.1215 Z-1.5500 F1000.00
G1 X1.5941 Y13.0296 Z-1.5500 F1000.00
G1 X1.5941 Y13.0296 Z-2.0500 F100.00
G1 X1.5000 Y13.1215 Z-2.0500 F1000.00
G1 X1.5000 Y12.9355 Z-2.0500 F1000.00
G1 X1.5941 Y13.0296 Z-2.0500 F1000.00
G1 X2.6673 Y11.9815 Z-2.0500 F1000.00
G1 X1.5000 Y10.8142 Z-2.0500 F1000.00
G1 X1.5000 Y8.6929 Z-2.0500 F1000.00
G1 X3.7404 Y10.9333 Z-2.0500 F1000.00
G1 X4.8136 Y9.8852 Z-2.0500 F1000.00
G1 X1.5000 Y6.5716 Z-2.0500 F1000.00
G1 X1.5000 Y4.4502 Z-2.0500 F1000.00
G1 X5.8868 Y8.8370 Z-2.0500 F1000.00
G1 X6.9600 Y7.7889 Z-2.0500 F1000.00
G1 X1.5000 Y2.3289 Z-2.0500 F1000.00
G1 X1.5000 Y1.5000 Z-2.0500 F1000.00
G1 X2.7924 Y1.5000 Z-2.0500 F1000.00
G1 X8.0331 Y6.7407 Z-2.0500 F1000.00
G1 X9.1063 Y5.6926 Z-2.0500 F1000.00
G1 X4.9137 Y1.5000 Z-2.0500 F1000.00
G1 X7.0350 Y1.5000 Z-2.0500 F1000.00
G1 X10.1795 Y4.6444 Z-2.0500 F1000.00
G1 X11.2527 Y3.5963 Z-2.0500 F1000.00
G1 X9.1564 Y1.5000 Z-2.0500 F1000.00
G1 X11.2777 Y1.5000 Z-2.0500 F1000.00
G1 X12.3258 Y2.5481 Z-2.0500 F1000.00
G1 X13.3990 Y1.5000 Z-2.0500 F1000.00
G1 X13.3990 Y1.5000 Z-2.5500 F100.00
G1 X12.3258 Y2.5481 Z-2.5500 F1000.00
G1 X11.2777 Y1.5000 Z-2.5500 F1000.00
G1 X9.1564 Y1.5000 Z-2.5500 F1000.00
G1 X11.2527 Y3.5963 Z-2.5500 F1000.00
G1 X10.1795 Y4.6444 Z-2.5500 F1000.00
G1 X7.0350 Y1.5000 Z-2.5500 F1000.00
G1 X4.9137 Y1.5000 Z-2.5500 F1000.00
G1 X9.1063 Y5.6926 Z-2.5500 F1000.00
G1 X8.0331 Y6.7407 Z-2.5500 F1000.00
G1 X2.7924 Y1.5000 Z-2.5500 F1000.00
G1 X1.5000 Y1.5000 Z-2.5500 F1000.00
G1 X1.5000 Y2.3289 Z-2.5500 F1000.00
G1 X6.9600 Y7.7889 Z-2.5500 F1000.00
G1 X5.8868 Y8.8370 Z-2.5500 F1000.00
G1 X1.5000 Y4.4502 Z-2.5500 F1000.00
G1 X1.5000 Y6.5716 Z-2.5500 F1000.00
G1 X4.8136 Y9.8852 Z-2.5500 F1000.00
G1 X3.7404 Y10.9333 Z-2.5500 F1000.00
G1 X1.5000 Y8.6929 Z-2.5500 F1000.00
G1 X1.5000 Y10.8142 Z-2.5500 F1000.00
G1 X2.6673 Y11.9815 Z-2.5500 F1000.00
G1 X1.5941 Y13.0296 Z-2.5500 F1000.00
G1 X1.5000 Y12.9355 Z-2.5500 F1000.00
G1 X1.5000 Y13.1215 Z-2.5500 F1000.00
G1 X1.5941 Y13.0296 Z-2.5500 F1000.00
G1 X1.5941 Y13.0296 Z-3.0500 F100.00
G1 X1.5000 Y13.1215 Z-3.0500 F1000.00
G1 X1.5000 Y12.9355 Z-3.0500 F1000.00
G1 X1.5941 Y13.0296 Z-3.0500 F1000.00
G1 X2.6673 Y11.9815 Z-3.0500 F1000.00
G1 X1.5000 Y10.8142 Z-3.0500 F1000.00
G1 X1.5000 Y8.6929 Z-3.0500 F1000.00
G1 X3.7404 Y10.9333 Z-3.0500 F1000.00
G1 X4.8136 Y9.8852 Z-3.0500 F1000.00
G1 X1.5000 Y6.5716 Z-3.0500 F1000.00
G1 X1.5000 Y4.4502 Z-3.0500 F1000.00
G1 X5.8868 Y8.8370 Z-3.0500 F1000.00
G1 X6.9600 Y7.7889 Z-3.0500 F1000.00
G1 X1.5000 Y2.3289 Z-3.0500 F1000.00
G1 X1.5000 Y1.5000 Z-3.0500 F1000.00
G1 X2.7924 Y1.5000 Z-3.0500 F1000.00
G1 X8.0331 Y6.7407 Z-3.0500 F1000.00
G1 X9.1063 Y5.6926 Z-3.0500 F1000.00
G1 X4.9137 Y1.5000 Z-3.0500 F1000.00
G1 X7.0350 Y1.5000 Z-3.0500 F1000.00
G1 X10.1795 Y4.6444 Z-3.0500 F1000.00
G1 X11.2527 Y3.5963 Z-3.0500 F1000.00
G1 X9.1564 Y1.5000 Z-3.0500 F1000.00
G1 X11.2777 Y1.5000 Z-3.0500 F1000.00
G1 X12.3258 Y2.5481 Z-3.0500 F1000.00
G1 X13.3990 Y1.5000 Z-3.0500 F1000.00
G1 X13.3990 Y1.5000 Z-3.5500 F100.00
G1 X12.3258 Y2.5481 Z-3.5500 F1000.00
G1 X11.2777 Y1.5000 Z-3.5500 F1000.00
G1 X9.1564 Y1.5000 Z-3.5500 F1000.00
G1 X11.2527 Y3.5963 Z-3.5500 F1000.00
G1 X10.1795 Y4.6444 Z-3.5500 F1000.00
G1 X7.0350 Y1.5000 Z-3.5500 F1000.00
G1 X4.9137 Y1.5000 Z-3.5500 F1000.00
G1 X9.1063 Y5.6926 Z-3.5500 F1000.00
G1 X8.0331 Y6.7407 Z-3.5500 F1000.00
G1 X2.7924 Y1.5000 Z-3.5500 F1000.00
G1 X1.5000 Y1.5000 Z-3.5500 F1000.00
G1 X1.5000 Y2.3289 Z-3.5500 F1000.00
G1 X6.9600 Y7.7889 Z-3.5500 F1000.00
G1 X5.8868 Y8.8370 Z-3.5500 F1000.00
G1 X1.5000 Y4.4502 Z-3.5500 F1000.00
G1 X1.5000 Y6.5716 Z-3.5500 F1000.00
G1 X4.8136 Y9.8852 Z-3.5500 F1000.00
G1 X3.7404 Y10.9333 Z-3.5500 F1000.00
G1 X1.5000 Y8.6929 Z-3.5500 F1000.00
G1 X1.5000 Y10.8142 Z-3.5500 F1000.00
G1 X2.6673 Y11.9815 Z-3.5500 F1000.00
G1 X1.5941 Y13.0296 Z-3.5500 F1000.00
G1 X1.5000 Y12.9355 Z-3.5500 F1000.00
G1 X1.5000 Y13.1215 Z-3.5500 F1000.00
G1 X1.5941 Y13.0296 Z-3.5500 F1000.00
G1 X1.5941 Y13.0296 Z-4.0500 F100.00
G1 X1.5000 Y13.1215 Z-4.0500 F1000.00
G1 X1.5000 Y12.9355 Z-4.0500 F1000.00
G1 X1.5941 Y13.0296 Z-4.0500 F1000.00
G1 X2.6673 Y11.9815 Z-4.0500 F1000.00
G1 X1.5000 Y10.8142 Z-4.0500 F1000.00
G1 X1.5000 Y8.6929 Z-4.0500 F1000.00
G1 X3.7404 Y10.9333 Z-4.0500 F1000.00
G1 X4.8136 Y9.8852 Z-4.0500 F1000.00
G1 X1.5000 Y6.5716 Z-4.0500 F1000.00
G1 X1.5000 Y4.4502 Z-4.0500 F1000.00
G1 X5.8868 Y8.8370 Z-4.0500 F1000.00
G1 X6.9600 Y7.7889 Z-4.0500 F1000.00
G1 X1.5000 Y2.3289 Z-4.0500 F1000.00
G1 X1.5000 Y1.5000 Z-4.0500 F1000.00
G1 X2.7924 Y1.5000 Z-4.0500 F1000.00
G1 X8.0331 Y6.7407 Z-4.0500 F1000.00
G1 X9.1063 Y5.6926 Z-4.0500 F1000.00
G1 X4.9137 Y1.5000 Z-4.0500 F1000.00
G1 X7.0350 Y1.5000 Z-4.0500 F1000.00
G1 X10.1795 Y4.6444 Z-4.0500 F1000.00
G1 X11.2527 Y3.5963 Z-4.0500 F1000.00
G1 X9.1564 Y1.5000 Z-4.0500 F1000.00
G1 X11.2777 Y1.5000 Z-4.0500 F1000.00
G1 X12.3258 Y2.5481 Z-4.0500 F1000.00
G1 X13.3990 Y1.5000 Z-4.0500 F1000.00
G1 X13.3990 Y1.5000 Z-4.5500 F100.00
G1 X12.3258 Y2.5481 Z-4.5500 F1000.00
G1 X11.2777 Y1.5000 Z-4.5500 F1000.00
G1 X9.1564 Y1.5000 Z-4.5500 F1000.00
G1 X11.2527 Y3.5963 Z-4.5500 F1000.00
G1 X10.1795 Y4.6444 Z-4.5500 F1000.00
G1 X7.0350 Y1.5000 Z-4.5500 F1000.00
G1 X4.9137 Y1.5000 Z-4.5500 F1000.00
G1 X9.1063 Y5.6926 Z-4.5500 F1000.00
G1 X8.0331 Y6.7407 Z-4.5500 F1000.00
G1 X2.7924 Y1.5000 Z-4.5500 F1000.00
G1 X1.5000 Y1.5000 Z-4.5500 F1000.00
G1 X1.5000 Y2.3289 Z-4.5500 F1000.00
G1 X6.9600 Y7.7889 Z-4.5500 F1000.00
G1 X5.8868 Y8.8370 Z-4.5500 F1000.00
G1 X1.5000 Y4.4502 Z-4.5500 F1000.00
G1 X1.5000 Y6.5716 Z-4.5500 F1000.00
G1 X4.8136 Y9.8852 Z-4.5500 F1000.00
G1 X3.7404 Y10.9333 Z-4.5500 F1000.00
G1 X1.5000 Y8.6929 Z-4.5500 F1000.00
G1 X1.5000 Y10.8142 Z-4.5500 F1000.00
G1 X2.6673 Y11.9815 Z-4.5500 F1000.00
G1 X1.5941 Y13.0296 Z-4.5500 F1000.00
G1 X1.5000 Y12.9355 Z-4.5500 F1000.00
G1 X1.5000 Y13.1215 Z-4.5500 F1000.00
G1 X1.5941 Y13.0296 Z-4.5500 F1000.00
G1 X1.5941 Y13.0296 Z-5.0500 F100.00
G1 X1.5000 Y13.1215 Z-5.0500 F1000.00
G1 X1.5000 Y12.9355 Z-5.0500 F1000.00
G1 X1.5941 Y13.0296 Z-5.0500 F1000.00
G1 X2.6673 Y11.9815 Z-5.0500 F1000.00
G1 X1.5000 Y10.8142 Z-5.0500 F1000.00
G1 X1.5000 Y8.6929 Z-5.0500 F1000.00
G1 X3.7404 Y10.9333 Z-5.0500 F1000.00
G1 X4.8136 Y9.8852 Z-5.0500 F1000.00
G1 X1.5000 Y6.5716 Z-5.0500 F1000.00
G1 X1.5000 Y4.4502 Z-5.0500 F1000.00
G1 X5.8868 Y8.8370 Z-5.0500 F1000.00
G1 X6.9600 Y7.7889 Z-5.0500 F1000.00
G1 X1.5000 Y2.3289 Z-5.0500 F1000.00
G1 X1.5000 Y1.5000 Z-5.0500 F1000.00
G1 X2.7924 Y1.5000 Z-5.0500 F1000.00
G1 X8.0331 Y6.7407 Z-5.0500 F1000.00
G1 X9.1063 Y5.6926 Z-5.0500 F1000.00
G1 X4.9137 Y1.5000 Z-5.0500 F1000.00
G1 X7.0350 Y1.5000 Z-5.0500 F1000.00
G1 X10.1795 Y4.6444 Z-5.0500 F1000.00
G1 X11.2527 Y3.5963 Z-5.0500 F1000.00
G1 X9.1564 Y1.5000 Z-5.0500 F1000.00
G1 X11.2777 Y1.5000 Z-5.0500 F1000.00
G1 X12.3258 Y2.5481 Z-5.0500 F1000.00
G1 X13.3990 Y1.5000 Z-5.0500 F1000.00
G1 X13.3990 Y1.5000 Z-5.5500 F100.00
G1 X12.3258 Y2.5481 Z-5.5500 F1000.00
G1 X11.2777 Y1.5000 Z-5.5500 F1000.00
G1 X9.1564 Y1.5000 Z-5.5500 F1000.00
G1 X11.2527 Y3.5963 Z-5.5500 F1000.00
G1 X10.1795 Y4.6444 Z-5.5500 F1000.00
G1 X7.0350 Y1.5000 Z-5.5500 F1000.00
G1 X4.9137 Y1.5000 Z-5.5500 F1000.00
G1 X9.1063 Y5.6926 Z-5.5500 F1000.00
G1 X8.0331 Y6.7407 Z-5.5500 F1000.00
G1 X2.7924 Y1.5000 Z-5.5500 F1000.00
G1 X1.5000 Y1.5000 Z-5.5500 F1000.00
G1 X1.5000 Y2.3289 Z-5.5500 F1000.00
G1 X6.9600 Y7.7889 Z-5.5500 F1000.00
G1 X5.8868 Y8.8370 Z-5.5500 F1000.00
G1 X1.5000 Y4.4502 Z-5.5500 F1000.00
G1 X1.5000 Y6.5716 Z-5.5500 F1000.00
G1 X4.8136 Y9.8852 Z-5.5500 F1000.00
G1 X3.7404 Y10.9333 Z-5.5500 F1000.00
G1 X1.5000 Y8.6929 Z-5.5500 F1000.00
G1 X1.5000 Y10.8142 Z-5.5500 F1000.00
G1 X2.6673 Y11.9815 Z-5.5500 F1000.00
G1 X1.5941 Y13.0296 Z-5.5500 F1000.00
G1 X1.5000 Y12.9355 Z-5.5500 F1000.00
G1 X1.5000 Y13.1215 Z-5.5500 F1000.00
G1 X1.5941 Y13.0296 Z-5.5500 F1000.00
G1 X1.5941 Y13.0296 Z-6.0500 F100.00
G1 X1.5000 Y13.1215 Z-6.0500 F1000.00
G1 X1.5000 Y12.9355 Z-6.0500 F1000.00
G1 X1.5941 Y13.0296 Z-6.0500 F1000.00
G1 X2.6673 Y11.9815 Z-6.0500 F1000.00
G1 X1.5000 Y10.8142 Z-6.0500 F1000.00
G1 X1.5000 Y8.6929 Z-6.0500 F1000.00
G1 X3.7404 Y10.9333 Z-6.0500 F1000.00
G1 X4.8136 Y9.8852 Z-6.0500 F1000.00
G1 X1.5000 Y6.5716 Z-6.0500 F1000.00
G1 X1.5000 Y4.4502 Z-6.0500 F1000.00
G1 X5.8868 Y8.8370 Z-6.0500 F1000.00
G1 X6.9600 Y7.7889 Z-6.0500 F1000.00
G1 X1.5000 Y2.3289 Z-6.0500 F1000.00
G1 X1.5000 Y1.5000 Z-6.0500 F1000.00
G1 X2.7924 Y1.5000 Z-6.0500 F1000.00
G1 X8.0331 Y6.7407 Z-6.0500 F1000.00
G1 X9.1063 Y5.6926 Z-6.0500 F1000.00
G1 X4.9137 Y1.5000 Z-6.0500 F1000.00
G1 X7.0350 Y1.5000 Z-6.0500 F1000.00
G1 X10.1795 Y4.6444 Z-6.0500 F1000.00
G1 X11.2527 Y3.5963 Z-6.0500 F1000.00
G1 X9.1564 Y1.5000 Z-6.0500 F1000.00
G1 X11.2777 Y1.5000 Z-6.0500 F1000.00
G1 X12.3258 Y2.5481 Z-6.0500 F1000.00
G1 X13.3990 Y1.5000 Z-6.0500 F1000.00
G1 X13.3990 Y1.5000 Z-6.5500 F100.00
G1 X12.3258 Y2.5481 Z-6.5500 F1000.00
G1 X11.2777 Y1.5000 Z-6.5500 F1000.00
G1 X9.1564 Y1.5000 Z-6.5500 F1000.00
G1 X11.2527 Y3.5963 Z-6.5500 F1000.00
G1 X10.1795 Y4.6444 Z-6.5500 F1000.00
G1 X7.0350 Y1.5000 Z-6.5500 F1000.00
G1 X4.9137 Y1.5000 Z-6.5500 F1000.00
G1 X9.1063 Y5.6926 Z-6.5500 F1000.00
G1 X8.0331 Y6.7407 Z-6.5500 F1000.00
G1 X2.7924 Y1.5000 Z-6.5500 F1000.00
G1 X1.5000 Y1.5000 Z-6.5500 F1000.00
G1 X1.5000 Y2.3289 Z-6.5500 F1000.00
G1 X6.9600 Y7.7889 Z-6.5500 F1000.00
G1 X5.8868 Y8.8370 Z-6.5500 F1000.00
G1 X1.5000 Y4.4502 Z-6.5500 F1000.00
G1 X1.5000 Y6.5716 Z-6.5500 F1000.00
G1 X4.8136 Y9.8852 Z-6.5500 F1000.00
G1 X3.7404 Y10.9333 Z-6.5500 F1000.00
G1 X1.5000 Y8.6929 Z-6.5500 F1000.00
G1 X1.5000 Y10.8142 Z-6.5500 F1000.00
G1 X2.6673 Y11.9815 Z-6.5500 F1000.00
G1 X1.5941 Y13.0296 Z-6.5500 F1000.00
G1 X1.5000 Y12.9355 Z-6.5500 F1000.00
G1 X1.5000 Y13.1215 Z-6.5500 F1000.00
G1 X1.5941 Y13.0296 Z-6.5500 F1000.00
G1 X1.5941 Y13.0296 Z-7.0500 F100.00
G1 X1.5000 Y13.1215 Z-7.0500 F1000.00
G1 X1.5000 Y12.9355 Z-7.0500 F1000.00
G1 X1.5941 Y13.0296 Z-7.0500 F1000.00
G1 X2.6673 Y11.9815 Z-7.0500 F1000.00
G1 X1.5000 Y10.8142 Z-7.0500 F1000.00
G1 X1.5000 Y8.6929 Z-7.0500 F1000.00
G1 X3.7404 Y10.9333 Z-7.0500 F1000.00
G1 X4.8136 Y9.8852 Z-7.0500 F1000.00
G1 X1.5000 Y6.5716 Z-7.0500 F1000.00
G1 X1.5000 Y4.4502 Z-7.0500 F1000.00
G1 X5.8868 Y8.8370 Z-7.0500 F1000.00
G1 X6.9600 Y7.7889 Z-7.0500 F1000.00
G1 X1.5000 Y2.3289 Z-7.0500 F1000.00
G1 X1.5000 Y1.5000 Z-7.0500 F1000.00
G1 X2.7924 Y1.5000 Z-7.0500 F1000.00
G1 X8.0331 Y6.7407 Z-7.0500 F1000.00
G1 X9.1063 Y5.6926 Z-7.0500 F1000.00
G1 X4.9137 Y1.5000 Z-7.0500 F1000.00
G1 X7.0350 Y1.5000 Z-7.0500 F1000.00
G1 X10.1795 Y4.6444 Z-7.0500 F1000.00
G1 X11.2527 Y3.5963 Z-7.0500 F1000.00
G1 X9.1564 Y1.5000 Z-7.0500 F1000.00
G1 X11.2777 Y1.5000 Z-7.0500 F1000.00
G1 X12.3258 Y2.5481 Z-7.0500 F1000.00
G1 X13.3990 Y1.5000 Z-7.0500 F1000.00
G1 X13.3990 Y1.5000 Z-7.5500 F100.00
G1 X12.3258 Y2.5481 Z-7.5500 F1000.00
G1 X11.2777 Y1.5000 Z-7.5500 F1000.00
G1 X9.1564 Y1.5000 Z-7.5500 F1000.00
G1 X11.2527 Y3.5963 Z-7.5500 F1000.00
G1 X10.1795 Y4.6444 Z-7.5500 F1000.00
G1 X7.0350 Y1.5000 Z-7.5500 F1000.00
G1 X4.9137 Y1.5000 Z-7.5500 F1000.00
G1 X9.1063 Y5.6926 Z-7.5500 F1000.00
G1 X8.0331 Y6.7407 Z-7.5500 F1000.00
G1 X2.7924 Y1.5000 Z-7.5500 F1000.00
G1 X1.5000 Y1.5000 Z-7.5500 F1000.00
G1 X1.5000 Y2.3289 Z-7.5500 F1000.00
G1 X6.9600 Y7.7889 Z-7.5500 F1000.00
G1 X5.8868 Y8.8370 Z-7.5500 F1000.00
G1 X1.5000 Y4.4502 Z-7.5500 F1000.00
G1 X1.5000 Y6.5716 Z-7.5500 F1000.00
G1 X4.8136 Y9.8852 Z-7.5500 F1000.00
G1 X3.7404 Y10.9333 Z-7.5500 F1000.00
G1 X1.5000 Y8.6929 Z-7.5500 F1000.00
G1 X1.5000 Y10.8142 Z-7.5500 F1000.00
G1 X2.6673 Y11.9815 Z-7.5500 F1000.00
G1 X1.5941 Y13.0296 Z-7.5500 F1000.00
G1 X1.5000 Y12.9355 Z-7.5500 F1000.00
G1 X1.5000 Y13.1215 Z-7.5500 F1000.00
G1 X1.5941 Y13.0296 Z-7.5500 F1000.00
G1 X1.5941 Y13.0296 Z-8.0500 F100.00
G1 X1.5000 Y13.1215 Z-8.0500 F1000.00
G1 X1.5000 Y12.9355 Z-8.0500 F1000.00
G1 X1.5941 Y13.0296 Z-8.0500 F1000.00
G1 X2.6673 Y11.9815 Z-8.0500 F1000.00
G1 X1.5000 Y10.8142 Z-8.0500 F1000.00
G1 X1.5000 Y8.6929 Z-8.0500 F1000.00
G1 X3.7404 Y10.9333 Z-8.0500 F1000.00
G1 X4.8136 Y9.8852 Z-8.0500 F1000.00
G1 X1.5000 Y6.5716 Z-8.0500 F1000.00
G1 X1.5000 Y4.4502 Z-8.0500 F1000.00
G1 X5.8868 Y8.8370 Z-8.0500 F1000.00
G1 X6.9600 Y7.7889 Z-8.0500 F1000.00
G1 X1.5000 Y2.3289 Z-8.0500 F1000.00
G1 X1.5000 Y1.5000 Z-8.0500 F1000.00
G1 X2.7924 Y1.5000 Z-8.0500 F1000.00
G1 X8.0331 Y6.7407 Z-8.0500 F1000.00
G1 X9.1063 Y5.6926 Z-8.0500 F1000.00
G1 X4.9137 Y1.5000 Z-8.0500 F1000.00
G1 X7.0350 Y1.5000 Z-8.0500 F1000.00
G1 X10.1795 Y4.6444 Z-8.0500 F1000.00
G1 X11.2527 Y3.5963 Z-8.0500 F1000.00
G1 X9.1564 Y1.5000 Z-8.0500 F1000.00
G1 X11.2777 Y1.5000 Z-8.0500 F1000.00
G1 X12.3258 Y2.5481 Z-8.0500 F1000.00
G1 X13.3990 Y1.5000 Z-8.0500 F1000.00
G1 X13.3990 Y1.5000 Z-8.5500 F100.00
G1 X12.3258 Y2.5481 Z-8.5500 F1000.00
G1 X11.2777 Y1.5000 Z-8.5500 F1000.00
G1 X9.1564 Y1.5000 Z-8.5500 F1000.00
G1 X11.2527 Y3.5963 Z-8.5500 F1000.00
G1 X10.1795 Y4.6444 Z-8.5500 F1000.00
G1 X7.0350 Y1.5000 Z-8.5500 F1000.00
G1 X4.9137 Y1.5000 Z-8.5500 F1000.00
G1 X9.1063 Y5.6926 Z-8.5500 F1000.00
G1 X8.0331 Y6.7407 Z-8.5500 F1000.00
G1 X2.7924 Y1.5000 Z-8.5500 F1000.00
G1 X1.5000 Y1.5000 Z-8.5500 F1000.00
G1 X1.5000 Y2.3289 Z-8.5500 F1000.00
G1 X6.9600 Y7.7889 Z-8.5500 F1000.00
G1 X5.8868 Y8.8370 Z-8.5500 F1000.00
G1 X1.5000 Y4.4502 Z-8.5500 F1000.00
G1 X1.5000 Y6.5716 Z-8.5500 F1000.00
G1 X4.8136 Y9.8852 Z-8.5500 F1000.00
G1 X3.7404 Y10.9333 Z-8.5500 F1000.00
G1 X1.5000 Y8.6929 Z-8.5500 F1000.00
G1 X1.5000 Y10.8142 Z-8.5500 F1000.00
G1 X2.6673 Y11.9815 Z-8.5500 F1000.00
G1 X1.5941 Y13.0296 Z-8.5500 F1000.00
G1 X1.5000 Y12.9355 Z-8.5500 F1000.00
G1 X1.5000 Y13.1215 Z-8.5500 F1000.00
G1 X1.5941 Y13.0296 Z-8.5500 F1000.00
G1 X1.5941 Y13.0296 Z-9.0500 F100.00
G1 X1.5000 Y13.1215 Z-9.0500 F1000.00
G1 X1.5000 Y12.9355 Z-9.0500 F1000.00
G1 X1.5941 Y13.0296 Z-9.0500 F1000.00
G1 X2.6673 Y11.9815 Z-9.0500 F1000.00
G1 X1.5000 Y10.8142 Z-9.0500 F1000.00
G1 X1.5000 Y8.6929 Z-9.0500 F1000.00
G1 X3.7404 Y10.9333 Z-9.0500 F1000.00
G1 X4.8136 Y9.8852 Z-9.0500 F1000.00
G1 X1.5000 Y6.5716 Z-9.0500 F1000.00
G1 X1.5000 Y4.4502 Z-9.0500 F1000.00
G1 X5.8868 Y8.8370 Z-9.0500 F1000.00
G1 X6.9600 Y7.7889 Z-9.0500 F1000.00
G1 X1.5000 Y2.3289 Z-9.0500 F1000.00
G1 X1.5000 Y1.5000 Z-9.0500 F1000.00
G1 X2.7924 Y1.5000 Z-9.0500 F1000.00
G1 X8.0331 Y6.7407 Z-9.0500 F1000.00
G1 X9.1063 Y5.6926 Z-9.0500 F1000.00
G1 X4.9137 Y1.5000 Z-9.0500 F1000.00
G1 X7.0350 Y1.5000 Z-9.0500 F1000.00
G1 X10.1795 Y4.6444 Z-9.0500 F1000.00
G1 X11.2527 Y3.5963 Z-9.0500 F1000.00
G1 X9.1564 Y1.5000 Z-9.0500 F1000.00
G1 X11.2777 Y1.5000 Z-9.0500 F1000.00
G1 X12.3258 Y2.5481 Z-9.0500 F1000.00
G1 X13.3990 Y1.5000 Z-9.0500 F1000.00
G1 X13.3990 Y1.5000 Z-9.2500 F100.00
G1 X12.3258 Y2.5481 Z-9.2500 F1000.00
G1 X11.2777 Y1.5000 Z-9.2500 F1000.00
G1 X9.1564 Y1.5000 Z-9.2500 F1000.00
G1 X11.2527 Y3.5963 Z-9.2500 F1000.00
G1 X10.1795 Y4.6444 Z-9.2500 F1000.00
G1 X7.0350 Y1.5000 Z-9.2500 F1000.00
G1 X4.9137 Y1.5000 Z-9.2500 F1000.00
G1 X9.1063 Y5.6926 Z-9.2500 F1000.00
G1 X8.0331 Y6.7407 Z-9.2500 F1000.00
G1 X2.7924 Y1.5000 Z-9.2500 F1000.00
G1 X1.5000 Y1.5000 Z-9.2500 F1000.00
G1 X1.5000 Y2.3289 Z-9.2500 F1000.00
G1 X6.9600 Y7.7889 Z-9.2500 F1000.00
G1 X5.8868 Y8.8370 Z-9.2500 F1000.00
G1 X1.5000 Y4.4502 Z-9.2500 F1000.00
G1 X1.5000 Y6.5716 Z-9.2500 F1000.00
G1 X4.8136 Y9.8852 Z-9.2500 F1000.00
G1 X3.7404 Y10.9333 Z-9.2500 F1000.00
G1 X1.5000 Y8.6929 Z-9.2500 F1000.00
G1 X1.5000 Y10.8142 Z-9.2500 F1000.00
G1 X2.6673 Y11.9815 Z-9.2500 F1000.00
G1 X1.5941 Y13.0296 Z-9.2500 F1000.00
G1 X1.5000 Y12.9355 Z-9.2500 F1000.00
G1 X1.5000 Y13.1215 Z-9.2500 F1000.00
G1 X1.5941 Y13.0296 Z-9.2500 F1000.00
G0 Z4.9500
(finish operation: corner_bottom_left001)
(begin operation: corner_top_left001)
(Path: corner_top_left001)
(corner_top_left001)
G0 Z4.9500
G0 X2.7924 Y70.5000
G0 Z2.9500
G1 X2.7924 Y70.5000 Z-0.5500 F100.00
G1 X1.5000 Y70.5000 Z-0.5500 F1000.00
G1 X1.5000 Y69.2076 Z-0.5500 F1000.00
G1 X2.7924 Y70.5000 Z-0.5500 F1000.00
G1 X4.9137 Y70.5000 Z-0.5500 F1000.00
G1 X1.5000 Y67.0863 Z-0.5500 F1000.00
G1 X1.5000 Y64.9650 Z-0.5500 F1000.00
G1 X7.0350 Y70.5000 Z-0.5500 F1000.00
G1 X9.1564 Y70.5000 Z-0.5500 F1000.00
G1 X1.5000 Y62.8436 Z-0.5500 F1000.00
G1 X1.5000 Y60.7223 Z-0.5500 F1000.00
G1 X11.2777 Y70.5000 Z-0.5500 F1000.00
G1 X13.1215 Y70.5000 Z-0.5500 F1000.00
G1 X1.5000 Y58.6010 Z-0.5500 F1000.00
G1 X1.5000 Y58.6010 Z-1.0500 F100.00
G1 X13.1215 Y70.5000 Z-1.0500 F1000.00
G1 X11.2777 Y70.5000 Z-1.0500 F1000.00
G1 X1.5000 Y60.7223 Z-1.0500 F1000.00
G1 X1.5000 Y62.8436 Z-1.0500 F1000.00
G1 X9.1564 Y70.5000 Z-1.0500 F1000.00
G1 X7.0350 Y70.5000 Z-1.0500 F1000.00
G1 X1.5000 Y64.9650 Z-1.0500 F1000.00
G1 X1.5000 Y67.0863 Z-1.0500 F1000.00
G1 X4.9137 Y70.5000 Z-1.0500 F1000.00
G1 X2.7924 Y70.5000 Z-1.0500 F1000.00
G1 X1.5000 Y69.2076 Z-1.0500 F1000.00
G1 X1.5000 Y70.5000 Z-1.0500 F1000.00
G1 X2.7924 Y70.5000 Z-1.0500 F1000.00
G1 X2.7924 Y70.5000 Z-1.5500 F100.00
G1 X1.5000 Y70.5000 Z-1.5500 F1000.00
G1 X1.5000 Y69.2076 Z-1.5500 F1000.00
G1 X2.7924 Y70.5000 Z-1.5500 F1000.00
G1 X4.9137 Y70.5000 Z-1.5500 F1000.00
G1 X1.5000 Y67.0863 Z-1.5500 F1000.00
G1 X1.5000 Y64.9650 Z-1.5500 F1000.00
G1 X7.0350 Y70.5000 Z-1.5500 F1000.00
G1 X9.1564 Y70.5000 Z-1.5500 F1000.00
G1 X1.5000 Y62.8436 Z-1.5500 F1000.00
G1 X1.5000 Y60.7223 Z-1.5500 F1000.00
G1 X11.2777 Y70.5000 Z-1.5500 F1000.00
G1 X13.1215 Y70.5000 Z-1.5500 F1000.00
G1 X1.5000 Y58.6010 Z-1.5500 F1000.00
G1 X1.5000 Y58.6010 Z-2.0500 F100.00
G1 X13.1215 Y70.5000 Z-2.0500 F1000.00
G1 X11.2777 Y70.5000 Z-2.0500 F1000.00
G1 X1.5000 Y60.7223 Z-2.0500 F1000.00
G1 X1.5000 Y62.8436 Z-2.0500 F1000.00
G1 X9.1564 Y70.5000 Z-2.0500 F1000.00
G1 X7.0350 Y70.5000 Z-2.0500 F1000.00
G1 X1.5000 Y64.9650 Z-2.0500 F1000.00
G1 X1.5000 Y67.0863 Z-2.0500 F1000.00
G1 X4.9137 Y70.5000 Z-2.0500 F1000.00
G1 X2.7924 Y70.5000 Z-2.0500 F1000.00
G1 X1.5000 Y69.2076 Z-2.0500 F1000.00
G1 X1.5000 Y70.5000 Z-2.0500 F1000.00
G1 X2.7924 Y70.5000 Z-2.0500 F1000.00
G1 X2.7924 Y70.5000 Z-2.5500 F100.00
G1 X1.5000 Y70.5000 Z-2.5500 F1000.00
G1 X1.5000 Y69.2076 Z-2.5500 F1000.00
G1 X2.7924 Y70.5000 Z-2.5500 F1000.00
G1 X4.9137 Y70.5000 Z-2.5500 F1000.00
G1 X1.5000 Y67.0863 Z-2.5500 F1000.00
G1 X1.5000 Y64.9650 Z-2.5500 F1000.00
G1 X7.0350 Y70.5000 Z-2.5500 F1000.00
G1 X9.1564 Y70.5000 Z-2.5500 F1000.00
G1 X1.5000 Y62.8436 Z-2.5500 F1000.00
G1 X1.5000 Y60.7223 Z-2.5500 F1000.00
G1 X11.2777 Y70.5000 Z-2.5500 F1000.00
G1 X13.1215 Y70.5000 Z-2.5500 F1000.00
G1 X1.5000 Y58.6010 Z-2.5500 F1000.00
G1 X1.5000 Y58.6010 Z-3.0500 F100.00
G1 X13.1215 Y70.5000 Z-3.0500 F1000.00
G1 X11.2777 Y70.5000 Z-3.0500 F1000.00
G1 X1.5000 Y60.7223 Z-3.0500 F1000.00
G1 X1.5000 Y62.8436 Z-3.0500 F1000.00
G1 X9.1564 Y70.5000 Z-3.0500 F1000.00
G1 X7.0350 Y70.5000 Z-3.0500 F1000.00
G1 X1.5000 Y64.9650 Z-3.0500 F1000.00
G1 X1.5000 Y67.0863 Z-3.0500 F1000.00
G1 X4.9137 Y70.5000 Z-3.0500 F1000.00
G1 X2.7924 Y70.5000 Z-3.0500 F1000.00
G1 X1.5000 Y69.2076 Z-3.0500 F1000.00
G1 X1.5000 Y70.5000 Z-3.0500 F1000.00
G1 X2.7924 Y70.5000 Z-3.0500 F1000.00
G1 X2.7924 Y70.5000 Z-3.5500 F100.00
G1 X1.5000 Y70.5000 Z-3.5500 F1000.00
G1 X1.5000 Y69.2076 Z-3.5500 F1000.00
G1 X2.7924 Y70.5000 Z-3.5500 F1000.00
G1 X4.9137 Y70.5000 Z-3.5500 F1000.00
G1 X1.5000 Y67.0863 Z-3.5500 F1000.00
G1 X1.5000 Y64.9650 Z-3.5500 F1000.00
G1 X7.0350 Y70.5000 Z-3.5500 F1000.00
G1 X9.1564 Y70.5000 Z-3.5500 F1000.00
G1 X1.5000 Y62.8436 Z-3.5500 F1000.00
G1 X1.5000 Y60.7223 Z-3.5500 F1000.00
G1 X11.2777 Y70.5000 Z-3.5500 F1000.00
G1 X13.1215 Y70.5000 Z-3.5500 F1000.00
G1 X1.5000 Y58.6010 Z-3.5500 F1000.00
G1 X1.5000 Y58.6010 Z-4.0500 F100.00
G1 X13.1215 Y70.5000 Z-4.0500 F1000.00
G1 X11.2777 Y70.5000 Z-4.0500 F1000.00
G1 X1.5000 Y60.7223 Z-4.0500 F1000.00
G1 X1.5000 Y62.8436 Z-4.0500 F1000.00
G1 X9.1564 Y70.5000 Z-4.0500 F1000.00
G1 X7.0350 Y70.5000 Z-4.0500 F1000.00
G1 X1.5000 Y64.9650 Z-4.0500 F1000.00
G1 X1.5000 Y67.0863 Z-4.0500 F1000.00
G1 X4.9137 Y70.5000 Z-4.0500 F1000.00
G1 X2.7924 Y70.5000 Z-4.0500 F1000.00
G1 X1.5000 Y69.2076 Z-4.0500 F1000.00
G1 X1.5000 Y70.5000 Z-4.0500 F1000.00
G1 X2.7924 Y70.5000 Z-4.0500 F1000.00
G1 X2.7924 Y70.5000 Z-4.5500 F100.00
G1 X1.5000 Y70.5000 Z-4.5500 F1000.00
G1 X1.5000 Y69.2076 Z-4.5500 F1000.00
G1 X2.7924 Y70.5000 Z-4.5500 F1000.00
G1 X4.9137 Y70.5000 Z-4.5500 F1000.00
G1 X1.5000 Y67.0863 Z-4.5500 F1000.00
G1 X1.5000 Y64.9650 Z-4.5500 F1000.00
G1 X7.0350 Y70.5000 Z-4.5500 F1000.00
G1 X9.1564 Y70.5000 Z-4.5500 F1000.00
G1 X1.5000 Y62.8436 Z-4.5500 F1000.00
G1 X1.5000 Y60.7223 Z-4.5500 F1000.00
G1 X11.2777 Y70.5000 Z-4.5500 F1000.00
G1 X13.1215 Y70.5000 Z-4.5500 F1000.00
G1 X1.5000 Y58.6010 Z-4.5500 F1000.00
G1 X1.5000 Y58.6010 Z-5.0500 F100.00
G1 X13.1215 Y70.5000 Z-5.0500 F1000.00
G1 X11.2777 Y70.5000 Z-5.0500 F1000.00
G1 X1.5000 Y60.7223 Z-5.0500 F1000.00
G1 X1.5000 Y62.8436 Z-5.0500 F1000.00
G1 X9.1564 Y70.5000 Z-5.0500 F1000.00
G1 X7.0350 Y70.5000 Z-5.0500 F1000.00
G1 X1.5000 Y64.9650 Z-5.0500 F1000.00
G1 X1.5000 Y67.0863 Z-5.0500 F1000.00
G1 X4.9137 Y70.5000 Z-5.0500 F1000.00
G1 X2.7924 Y70.5000 Z-5.0500 F1000.00
G1 X1.5000 Y69.2076 Z-5.0500 F1000.00
G1 X1.5000 Y70.5000 Z-5.0500 F1000.00
G1 X2.7924 Y70.5000 Z-5.0500 F1000.00
G1 X2.7924 Y70.5000 Z-5.5500 F100.00
G1 X1.5000 Y70.5000 Z-5.5500 F1000.00
G1 X1.5000 Y69.2076 Z-5.5500 F1000.00
G1 X2.7924 Y70.5000 Z-5.5500 F1000.00
G1 X4.9137 Y70.5000 Z-5.5500 F1000.00
G1 X1.5000 Y67.0863 Z-5.5500 F1000.00
G1 X1.5000 Y64.9650 Z-5.5500 F1000.00
G1 X7.0350 Y70.5000 Z-5.5500 F1000.00
G1 X9.1564 Y70.5000 Z-5.5500 F1000.00
G1 X1.5000 Y62.8436 Z-5.5500 F1000.00
G1 X1.5000 Y60.7223 Z-5.5500 F1000.00
G1 X11.2777 Y70.5000 Z-5.5500 F1000.00
G1 X13.1215 Y70.5000 Z-5.5500 F1000.00
G1 X1.5000 Y58.6010 Z-5.5500 F1000.00
G1 X1.5000 Y58.6010 Z-6.0500 F100.00
G1 X13.1215 Y70.5000 Z-6.0500 F1000.00
G1 X11.2777 Y70.5000 Z-6.0500 F1000.00
G1 X1.5000 Y60.7223 Z-6.0500 F1000.00
G1 X1.5000 Y62.8436 Z-6.0500 F1000.00
G1 X9.1564 Y70.5000 Z-6.0500 F1000.00
G1 X7.0350 Y70.5000 Z-6.0500 F1000.00
G1 X1.5000 Y64.9650 Z-6.0500 F1000.00
G1 X1.5000 Y67.0863 Z-6.0500 F1000.00
G1 X4.9137 Y70.5000 Z-6.0500 F1000.00
G1 X2.7924 Y70.5000 Z-6.0500 F1000.00
G1 X1.5000 Y69.2076 Z-6.0500 F1000.00
G1 X1.5000 Y70.5000 Z-6.0500 F1000.00
G1 X2.7924 Y70.5000 Z-6.0500 F1000.00
G1 X2.7924 Y70.5000 Z-6.5500 F100.00
G1 X1.5000 Y70.5000 Z-6.5500 F1000.00
G1 X1.5000 Y69.2076 Z-6.5500 F1000.00
G1 X2.7924 Y70.5000 Z-6.5500 F1000.00
G1 X4.9137 Y70.5000 Z-6.5500 F1000.00
G1 X1.5000 Y67.0863 Z-6.5500 F1000.00
G1 X1.5000 Y64.9650 Z-6.5500 F1000.00
G1 X7.0350 Y70.5000 Z-6.5500 F1000.00
G1 X9.1564 Y70.5000 Z-6.5500 F1000.00
G1 X1.5000 Y62.8436 Z-6.5500 F1000.00
G1 X1.5000 Y60.7223 Z-6.5500 F1000.00
G1 X11.2777 Y70.5000 Z-6.5500 F1000.00
G1 X13.1215 Y70.5000 Z-6.5500 F1000.00
G1 X1.5000 Y58.6010 Z-6.5500 F1000.00
G1 X1.5000 Y58.6010 Z-7.0500 F100.00
G1 X13.1215 Y70.5000 Z-7.0500 F1000.00
G1 X11.2777 Y70.5000 Z-7.0500 F1000.00
G1 X1.5000 Y60.7223 Z-7.0500 F1000.00
G1 X1.5000 Y62.8436 Z-7.0500 F1000.00
G1 X9.1564 Y70.5000 Z-7.0500 F1000.00
G1 X7.0350 Y70.5000 Z-7.0500 F1000.00
G1 X1.5000 Y64.9650 Z-7.0500 F1000.00
G1 X1.5000 Y67.0863 Z-7.0500 F1000.00
G1 X4.9137 Y70.5000 Z-7.0500 F1000.00
G1 X2.7924 Y70.5000 Z-7.0500 F1000.00
G1 X1.5000 Y69.2076 Z-7.0500 F1000.00
G1 X1.5000 Y70.5000 Z-7.0500 F1000.00
G1 X2.7924 Y70.5000 Z-7.0500 F1000.00
G1 X2.7924 Y70.5000 Z-7.5500 F100.00
G1 X1.5000 Y70.5000 Z-7.5500 F1000.00
G1 X1.5000 Y69.2076 Z-7.5500 F1000.00
G1 X2.7924 Y70.5000 Z-7.5500 F1000.00
G1 X4.9137 Y70.5000 Z-7.5500 F1000.00
G1 X1.5000 Y67.0863 Z-7.5500 F1000.00
G1 X1.5000 Y64.9650 Z-7.5500 F1000.00
G1 X7.0350 Y70.5000 Z-7.5500 F1000.00
