(Exported by FreeCAD)
(Post Processor: grbl_post)
(Output Time:2019-09-08 15:07:06.606254)
(begin preamble)
G17 G90
G21
(begin operation: T2: end mill 3mm003)
(Path: T2: end mill 3mm003)
(T2: end mill 3mm003)
(begin toolchange)
M6 T2
M3 S10000.0000
(finish operation: T2: end mill 3mm003)
(begin operation: rough_facing_1)
(Path: rough_facing_1)
(rough_facing)
G0 Z5.0000
G0 X174.4749 Y0.5251
G0 Z3.0000
G1 X174.4749 Y0.5251 Z-0.5000 F100.00
G1 X189.4749 Y15.5251 Z-0.5000 F1000.00
G3 X190.1224 Y19.5668 Z-0.5000 I-2.4557 J2.4661 F1000.00
G1 X170.0556 Y-0.5000 Z-0.5000 F1000.00
G1 X166.6615 Y-0.5000 Z-0.5000 F1000.00
G1 X188.5556 Y21.3941 Z-0.5000 F1000.00
G1 X186.8586 Y23.0912 Z-0.5000 F1000.00
G1 X163.2674 Y-0.5000 Z-0.5000 F1000.00
G1 X159.8733 Y-0.5000 Z-0.5000 F1000.00
G1 X185.1615 Y24.7882 Z-0.5000 F1000.00
G1 X183.4645 Y26.4853 Z-0.5000 F1000.00
G1 X156.4792 Y-0.5000 Z-0.5000 F1000.00
G1 X153.0851 Y-0.5000 Z-0.5000 F1000.00
G1 X181.7674 Y28.1823 Z-0.5000 F1000.00
G1 X180.0704 Y29.8794 Z-0.5000 F1000.00
G1 X149.6910 Y-0.5000 Z-0.5000 F1000.00
G1 X146.2968 Y-0.5000 Z-0.5000 F1000.00
G1 X178.3733 Y31.5765 Z-0.5000 F1000.00
G1 X176.6762 Y33.2735 Z-0.5000 F1000.00
G1 X142.9027 Y-0.5000 Z-0.5000 F1000.00
G1 X139.5086 Y-0.5000 Z-0.5000 F1000.00
G1 X174.9792 Y34.9706 Z-0.5000 F1000.00
G3 X173.7965 Y36.0000 Z-0.5000 I-3.5762 J-2.9144 F1000.00
G3 X174.4749 Y36.5251 Z-0.5000 I-1.6552 J2.8388 F1000.00
G1 X189.4749 Y51.5251 Z-0.5000 F1000.00
G3 X190.4911 Y53.8766 Z-0.5000 I-2.4273 J2.4443 F1000.00
G1 X136.1145 Y-0.5000 Z-0.5000 F1000.00
G1 X132.7204 Y-0.5000 Z-0.5000 F1000.00
G1 X189.5772 Y56.3568 Z-0.5000 F1000.00
G1 X189.4749 Y56.4749 Z-0.5000 F1000.00
G1 X187.8880 Y58.0617 Z-0.5000 F1000.00
G1 X129.3263 Y-0.5000 Z-0.5000 F1000.00
G1 X125.9322 Y-0.5000 Z-0.5000 F1000.00
G1 X186.1910 Y59.7588 Z-0.5000 F1000.00
G1 X184.4939 Y61.4558 Z-0.5000 F1000.00
G1 X122.5381 Y-0.5000 Z-0.5000 F1000.00
G1 X119.1439 Y-0.5000 Z-0.5000 F1000.00
G1 X182.7968 Y63.1529 Z-0.5000 F1000.00
G1 X181.0998 Y64.8500 Z-0.5000 F1000.00
G1 X115.7498 Y-0.5000 Z-0.5000 F1000.00
G1 X112.3557 Y-0.5000 Z-0.5000 F1000.00
G1 X179.4027 Y66.5470 Z-0.5000 F1000.00
G1 X177.7057 Y68.2441 Z-0.5000 F1000.00
G1 X108.9616 Y-0.5000 Z-0.5000 F1000.00
G1 X105.5675 Y-0.5000 Z-0.5000 F1000.00
G1 X176.0086 Y69.9411 Z-0.5000 F1000.00
G1 X174.4749 Y71.4749 Z-0.5000 F1000.00
G1 X174.3009 Y71.6275 Z-0.5000 F1000.00
G1 X102.1734 Y-0.5000 Z-0.5000 F1000.00
G1 X98.7793 Y-0.5000 Z-0.5000 F1000.00
G1 X171.7793 Y72.5000 Z-0.5000 F1000.00
G1 X168.3852 Y72.5000 Z-0.5000 F1000.00
G1 X95.3852 Y-0.5000 Z-0.5000 F1000.00
G1 X91.9910 Y-0.5000 Z-0.5000 F1000.00
G1 X164.9910 Y72.5000 Z-0.5000 F1000.00
G1 X161.5969 Y72.5000 Z-0.5000 F1000.00
G1 X88.5969 Y-0.5000 Z-0.5000 F1000.00
G1 X85.2028 Y-0.5000 Z-0.5000 F1000.00
G1 X158.2028 Y72.5000 Z-0.5000 F1000.00
G1 X154.8087 Y72.5000 Z-0.5000 F1000.00
G1 X81.8087 Y-0.5000 Z-0.5000 F1000.00
G1 X78.4146 Y-0.5000 Z-0.5000 F1000.00
G1 X151.4146 Y72.5000 Z-0.5000 F1000.00
G1 X148.0205 Y72.5000 Z-0.5000 F1000.00
G1 X75.0205 Y-0.5000 Z-0.5000 F1000.00
G1 X71.6264 Y-0.5000 Z-0.5000 F1000.00
G1 X144.6264 Y72.5000 Z-0.5000 F1000.00
G1 X141.2323 Y72.5000 Z-0.5000 F1000.00
G1 X68.2323 Y-0.5000 Z-0.5000 F1000.00
G1 X64.8381 Y-0.5000 Z-0.5000 F1000.00
G1 X137.8381 Y72.5000 Z-0.5000 F1000.00
G1 X134.4440 Y72.5000 Z-0.5000 F1000.00
G1 X61.4440 Y-0.5000 Z-0.5000 F1000.00
G1 X58.0499 Y-0.5000 Z-0.5000 F1000.00
G1 X131.0499 Y72.5000 Z-0.5000 F1000.00
G1 X127.6558 Y72.5000 Z-0.5000 F1000.00
G1 X54.6558 Y-0.5000 Z-0.5000 F1000.00
G1 X51.2617 Y-0.5000 Z-0.5000 F1000.00
G1 X124.2617 Y72.5000 Z-0.5000 F1000.00
G1 X120.8676 Y72.5000 Z-0.5000 F1000.00
G1 X47.8676 Y-0.5000 Z-0.5000 F1000.00
G1 X44.4735 Y-0.5000 Z-0.5000 F1000.00
G1 X117.4735 Y72.5000 Z-0.5000 F1000.00
G1 X114.0794 Y72.5000 Z-0.5000 F1000.00
G1 X41.0794 Y-0.5000 Z-0.5000 F1000.00
G1 X37.6852 Y-0.5000 Z-0.5000 F1000.00
G1 X110.6852 Y72.5000 Z-0.5000 F1000.00
G1 X107.2911 Y72.5000 Z-0.5000 F1000.00
G1 X34.2911 Y-0.5000 Z-0.5000 F1000.00
G1 X30.8970 Y-0.5000 Z-0.5000 F1000.00
G1 X103.8970 Y72.5000 Z-0.5000 F1000.00
G1 X100.5029 Y72.5000 Z-0.5000 F1000.00
G1 X27.5029 Y-0.5000 Z-0.5000 F1000.00
G1 X24.1088 Y-0.5000 Z-0.5000 F1000.00
G1 X97.1088 Y72.5000 Z-0.5000 F1000.00
G1 X93.7147 Y72.5000 Z-0.5000 F1000.00
G1 X20.7147 Y-0.5000 Z-0.5000 F1000.00
G1 X18.0000 Y-0.5000 Z-0.5000 F1000.00
G2 X17.3825 Y-0.4381 Z-0.5000 I-0.0737 J2.3762 F1000.00
G1 X90.3206 Y72.5000 Z-0.5000 F1000.00
G1 X86.9265 Y72.5000 Z-0.5000 F1000.00
G1 X15.2384 Y0.8119 Z-0.5000 F1000.00
G1 X13.5413 Y2.5090 Z-0.5000 F1000.00
G1 X83.5323 Y72.5000 Z-0.5000 F1000.00
G1 X80.1382 Y72.5000 Z-0.5000 F1000.00
G1 X11.8442 Y4.2060 Z-0.5000 F1000.00
G1 X10.1472 Y5.9031 Z-0.5000 F1000.00
G1 X76.7441 Y72.5000 Z-0.5000 F1000.00
G1 X73.3500 Y72.5000 Z-0.5000 F1000.00
G1 X8.4501 Y7.6001 Z-0.5000 F1000.00
G1 X6.7531 Y9.2972 Z-0.5000 F1000.00
G1 X69.9559 Y72.5000 Z-0.5000 F1000.00
G1 X66.5618 Y72.5000 Z-0.5000 F1000.00
G1 X5.0560 Y10.9942 Z-0.5000 F1000.00
G1 X3.3590 Y12.6913 Z-0.5000 F1000.00
G1 X63.1677 Y72.5000 Z-0.5000 F1000.00
G1 X59.7736 Y72.5000 Z-0.5000 F1000.00
G1 X1.6619 Y14.3883 Z-0.5000 F1000.00
G2 X0.1981 Y15.9025 Z-0.5000 I9.8536 J10.9904 F1000.00
G1 X0.0353 Y16.1559 Z-0.5000 F1000.00
G1 X56.3794 Y72.5000 Z-0.5000 F1000.00
G1 X52.9853 Y72.5000 Z-0.5000 F1000.00
G1 X-0.2691 Y19.2456 Z-0.5000 F1000.00
G2 X0.5251 Y20.4749 Z-0.5000 I3.2474 J-1.2269 F1000.00
G1 X15.5251 Y35.4749 Z-0.5000 F1000.00
G2 X16.2035 Y36.0000 Z-0.5000 I2.3335 J-2.3137 F1000.00
G2 X15.5251 Y36.5251 Z-0.5000 I1.6552 J2.8388 F1000.00
G1 X14.5707 Y37.4795 Z-0.5000 F1000.00
G1 X49.5912 Y72.5000 Z-0.5000 F1000.00
G1 X46.1971 Y72.5000 Z-0.5000 F1000.00
G1 X12.8737 Y39.1766 Z-0.5000 F1000.00
G1 X11.1766 Y40.8736 Z-0.5000 F1000.00
G1 X42.8030 Y72.5000 Z-0.5000 F1000.00
G1 X39.4089 Y72.5000 Z-0.5000 F1000.00
G1 X9.4796 Y42.5707 Z-0.5000 F1000.00
G1 X7.7825 Y44.2677 Z-0.5000 F1000.00
G1 X36.0148 Y72.5000 Z-0.5000 F1000.00
G1 X32.6207 Y72.5000 Z-0.5000 F1000.00
G1 X6.0855 Y45.9648 Z-0.5000 F1000.00
G1 X4.3884 Y47.6619 Z-0.5000 F1000.00
G1 X29.2265 Y72.5000 Z-0.5000 F1000.00
G1 X25.8324 Y72.5000 Z-0.5000 F1000.00
G1 X2.6913 Y49.3589 Z-0.5000 F1000.00
G1 X0.9943 Y51.0560 Z-0.5000 F1000.00
G1 X22.4383 Y72.5000 Z-0.5000 F1000.00
G1 X19.0442 Y72.5000 Z-0.5000 F1000.00
G1 X18.0000 Y72.5000 Z-0.5000 F1000.00
G3 X15.5251 Y71.4749 Z-0.5000 I0.0000 J-3.5000 F1000.00
G1 X0.5251 Y56.4749 Z-0.5000 F1000.00
G3 X-0.3700 Y53.0858 Z-0.5000 I2.4450 J-2.4586 F1000.00
G1 X19.0442 Y72.5000 Z-0.5000 F1000.00
G1 X19.0442 Y72.5000 Z-1.0000 F100.00
G1 X-0.3700 Y53.0858 Z-1.0000 F1000.00
G2 X0.5251 Y56.4749 Z-1.0000 I3.3401 J0.9306 F1000.00
G1 X15.5251 Y71.4749 Z-1.0000 F1000.00
G2 X18.0000 Y72.5000 Z-1.0000 I2.4749 J-2.4749 F1000.00
G1 X19.0442 Y72.5000 Z-1.0000 F1000.00
G1 X22.4383 Y72.5000 Z-1.0000 F1000.00
G1 X0.9943 Y51.0560 Z-1.0000 F1000.00
G1 X2.6913 Y49.3589 Z-1.0000 F1000.00
G1 X25.8324 Y72.5000 Z-1.0000 F1000.00
G1 X29.2265 Y72.5000 Z-1.0000 F1000.00
G1 X4.3884 Y47.6619 Z-1.0000 F1000.00
G1 X6.0855 Y45.9648 Z-1.0000 F1000.00
G1 X32.6207 Y72.5000 Z-1.0000 F1000.00
G1 X36.0148 Y72.5000 Z-1.0000 F1000.00
G1 X7.7825 Y44.2677 Z-1.0000 F1000.00
G1 X9.4796 Y42.5707 Z-1.0000 F1000.00
G1 X39.4089 Y72.5000 Z-1.0000 F1000.00
G1 X42.8030 Y72.5000 Z-1.0000 F1000.00
G1 X11.1766 Y40.8736 Z-1.0000 F1000.00
G1 X12.8737 Y39.1766 Z-1.0000 F1000.00
G1 X46.1971 Y72.5000 Z-1.0000 F1000.00
G1 X49.5912 Y72.5000 Z-1.0000 F1000.00
G1 X14.5707 Y37.4795 Z-1.0000 F1000.00
G1 X15.5251 Y36.5251 Z-1.0000 F1000.00
G3 X16.2035 Y36.0000 Z-1.0000 I2.3335 J2.3137 F1000.00
G3 X15.5251 Y35.4749 Z-1.0000 I1.6552 J-2.8388 F1000.00
G1 X0.5251 Y20.4749 Z-1.0000 F1000.00
G3 X-0.2691 Y19.2456 Z-1.0000 I2.4532 J-2.4561 F1000.00
G1 X52.9853 Y72.5000 Z-1.0000 F1000.00
G1 X56.3794 Y72.5000 Z-1.0000 F1000.00
G1 X0.0353 Y16.1559 Z-1.0000 F1000.00
G1 X0.1981 Y15.9025 Z-1.0000 F1000.00
G3 X1.6619 Y14.3883 Z-1.0000 I11.3174 J9.4762 F1000.00
G1 X59.7736 Y72.5000 Z-1.0000 F1000.00
G1 X63.1677 Y72.5000 Z-1.0000 F1000.00
G1 X3.3590 Y12.6913 Z-1.0000 F1000.00
G1 X5.0560 Y10.9942 Z-1.0000 F1000.00
G1 X66.5618 Y72.5000 Z-1.0000 F1000.00
G1 X69.9559 Y72.5000 Z-1.0000 F1000.00
G1 X6.7531 Y9.2972 Z-1.0000 F1000.00
G1 X8.4501 Y7.6001 Z-1.0000 F1000.00
G1 X73.3500 Y72.5000 Z-1.0000 F1000.00
G1 X76.7441 Y72.5000 Z-1.0000 F1000.00
G1 X10.1472 Y5.9031 Z-1.0000 F1000.00
G1 X11.8442 Y4.2060 Z-1.0000 F1000.00
G1 X80.1382 Y72.5000 Z-1.0000 F1000.00
G1 X83.5323 Y72.5000 Z-1.0000 F1000.00
G1 X13.5413 Y2.5090 Z-1.0000 F1000.00
G1 X15.2384 Y0.8119 Z-1.0000 F1000.00
G1 X86.9265 Y72.5000 Z-1.0000 F1000.00
G1 X90.3206 Y72.5000 Z-1.0000 F1000.00
G1 X17.3825 Y-0.4381 Z-1.0000 F1000.00
G3 X18.0000 Y-0.5000 Z-1.0000 I0.5439 J2.3143 F1000.00
G1 X20.7147 Y-0.5000 Z-1.0000 F1000.00
G1 X93.7147 Y72.5000 Z-1.0000 F1000.00
G1 X97.1088 Y72.5000 Z-1.0000 F1000.00
G1 X24.1088 Y-0.5000 Z-1.0000 F1000.00
G1 X27.5029 Y-0.5000 Z-1.0000 F1000.00
G1 X100.5029 Y72.5000 Z-1.0000 F1000.00
G1 X103.8970 Y72.5000 Z-1.0000 F1000.00
G1 X30.8970 Y-0.5000 Z-1.0000 F1000.00
G1 X34.2911 Y-0.5000 Z-1.0000 F1000.00
G1 X107.2911 Y72.5000 Z-1.0000 F1000.00
G1 X110.6852 Y72.5000 Z-1.0000 F1000.00
G1 X37.6852 Y-0.5000 Z-1.0000 F1000.00
G1 X41.0794 Y-0.5000 Z-1.0000 F1000.00
G1 X114.0794 Y72.5000 Z-1.0000 F1000.00
G1 X117.4735 Y72.5000 Z-1.0000 F1000.00
G1 X44.4735 Y-0.5000 Z-1.0000 F1000.00
G1 X47.8676 Y-0.5000 Z-1.0000 F1000.00
G1 X120.8676 Y72.5000 Z-1.0000 F1000.00
G1 X124.2617 Y72.5000 Z-1.0000 F1000.00
G1 X51.2617 Y-0.5000 Z-1.0000 F1000.00
G1 X54.6558 Y-0.5000 Z-1.0000 F1000.00
G1 X127.6558 Y72.5000 Z-1.0000 F1000.00
G1 X131.0499 Y72.5000 Z-1.0000 F1000.00
G1 X58.0499 Y-0.5000 Z-1.0000 F1000.00
G1 X61.4440 Y-0.5000 Z-1.0000 F1000.00
G1 X134.4440 Y72.5000 Z-1.0000 F1000.00
G1 X137.8381 Y72.5000 Z-1.0000 F1000.00
G1 X64.8381 Y-0.5000 Z-1.0000 F1000.00
G1 X68.2323 Y-0.5000 Z-1.0000 F1000.00
G1 X141.2323 Y72.5000 Z-1.0000 F1000.00
G1 X144.6264 Y72.5000 Z-1.0000 F1000.00
G1 X71.6264 Y-0.5000 Z-1.0000 F1000.00
G1 X75.0205 Y-0.5000 Z-1.0000 F1000.00
G1 X148.0205 Y72.5000 Z-1.0000 F1000.00
G1 X151.4146 Y72.5000 Z-1.0000 F1000.00
G1 X78.4146 Y-0.5000 Z-1.0000 F1000.00
G1 X81.8087 Y-0.5000 Z-1.0000 F1000.00
G1 X154.8087 Y72.5000 Z-1.0000 F1000.00
G1 X158.2028 Y72.5000 Z-1.0000 F1000.00
G1 X85.2028 Y-0.5000 Z-1.0000 F1000.00
G1 X88.5969 Y-0.5000 Z-1.0000 F1000.00
G1 X161.5969 Y72.5000 Z-1.0000 F1000.00
G1 X164.9910 Y72.5000 Z-1.0000 F1000.00
G1 X91.9910 Y-0.5000 Z-1.0000 F1000.00
G1 X95.3852 Y-0.5000 Z-1.0000 F1000.00
G1 X168.3852 Y72.5000 Z-1.0000 F1000.00
G1 X171.7793 Y72.5000 Z-1.0000 F1000.00
G1 X98.7793 Y-0.5000 Z-1.0000 F1000.00
G1 X102.1734 Y-0.5000 Z-1.0000 F1000.00
G1 X174.3009 Y71.6275 Z-1.0000 F1000.00
G1 X174.4749 Y71.4749 Z-1.0000 F1000.00
G1 X176.0086 Y69.9411 Z-1.0000 F1000.00
G1 X105.5675 Y-0.5000 Z-1.0000 F1000.00
G1 X108.9616 Y-0.5000 Z-1.0000 F1000.00
G1 X177.7057 Y68.2441 Z-1.0000 F1000.00
G1 X179.4027 Y66.5470 Z-1.0000 F1000.00
G1 X112.3557 Y-0.5000 Z-1.0000 F1000.00
G1 X115.7498 Y-0.5000 Z-1.0000 F1000.00
G1 X181.0998 Y64.8500 Z-1.0000 F1000.00
G1 X182.7968 Y63.1529 Z-1.0000 F1000.00
G1 X119.1439 Y-0.5000 Z-1.0000 F1000.00
G1 X122.5381 Y-0.5000 Z-1.0000 F1000.00
G1 X184.4939 Y61.4558 Z-1.0000 F1000.00
G1 X186.1910 Y59.7588 Z-1.0000 F1000.00
G1 X125.9322 Y-0.5000 Z-1.0000 F1000.00
G1 X129.3263 Y-0.5000 Z-1.0000 F1000.00
G1 X187.8880 Y58.0617 Z-1.0000 F1000.00
G1 X189.4749 Y56.4749 Z-1.0000 F1000.00
G1 X189.5772 Y56.3568 Z-1.0000 F1000.00
G1 X132.7204 Y-0.5000 Z-1.0000 F1000.00
G1 X136.1145 Y-0.5000 Z-1.0000 F1000.00
G1 X190.4911 Y53.8766 Z-1.0000 F1000.00
G2 X189.4749 Y51.5251 Z-1.0000 I-3.4435 J0.0928 F1000.00
G1 X174.4749 Y36.5251 Z-1.0000 F1000.00
G2 X173.7965 Y36.0000 Z-1.0000 I-2.3335 J2.3137 F1000.00
G2 X174.9792 Y34.9706 Z-1.0000 I-2.3935 J-3.9438 F1000.00
G1 X139.5086 Y-0.5000 Z-1.0000 F1000.00
G1 X142.9027 Y-0.5000 Z-1.0000 F1000.00
G1 X176.6762 Y33.2735 Z-1.0000 F1000.00
G1 X178.3733 Y31.5765 Z-1.0000 F1000.00
G1 X146.2968 Y-0.5000 Z-1.0000 F1000.00
G1 X149.6910 Y-0.5000 Z-1.0000 F1000.00
G1 X180.0704 Y29.8794 Z-1.0000 F1000.00
G1 X181.7674 Y28.1823 Z-1.0000 F1000.00
G1 X153.0851 Y-0.5000 Z-1.0000 F1000.00
G1 X156.4792 Y-0.5000 Z-1.0000 F1000.00
G1 X183.4645 Y26.4853 Z-1.0000 F1000.00
G1 X185.1615 Y24.7882 Z-1.0000 F1000.00
G1 X159.8733 Y-0.5000 Z-1.0000 F1000.00
G1 X163.2674 Y-0.5000 Z-1.0000 F1000.00
G1 X186.8586 Y23.0912 Z-1.0000 F1000.00
G1 X188.5556 Y21.3941 Z-1.0000 F1000.00
G1 X166.6615 Y-0.5000 Z-1.0000 F1000.00
G1 X170.0556 Y-0.5000 Z-1.0000 F1000.00
G1 X190.1224 Y19.5668 Z-1.0000 F1000.00
G2 X189.4749 Y15.5251 Z-1.0000 I-3.1032 J-1.5755 F1000.00
G1 X174.4749 Y0.5251 Z-1.0000 F1000.00
G1 X174.4749 Y0.5251 Z-1.5000 F100.00
G1 X189.4749 Y15.5251 Z-1.5000 F1000.00
G3 X190.1224 Y19.5668 Z-1.5000 I-2.4557 J2.4661 F1000.00
G1 X170.0556 Y-0.5000 Z-1.5000 F1000.00
G1 X166.6615 Y-0.5000 Z-1.5000 F1000.00
G1 X188.5556 Y21.3941 Z-1.5000 F1000.00
G1 X186.8586 Y23.0912 Z-1.5000 F1000.00
G1 X163.2674 Y-0.5000 Z-1.5000 F1000.00
G1 X159.8733 Y-0.5000 Z-1.5000 F1000.00
G1 X185.1615 Y24.7882 Z-1.5000 F1000.00
G1 X183.4645 Y26.4853 Z-1.5000 F1000.00
G1 X156.4792 Y-0.5000 Z-1.5000 F1000.00
G1 X153.0851 Y-0.5000 Z-1.5000 F1000.00
G1 X181.7674 Y28.1823 Z-1.5000 F1000.00
G1 X180.0704 Y29.8794 Z-1.5000 F1000.00
G1 X149.6910 Y-0.5000 Z-1.5000 F1000.00
G1 X146.2968 Y-0.5000 Z-1.5000 F1000.00
G1 X178.3733 Y31.5765 Z-1.5000 F1000.00
G1 X176.6762 Y33.2735 Z-1.5000 F1000.00
G1 X142.9027 Y-0.5000 Z-1.5000 F1000.00
G1 X139.5086 Y-0.5000 Z-1.5000 F1000.00
G1 X174.9792 Y34.9706 Z-1.5000 F1000.00
G3 X173.7965 Y36.0000 Z-1.5000 I-3.5762 J-2.9144 F1000.00
G3 X174.4749 Y36.5251 Z-1.5000 I-1.6552 J2.8388 F1000.00
G1 X189.4749 Y51.5251 Z-1.5000 F1000.00
G3 X190.4911 Y53.8766 Z-1.5000 I-2.4273 J2.4443 F1000.00
G1 X136.1145 Y-0.5000 Z-1.5000 F1000.00
G1 X132.7204 Y-0.5000 Z-1.5000 F1000.00
G1 X189.5772 Y56.3568 Z-1.5000 F1000.00
G1 X189.4749 Y56.4749 Z-1.5000 F1000.00
G1 X187.8880 Y58.0617 Z-1.5000 F1000.00
G1 X129.3263 Y-0.5000 Z-1.5000 F1000.00
G1 X125.9322 Y-0.5000 Z-1.5000 F1000.00
G1 X186.1910 Y59.7588 Z-1.5000 F1000.00
G1 X184.4939 Y61.4558 Z-1.5000 F1000.00
G1 X122.5381 Y-0.5000 Z-1.5000 F1000.00
G1 X119.1439 Y-0.5000 Z-1.5000 F1000.00
G1 X182.7968 Y63.1529 Z-1.5000 F1000.00
G1 X181.0998 Y64.8500 Z-1.5000 F1000.00
G1 X115.7498 Y-0.5000 Z-1.5000 F1000.00
G1 X112.3557 Y-0.5000 Z-1.5000 F1000.00
G1 X179.4027 Y66.5470 Z-1.5000 F1000.00
G1 X177.7057 Y68.2441 Z-1.5000 F1000.00
G1 X108.9616 Y-0.5000 Z-1.5000 F1000.00
G1 X105.5675 Y-0.5000 Z-1.5000 F1000.00
G1 X176.0086 Y69.9411 Z-1.5000 F1000.00
G1 X174.4749 Y71.4749 Z-1.5000 F1000.00
G1 X174.3009 Y71.6275 Z-1.5000 F1000.00
G1 X102.1734 Y-0.5000 Z-1.5000 F1000.00
G1 X98.7793 Y-0.5000 Z-1.5000 F1000.00
G1 X171.7793 Y72.5000 Z-1.5000 F1000.00
G1 X168.3852 Y72.5000 Z-1.5000 F1000.00
G1 X95.3852 Y-0.5000 Z-1.5000 F1000.00
G1 X91.9910 Y-0.5000 Z-1.5000 F1000.00
G1 X164.9910 Y72.5000 Z-1.5000 F1000.00
G1 X161.5969 Y72.5000 Z-1.5000 F1000.00
G1 X88.5969 Y-0.5000 Z-1.5000 F1000.00
G1 X85.2028 Y-0.5000 Z-1.5000 F1000.00
G1 X158.2028 Y72.5000 Z-1.5000 F1000.00
G1 X154.8087 Y72.5000 Z-1.5000 F1000.00
G1 X81.8087 Y-0.5000 Z-1.5000 F1000.00
G1 X78.4146 Y-0.5000 Z-1.5000 F1000.00
G1 X151.4146 Y72.5000 Z-1.5000 F1000.00
G1 X148.0205 Y72.5000 Z-1.5000 F1000.00
G1 X75.0205 Y-0.5000 Z-1.5000 F1000.00
G1 X71.6264 Y-0.5000 Z-1.5000 F1000.00
G1 X144.6264 Y72.5000 Z-1.5000 F1000.00
G1 X141.2323 Y72.5000 Z-1.5000 F1000.00
G1 X68.2323 Y-0.5000 Z-1.5000 F1000.00
G1 X64.8381 Y-0.5000 Z-1.5000 F1000.00
G1 X137.8381 Y72.5000 Z-1.5000 F1000.00
G1 X134.4440 Y72.5000 Z-1.5000 F1000.00
G1 X61.4440 Y-0.5000 Z-1.5000 F1000.00
G1 X58.0499 Y-0.5000 Z-1.5000 F1000.00
G1 X131.0499 Y72.5000 Z-1.5000 F1000.00
G1 X127.6558 Y72.5000 Z-1.5000 F1000.00
G1 X54.6558 Y-0.5000 Z-1.5000 F1000.00
G1 X51.2617 Y-0.5000 Z-1.5000 F1000.00
G1 X124.2617 Y72.5000 Z-1.5000 F1000.00
G1 X120.8676 Y72.5000 Z-1.5000 F1000.00
G1 X47.8676 Y-0.5000 Z-1.5000 F1000.00
G1 X44.4735 Y-0.5000 Z-1.5000 F1000.00
G1 X117.4735 Y72.5000 Z-1.5000 F1000.00
G1 X114.0794 Y72.5000 Z-1.5000 F1000.00
G1 X41.0794 Y-0.5000 Z-1.5000 F1000.00
G1 X37.6852 Y-0.5000 Z-1.5000 F1000.00
G1 X110.6852 Y72.5000 Z-1.5000 F1000.00
G1 X107.2911 Y72.5000 Z-1.5000 F1000.00
G1 X34.2911 Y-0.5000 Z-1.5000 F1000.00
G1 X30.8970 Y-0.5000 Z-1.5000 F1000.00
G1 X103.8970 Y72.5000 Z-1.5000 F1000.00
G1 X100.5029 Y72.5000 Z-1.5000 F1000.00
G1 X27.5029 Y-0.5000 Z-1.5000 F1000.00
G1 X24.1088 Y-0.5000 Z-1.5000 F1000.00
G1 X97.1088 Y72.5000 Z-1.5000 F1000.00
G1 X93.7147 Y72.5000 Z-1.5000 F1000.00
G1 X20.7147 Y-0.5000 Z-1.5000 F1000.00
G1 X18.0000 Y-0.5000 Z-1.5000 F1000.00
G2 X17.3825 Y-0.4381 Z-1.5000 I-0.0737 J2.3762 F1000.00
G1 X90.3206 Y72.5000 Z-1.5000 F1000.00
G1 X86.9265 Y72.5000 Z-1.5000 F1000.00
G1 X15.2384 Y0.8119 Z-1.5000 F1000.00
G1 X13.5413 Y2.5090 Z-1.5000 F1000.00
G1 X83.5323 Y72.5000 Z-1.5000 F1000.00
G1 X80.1382 Y72.5000 Z-1.5000 F1000.00
G1 X11.8442 Y4.2060 Z-1.5000 F1000.00
G1 X10.1472 Y5.9031 Z-1.5000 F1000.00
G1 X76.7441 Y72.5000 Z-1.5000 F1000.00
G1 X73.3500 Y72.5000 Z-1.5000 F1000.00
G1 X8.4501 Y7.6001 Z-1.5000 F1000.00
G1 X6.7531 Y9.2972 Z-1.5000 F1000.00
G1 X69.9559 Y72.5000 Z-1.5000 F1000.00
G1 X66.5618 Y72.5000 Z-1.5000 F1000.00
G1 X5.0560 Y10.9942 Z-1.5000 F1000.00
G1 X3.3590 Y12.6913 Z-1.5000 F1000.00
G1 X63.1677 Y72.5000 Z-1.5000 F1000.00
G1 X59.7736 Y72.5000 Z-1.5000 F1000.00
G1 X1.6619 Y14.3883 Z-1.5000 F1000.00
G2 X0.1981 Y15.9025 Z-1.5000 I9.8536 J10.9904 F1000.00
G1 X0.0353 Y16.1559 Z-1.5000 F1000.00
G1 X56.3794 Y72.5000 Z-1.5000 F1000.00
G1 X52.9853 Y72.5000 Z-1.5000 F1000.00
G1 X-0.2691 Y19.2456 Z-1.5000 F1000.00
G2 X0.5251 Y20.4749 Z-1.5000 I3.2474 J-1.2269 F1000.00
G1 X15.5251 Y35.4749 Z-1.5000 F1000.00
G2 X16.2035 Y36.0000 Z-1.5000 I2.3335 J-2.3137 F1000.00
G2 X15.5251 Y36.5251 Z-1.5000 I1.6552 J2.8388 F1000.00
G1 X14.5707 Y37.4795 Z-1.5000 F1000.00
G1 X49.5912 Y72.5000 Z-1.5000 F1000.00
G1 X46.1971 Y72.5000 Z-1.5000 F1000.00
G1 X12.8737 Y39.1766 Z-1.5000 F1000.00
G1 X11.1766 Y40.8736 Z-1.5000 F1000.00
G1 X42.8030 Y72.5000 Z-1.5000 F1000.00
G1 X39.4089 Y72.5000 Z-1.5000 F1000.00
G1 X9.4796 Y42.5707 Z-1.5000 F1000.00
G1 X7.7825 Y44.2677 Z-1.5000 F1000.00
G1 X36.0148 Y72.5000 Z-1.5000 F1000.00
G1 X32.6207 Y72.5000 Z-1.5000 F1000.00
G1 X6.0855 Y45.9648 Z-1.5000 F1000.00
G1 X4.3884 Y47.6619 Z-1.5000 F1000.00
G1 X29.2265 Y72.5000 Z-1.5000 F1000.00
G1 X25.8324 Y72.5000 Z-1.5000 F1000.00
G1 X2.6913 Y49.3589 Z-1.5000 F1000.00
G1 X0.9943 Y51.0560 Z-1.5000 F1000.00
G1 X22.4383 Y72.5000 Z-1.5000 F1000.00
G1 X19.0442 Y72.5000 Z-1.5000 F1000.00
G1 X18.0000 Y72.5000 Z-1.5000 F1000.00
G3 X15.5251 Y71.4749 Z-1.5000 I0.0000 J-3.5000 F1000.00
G1 X0.5251 Y56.4749 Z-1.5000 F1000.00
G3 X-0.3700 Y53.0858 Z-1.5000 I2.4450 J-2.4586 F1000.00
G1 X19.0442 Y72.5000 Z-1.5000 F1000.00
G1 X19.0442 Y72.5000 Z-2.0000 F100.00
G1 X-0.3700 Y53.0858 Z-2.0000 F1000.00
G2 X0.5251 Y56.4749 Z-2.0000 I3.3401 J0.9306 F1000.00
G1 X15.5251 Y71.4749 Z-2.0000 F1000.00
G2 X18.0000 Y72.5000 Z-2.0000 I2.4749 J-2.4749 F1000.00
G1 X19.0442 Y72.5000 Z-2.0000 F1000.00
G1 X22.4383 Y72.5000 Z-2.0000 F1000.00
G1 X0.9943 Y51.0560 Z-2.0000 F1000.00
G1 X2.6913 Y49.3589 Z-2.0000 F1000.00
G1 X25.8324 Y72.5000 Z-2.0000 F1000.00
G1 X29.2265 Y72.5000 Z-2.0000 F1000.00
G1 X4.3884 Y47.6619 Z-2.0000 F1000.00
G1 X6.0855 Y45.9648 Z-2.0000 F1000.00
G1 X32.6207 Y72.5000 Z-2.0000 F1000.00
G1 X36.0148 Y72.5000 Z-2.0000 F1000.00
G1 X7.7825 Y44.2677 Z-2.0000 F1000.00
G1 X9.4796 Y42.5707 Z-2.0000 F1000.00
G1 X39.4089 Y72.5000 Z-2.0000 F1000.00
G1 X42.8030 Y72.5000 Z-2.0000 F1000.00
G1 X11.1766 Y40.8736 Z-2.0000 F1000.00
G1 X12.8737 Y39.1766 Z-2.0000 F1000.00
G1 X46.1971 Y72.5000 Z-2.0000 F1000.00
G1 X49.5912 Y72.5000 Z-2.0000 F1000.00
G1 X14.5707 Y37.4795 Z-2.0000 F1000.00
G1 X15.5251 Y36.5251 Z-2.0000 F1000.00
G3 X16.2035 Y36.0000 Z-2.0000 I2.3335 J2.3137 F1000.00
G3 X15.5251 Y35.4749 Z-2.0000 I1.6552 J-2.8388 F1000.00
G1 X0.5251 Y20.4749 Z-2.0000 F1000.00
G3 X-0.2691 Y19.2456 Z-2.0000 I2.4532 J-2.4561 F1000.00
G1 X52.9853 Y72.5000 Z-2.0000 F1000.00
G1 X56.3794 Y72.5000 Z-2.0000 F1000.00
G1 X0.0353 Y16.1559 Z-2.0000 F1000.00
G1 X0.1981 Y15.9025 Z-2.0000 F1000.00
G3 X1.6619 Y14.3883 Z-2.0000 I11.3174 J9.4762 F1000.00
G1 X59.7736 Y72.5000 Z-2.0000 F1000.00
G1 X63.1677 Y72.5000 Z-2.0000 F1000.00
G1 X3.3590 Y12.6913 Z-2.0000 F1000.00
G1 X5.0560 Y10.9942 Z-2.0000 F1000.00
G1 X66.5618 Y72.5000 Z-2.0000 F1000.00
G1 X69.9559 Y72.5000 Z-2.0000 F1000.00
G1 X6.7531 Y9.2972 Z-2.0000 F1000.00
G1 X8.4501 Y7.6001 Z-2.0000 F1000.00
G1 X73.3500 Y72.5000 Z-2.0000 F1000.00
G1 X76.7441 Y72.5000 Z-2.0000 F1000.00
G1 X10.1472 Y5.9031 Z-2.0000 F1000.00
G1 X11.8442 Y4.2060 Z-2.0000 F1000.00
G1 X80.1382 Y72.5000 Z-2.0000 F1000.00
G1 X83.5323 Y72.5000 Z-2.0000 F1000.00
G1 X13.5413 Y2.5090 Z-2.0000 F1000.00
G1 X15.2384 Y0.8119 Z-2.0000 F1000.00
G1 X86.9265 Y72.5000 Z-2.0000 F1000.00
G1 X90.3206 Y72.5000 Z-2.0000 F1000.00
G1 X17.3825 Y-0.4381 Z-2.0000 F1000.00
G3 X18.0000 Y-0.5000 Z-2.0000 I0.5439 J2.3143 F1000.00
G1 X20.7147 Y-0.5000 Z-2.0000 F1000.00
G1 X93.7147 Y72.5000 Z-2.0000 F1000.00
G1 X97.1088 Y72.5000 Z-2.0000 F1000.00
G1 X24.1088 Y-0.5000 Z-2.0000 F1000.00
G1 X27.5029 Y-0.5000 Z-2.0000 F1000.00
G1 X100.5029 Y72.5000 Z-2.0000 F1000.00
G1 X103.8970 Y72.5000 Z-2.0000 F1000.00
G1 X30.8970 Y-0.5000 Z-2.0000 F1000.00
G1 X34.2911 Y-0.5000 Z-2.0000 F1000.00
G1 X107.2911 Y72.5000 Z-2.0000 F1000.00
G1 X110.6852 Y72.5000 Z-2.0000 F1000.00
G1 X37.6852 Y-0.5000 Z-2.0000 F1000.00
G1 X41.0794 Y-0.5000 Z-2.0000 F1000.00
G1 X114.0794 Y72.5000 Z-2.0000 F1000.00
G1 X117.4735 Y72.5000 Z-2.0000 F1000.00
G1 X44.4735 Y-0.5000 Z-2.0000 F1000.00
G1 X47.8676 Y-0.5000 Z-2.0000 F1000.00
G1 X120.8676 Y72.5000 Z-2.0000 F1000.00
G1 X124.2617 Y72.5000 Z-2.0000 F1000.00
G1 X51.2617 Y-0.5000 Z-2.0000 F1000.00
G1 X54.6558 Y-0.5000 Z-2.0000 F1000.00
G1 X127.6558 Y72.5000 Z-2.0000 F1000.00
G1 X131.0499 Y72.5000 Z-2.0000 F1000.00
G1 X58.0499 Y-0.5000 Z-2.0000 F1000.00
G1 X61.4440 Y-0.5000 Z-2.0000 F1000.00
G1 X134.4440 Y72.5000 Z-2.0000 F1000.00
G1 X137.8381 Y72.5000 Z-2.0000 F1000.00
G1 X64.8381 Y-0.5000 Z-2.0000 F1000.00
G1 X68.2323 Y-0.5000 Z-2.0000 F1000.00
G1 X141.2323 Y72.5000 Z-2.0000 F1000.00
G1 X144.6264 Y72.5000 Z-2.0000 F1000.00
G1 X71.6264 Y-0.5000 Z-2.0000 F1000.00
G1 X75.0205 Y-0.5000 Z-2.0000 F1000.00
G1 X148.0205 Y72.5000 Z-2.0000 F1000.00
G1 X151.4146 Y72.5000 Z-2.0000 F1000.00
G1 X78.4146 Y-0.5000 Z-2.0000 F1000.00
G1 X81.8087 Y-0.5000 Z-2.0000 F1000.00
G1 X154.8087 Y72.5000 Z-2.0000 F1000.00
G1 X158.2028 Y72.5000 Z-2.0000 F1000.00
G1 X85.2028 Y-0.5000 Z-2.0000 F1000.00
G1 X88.5969 Y-0.5000 Z-2.0000 F1000.00
G1 X161.5969 Y72.5000 Z-2.0000 F1000.00
G1 X164.9910 Y72.5000 Z-2.0000 F1000.00
G1 X91.9910 Y-0.5000 Z-2.0000 F1000.00
G1 X95.3852 Y-0.5000 Z-2.0000 F1000.00
G1 X168.3852 Y72.5000 Z-2.0000 F1000.00
G1 X171.7793 Y72.5000 Z-2.0000 F1000.00
G1 X98.7793 Y-0.5000 Z-2.0000 F1000.00
G1 X102.1734 Y-0.5000 Z-2.0000 F1000.00
G1 X174.3009 Y71.6275 Z-2.0000 F1000.00
G1 X174.4749 Y71.4749 Z-2.0000 F1000.00
G1 X176.0086 Y69.9411 Z-2.0000 F1000.00
G1 X105.5675 Y-0.5000 Z-2.0000 F1000.00
G1 X108.9616 Y-0.5000 Z-2.0000 F1000.00
G1 X177.7057 Y68.2441 Z-2.0000 F1000.00
G1 X179.4027 Y66.5470 Z-2.0000 F1000.00
G1 X112.3557 Y-0.5000 Z-2.0000 F1000.00
G1 X115.7498 Y-0.5000 Z-2.0000 F1000.00
G1 X181.0998 Y64.8500 Z-2.0000 F1000.00
G1 X182.7968 Y63.1529 Z-2.0000 F1000.00
G1 X119.1439 Y-0.5000 Z-2.0000 F1000.00
G1 X122.5381 Y-0.5000 Z-2.0000 F1000.00
G1 X184.4939 Y61.4558 Z-2.0000 F1000.00
G1 X186.1910 Y59.7588 Z-2.0000 F1000.00
G1 X125.9322 Y-0.5000 Z-2.0000 F1000.00
G1 X129.3263 Y-0.5000 Z-2.0000 F1000.00
G1 X187.8880 Y58.0617 Z-2.0000 F1000.00
G1 X189.4749 Y56.4749 Z-2.0000 F1000.00
G1 X189.5772 Y56.3568 Z-2.0000 F1000.00
G1 X132.7204 Y-0.5000 Z-2.0000 F1000.00
G1 X136.1145 Y-0.5000 Z-2.0000 F1000.00
G1 X190.4911 Y53.8766 Z-2.0000 F1000.00
G2 X189.4749 Y51.5251 Z-2.0000 I-3.4435 J0.0928 F1000.00
G1 X174.4749 Y36.5251 Z-2.0000 F1000.00
G2 X173.7965 Y36.0000 Z-2.0000 I-2.3335 J2.3137 F1000.00
G2 X174.9792 Y34.9706 Z-2.0000 I-2.3935 J-3.9438 F1000.00
G1 X139.5086 Y-0.5000 Z-2.0000 F1000.00
G1 X142.9027 Y-0.5000 Z-2.0000 F1000.00
G1 X176.6762 Y33.2735 Z-2.0000 F1000.00
G1 X178.3733 Y31.5765 Z-2.0000 F1000.00
G1 X146.2968 Y-0.5000 Z-2.0000 F1000.00
G1 X149.6910 Y-0.5000 Z-2.0000 F1000.00
G1 X180.0704 Y29.8794 Z-2.0000 F1000.00
G1 X181.7674 Y28.1823 Z-2.0000 F1000.00
G1 X153.0851 Y-0.5000 Z-2.0000 F1000.00
G1 X156.4792 Y-0.5000 Z-2.0000 F1000.00
G1 X183.4645 Y26.4853 Z-2.0000 F1000.00
G1 X185.1615 Y24.7882 Z-2.0000 F1000.00
G1 X159.8733 Y-0.5000 Z-2.0000 F1000.00
G1 X163.2674 Y-0.5000 Z-2.0000 F1000.00
G1 X186.8586 Y23.0912 Z-2.0000 F1000.00
G1 X188.5556 Y21.3941 Z-2.0000 F1000.00
G1 X166.6615 Y-0.5000 Z-2.0000 F1000.00
G1 X170.0556 Y-0.5000 Z-2.0000 F1000.00
G1 X190.1224 Y19.5668 Z-2.0000 F1000.00
G2 X189.4749 Y15.5251 Z-2.0000 I-3.1032 J-1.5755 F1000.00
G1 X174.4749 Y0.5251 Z-2.0000 F1000.00
G0 Z5.0000
(finish operation: rough_facing_1)
(begin operation: rough_facing_002)
(Path: rough_facing_002)
(rough_facing_002)
G0 Z5.0000
G0 X174.4749 Y0.5251
G0 Z3.0000
G1 X174.4749 Y0.5251 Z-2.5000 F100.00
G1 X189.4749 Y15.5251 Z-2.5000 F1000.00
G3 X190.1224 Y19.5668 Z-2.5000 I-2.4557 J2.4661 F1000.00
G1 X170.0556 Y-0.5000 Z-2.5000 F1000.00
G1 X166.6615 Y-0.5000 Z-2.5000 F1000.00
G1 X188.5556 Y21.3941 Z-2.5000 F1000.00
G1 X186.8586 Y23.0912 Z-2.5000 F1000.00
G1 X163.2674 Y-0.5000 Z-2.5000 F1000.00
G1 X159.8733 Y-0.5000 Z-2.5000 F1000.00
G1 X185.1615 Y24.7882 Z-2.5000 F1000.00
G1 X183.4645 Y26.4853 Z-2.5000 F1000.00
G1 X156.4792 Y-0.5000 Z-2.5000 F1000.00
G1 X153.0851 Y-0.5000 Z-2.5000 F1000.00
G1 X181.7674 Y28.1823 Z-2.5000 F1000.00
G1 X180.0704 Y29.8794 Z-2.5000 F1000.00
G1 X149.6910 Y-0.5000 Z-2.5000 F1000.00
G1 X146.2968 Y-0.5000 Z-2.5000 F1000.00
G1 X178.3733 Y31.5765 Z-2.5000 F1000.00
G1 X176.6762 Y33.2735 Z-2.5000 F1000.00
G1 X142.9027 Y-0.5000 Z-2.5000 F1000.00
G1 X139.5086 Y-0.5000 Z-2.5000 F1000.00
G1 X174.9792 Y34.9706 Z-2.5000 F1000.00
G3 X173.7965 Y36.0000 Z-2.5000 I-3.5762 J-2.9144 F1000.00
G3 X174.4749 Y36.5251 Z-2.5000 I-1.6552 J2.8388 F1000.00
G1 X189.4749 Y51.5251 Z-2.5000 F1000.00
G3 X190.4911 Y53.8766 Z-2.5000 I-2.4273 J2.4443 F1000.00
G1 X136.1145 Y-0.5000 Z-2.5000 F1000.00
G1 X132.7204 Y-0.5000 Z-2.5000 F1000.00
G1 X189.5772 Y56.3568 Z-2.5000 F1000.00
G1 X189.4749 Y56.4749 Z-2.5000 F1000.00
G1 X187.8880 Y58.0617 Z-2.5000 F1000.00
G1 X129.3263 Y-0.5000 Z-2.5000 F1000.00
G1 X125.9322 Y-0.5000 Z-2.5000 F1000.00
G1 X186.1910 Y59.7588 Z-2.5000 F1000.00
G1 X184.4939 Y61.4558 Z-2.5000 F1000.00
G1 X122.5381 Y-0.5000 Z-2.5000 F1000.00
G1 X119.1439 Y-0.5000 Z-2.5000 F1000.00
G1 X182.7968 Y63.1529 Z-2.5000 F1000.00
G1 X181.0998 Y64.8500 Z-2.5000 F1000.00
G1 X115.7498 Y-0.5000 Z-2.5000 F1000.00
G1 X112.3557 Y-0.5000 Z-2.5000 F1000.00
G1 X179.4027 Y66.5470 Z-2.5000 F1000.00
G1 X177.7057 Y68.2441 Z-2.5000 F1000.00
G1 X108.9616 Y-0.5000 Z-2.5000 F1000.00
G1 X105.5675 Y-0.5000 Z-2.5000 F1000.00
G1 X176.0086 Y69.9411 Z-2.5000 F1000.00
G1 X174.4749 Y71.4749 Z-2.5000 F1000.00
G1 X174.3009 Y71.6275 Z-2.5000 F1000.00
G1 X102.1734 Y-0.5000 Z-2.5000 F1000.00
G1 X98.7793 Y-0.5000 Z-2.5000 F1000.00
G1 X171.7793 Y72.5000 Z-2.5000 F1000.00
G1 X168.3852 Y72.5000 Z-2.5000 F1000.00
G1 X95.3852 Y-0.5000 Z-2.5000 F1000.00
G1 X91.9910 Y-0.5000 Z-2.5000 F1000.00
G1 X164.9910 Y72.5000 Z-2.5000 F1000.00
G1 X161.5969 Y72.5000 Z-2.5000 F1000.00
G1 X88.5969 Y-0.5000 Z-2.5000 F1000.00
G1 X85.2028 Y-0.5000 Z-2.5000 F1000.00
G1 X158.2028 Y72.5000 Z-2.5000 F1000.00
G1 X154.8087 Y72.5000 Z-2.5000 F1000.00
G1 X81.8087 Y-0.5000 Z-2.5000 F1000.00
G1 X78.4146 Y-0.5000 Z-2.5000 F1000.00
G1 X151.4146 Y72.5000 Z-2.5000 F1000.00
G1 X148.0205 Y72.5000 Z-2.5000 F1000.00
G1 X75.0205 Y-0.5000 Z-2.5000 F1000.00
G1 X71.6264 Y-0.5000 Z-2.5000 F1000.00
G1 X144.6264 Y72.5000 Z-2.5000 F1000.00
G1 X141.2323 Y72.5000 Z-2.5000 F1000.00
G1 X68.2323 Y-0.5000 Z-2.5000 F1000.00
G1 X64.8381 Y-0.5000 Z-2.5000 F1000.00
G1 X137.8381 Y72.5000 Z-2.5000 F1000.00
G1 X134.4440 Y72.5000 Z-2.5000 F1000.00
G1 X61.4440 Y-0.5000 Z-2.5000 F1000.00
G1 X58.0499 Y-0.5000 Z-2.5000 F1000.00
G1 X131.0499 Y72.5000 Z-2.5000 F1000.00
G1 X127.6558 Y72.5000 Z-2.5000 F1000.00
G1 X54.6558 Y-0.5000 Z-2.5000 F1000.00
G1 X51.2617 Y-0.5000 Z-2.5000 F1000.00
G1 X124.2617 Y72.5000 Z-2.5000 F1000.00
G1 X120.8676 Y72.5000 Z-2.5000 F1000.00
G1 X47.8676 Y-0.5000 Z-2.5000 F1000.00
G1 X44.4735 Y-0.5000 Z-2.5000 F1000.00
G1 X117.4735 Y72.5000 Z-2.5000 F1000.00
G1 X114.0794 Y72.5000 Z-2.5000 F1000.00
G1 X41.0794 Y-0.5000 Z-2.5000 F1000.00
G1 X37.6852 Y-0.5000 Z-2.5000 F1000.00
G1 X110.6852 Y72.5000 Z-2.5000 F1000.00
G1 X107.2911 Y72.5000 Z-2.5000 F1000.00
G1 X34.2911 Y-0.5000 Z-2.5000 F1000.00
G1 X30.8970 Y-0.5000 Z-2.5000 F1000.00
G1 X103.8970 Y72.5000 Z-2.5000 F1000.00
G1 X100.5029 Y72.5000 Z-2.5000 F1000.00
G1 X27.5029 Y-0.5000 Z-2.5000 F1000.00
G1 X24.1088 Y-0.5000 Z-2.5000 F1000.00
G1 X97.1088 Y72.5000 Z-2.5000 F1000.00
G1 X93.7147 Y72.5000 Z-2.5000 F1000.00
G1 X20.7147 Y-0.5000 Z-2.5000 F1000.00
G1 X18.0000 Y-0.5000 Z-2.5000 F1000.00
G2 X17.3825 Y-0.4381 Z-2.5000 I-0.0737 J2.3762 F1000.00
G1 X90.3206 Y72.5000 Z-2.5000 F1000.00
G1 X86.9265 Y72.5000 Z-2.5000 F1000.00
G1 X15.2384 Y0.8119 Z-2.5000 F1000.00
G1 X13.5413 Y2.5090 Z-2.5000 F1000.00
G1 X83.5323 Y72.5000 Z-2.5000 F1000.00
G1 X80.1382 Y72.5000 Z-2.5000 F1000.00
G1 X11.8442 Y4.2060 Z-2.5000 F1000.00
G1 X10.1472 Y5.9031 Z-2.5000 F1000.00
G1 X76.7441 Y72.5000 Z-2.5000 F1000.00
G1 X73.3500 Y72.5000 Z-2.5000 F1000.00
G1 X8.4501 Y7.6001 Z-2.5000 F1000.00
G1 X6.7531 Y9.2972 Z-2.5000 F1000.00
G1 X69.9559 Y72.5000 Z-2.5000 F1000.00
G1 X66.5618 Y72.5000 Z-2.5000 F1000.00
G1 X5.0560 Y10.9942 Z-2.5000 F1000.00
G1 X3.3590 Y12.6913 Z-2.5000 F1000.00
G1 X63.1677 Y72.5000 Z-2.5000 F1000.00
G1 X59.7736 Y72.5000 Z-2.5000 F1000.00
G1 X1.6619 Y14.3883 Z-2.5000 F1000.00
G2 X0.1981 Y15.9025 Z-2.5000 I9.8536 J10.9904 F1000.00
G1 X0.0353 Y16.1559 Z-2.5000 F1000.00
G1 X56.3794 Y72.5000 Z-2.5000 F1000.00
G1 X52.9853 Y72.5000 Z-2.5000 F1000.00
G1 X-0.2691 Y19.2456 Z-2.5000 F1000.00
G2 X0.5251 Y20.4749 Z-2.5000 I3.2474 J-1.2269 F1000.00
G1 X15.5251 Y35.4749 Z-2.5000 F1000.00
G2 X16.2035 Y36.0000 Z-2.5000 I2.3335 J-2.3137 F1000.00
G2 X15.5251 Y36.5251 Z-2.5000 I1.6552 J2.8388 F1000.00
G1 X14.5707 Y37.4795 Z-2.5000 F1000.00
G1 X49.5912 Y72.5000 Z-2.5000 F1000.00
G1 X46.1971 Y72.5000 Z-2.5000 F1000.00
G1 X12.8737 Y39.1766 Z-2.5000 F1000.00
G1 X11.1766 Y40.8736 Z-2.5000 F1000.00
G1 X42.8030 Y72.5000 Z-2.5000 F1000.00
G1 X39.4089 Y72.5000 Z-2.5000 F1000.00
G1 X9.4796 Y42.5707 Z-2.5000 F1000.00
G1 X7.7825 Y44.2677 Z-2.5000 F1000.00
G1 X36.0148 Y72.5000 Z-2.5000 F1000.00
G1 X32.6207 Y72.5000 Z-2.5000 F1000.00
G1 X6.0855 Y45.9648 Z-2.5000 F1000.00
G1 X4.3884 Y47.6619 Z-2.5000 F1000.00
G1 X29.2265 Y72.5000 Z-2.5000 F1000.00
G1 X25.8324 Y72.5000 Z-2.5000 F1000.00
G1 X2.6913 Y49.3589 Z-2.5000 F1000.00
G1 X0.9943 Y51.0560 Z-2.5000 F1000.00
G1 X22.4383 Y72.5000 Z-2.5000 F1000.00
G1 X19.0442 Y72.5000 Z-2.5000 F1000.00
G1 X18.0000 Y72.5000 Z-2.5000 F1000.00
G3 X15.5251 Y71.4749 Z-2.5000 I0.0000 J-3.5000 F1000.00
G1 X0.5251 Y56.4749 Z-2.5000 F1000.00
G3 X-0.3700 Y53.0858 Z-2.5000 I2.4450 J-2.4586 F1000.00
G1 X19.0442 Y72.5000 Z-2.5000 F1000.00
G1 X19.0442 Y72.5000 Z-3.0000 F100.00
G1 X-0.3700 Y53.0858 Z-3.0000 F1000.00
G2 X0.5251 Y56.4749 Z-3.0000 I3.3401 J0.9306 F1000.00
G1 X15.5251 Y71.4749 Z-3.0000 F1000.00
G2 X18.0000 Y72.5000 Z-3.0000 I2.4749 J-2.4749 F1000.00
G1 X19.0442 Y72.5000 Z-3.0000 F1000.00
G1 X22.4383 Y72.5000 Z-3.0000 F1000.00
G1 X0.9943 Y51.0560 Z-3.0000 F1000.00
G1 X2.6913 Y49.3589 Z-3.0000 F1000.00
G1 X25.8324 Y72.5000 Z-3.0000 F1000.00
G1 X29.2265 Y72.5000 Z-3.0000 F1000.00
G1 X4.3884 Y47.6619 Z-3.0000 F1000.00
G1 X6.0855 Y45.9648 Z-3.0000 F1000.00
G1 X32.6207 Y72.5000 Z-3.0000 F1000.00
G1 X36.0148 Y72.5000 Z-3.0000 F1000.00
G1 X7.7825 Y44.2677 Z-3.0000 F1000.00
G1 X9.4796 Y42.5707 Z-3.0000 F1000.00
G1 X39.4089 Y72.5000 Z-3.0000 F1000.00
G1 X42.8030 Y72.5000 Z-3.0000 F1000.00
G1 X11.1766 Y40.8736 Z-3.0000 F1000.00
G1 X12.8737 Y39.1766 Z-3.0000 F1000.00
G1 X46.1971 Y72.5000 Z-3.0000 F1000.00
G1 X49.5912 Y72.5000 Z-3.0000 F1000.00
G1 X14.5707 Y37.4795 Z-3.0000 F1000.00
G1 X15.5251 Y36.5251 Z-3.0000 F1000.00
G3 X16.2035 Y36.0000 Z-3.0000 I2.3335 J2.3137 F1000.00
G3 X15.5251 Y35.4749 Z-3.0000 I1.6552 J-2.8388 F1000.00
G1 X0.5251 Y20.4749 Z-3.0000 F1000.00
G3 X-0.2691 Y19.2456 Z-3.0000 I2.4532 J-2.4561 F1000.00
G1 X52.9853 Y72.5000 Z-3.0000 F1000.00
G1 X56.3794 Y72.5000 Z-3.0000 F1000.00
G1 X0.0353 Y16.1559 Z-3.0000 F1000.00
G1 X0.1981 Y15.9025 Z-3.0000 F1000.00
G3 X1.6619 Y14.3883 Z-3.0000 I11.3174 J9.4762 F1000.00
G1 X59.7736 Y72.5000 Z-3.0000 F1000.00
G1 X63.1677 Y72.5000 Z-3.0000 F1000.00
G1 X3.3590 Y12.6913 Z-3.0000 F1000.00
G1 X5.0560 Y10.9942 Z-3.0000 F1000.00
G1 X66.5618 Y72.5000 Z-3.0000 F1000.00
G1 X69.9559 Y72.5000 Z-3.0000 F1000.00
G1 X6.7531 Y9.2972 Z-3.0000 F1000.00
G1 X8.4501 Y7.6001 Z-3.0000 F1000.00
G1 X73.3500 Y72.5000 Z-3.0000 F1000.00
G1 X76.7441 Y72.5000 Z-3.0000 F1000.00
G1 X10.1472 Y5.9031 Z-3.0000 F1000.00
G1 X11.8442 Y4.2060 Z-3.0000 F1000.00
G1 X80.1382 Y72.5000 Z-3.0000 F1000.00
G1 X83.5323 Y72.5000 Z-3.0000 F1000.00
G1 X13.5413 Y2.5090 Z-3.0000 F1000.00
G1 X15.2384 Y0.8119 Z-3.0000 F1000.00
G1 X86.9265 Y72.5000 Z-3.0000 F1000.00
G1 X90.3206 Y72.5000 Z-3.0000 F1000.00
G1 X17.3825 Y-0.4381 Z-3.0000 F1000.00
G3 X18.0000 Y-0.5000 Z-3.0000 I0.5439 J2.3143 F1000.00
G1 X20.7147 Y-0.5000 Z-3.0000 F1000.00
G1 X93.7147 Y72.5000 Z-3.0000 F1000.00
G1 X97.1088 Y72.5000 Z-3.0000 F1000.00
G1 X24.1088 Y-0.5000 Z-3.0000 F1000.00
G1 X27.5029 Y-0.5000 Z-3.0000 F1000.00
G1 X100.5029 Y72.5000 Z-3.0000 F1000.00
G1 X103.8970 Y72.5000 Z-3.0000 F1000.00
G1 X30.8970 Y-0.5000 Z-3.0000 F1000.00
G1 X34.2911 Y-0.5000 Z-3.0000 F1000.00
G1 X107.2911 Y72.5000 Z-3.0000 F1000.00
G1 X110.6852 Y72.5000 Z-3.0000 F1000.00
G1 X37.6852 Y-0.5000 Z-3.0000 F1000.00
G1 X41.0794 Y-0.5000 Z-3.0000 F1000.00
G1 X114.0794 Y72.5000 Z-3.0000 F1000.00
G1 X117.4735 Y72.5000 Z-3.0000 F1000.00
G1 X44.4735 Y-0.5000 Z-3.0000 F1000.00
G1 X47.8676 Y-0.5000 Z-3.0000 F1000.00
G1 X120.8676 Y72.5000 Z-3.0000 F1000.00
G1 X124.2617 Y72.5000 Z-3.0000 F1000.00
G1 X51.2617 Y-0.5000 Z-3.0000 F1000.00
G1 X54.6558 Y-0.5000 Z-3.0000 F1000.00
G1 X127.6558 Y72.5000 Z-3.0000 F1000.00
G1 X131.0499 Y72.5000 Z-3.0000 F1000.00
G1 X58.0499 Y-0.5000 Z-3.0000 F1000.00
G1 X61.4440 Y-0.5000 Z-3.0000 F1000.00
G1 X134.4440 Y72.5000 Z-3.0000 F1000.00
G1 X137.8381 Y72.5000 Z-3.0000 F1000.00
G1 X64.8381 Y-0.5000 Z-3.0000 F1000.00
G1 X68.2323 Y-0.5000 Z-3.0000 F1000.00
G1 X141.2323 Y72.5000 Z-3.0000 F1000.00
G1 X144.6264 Y72.5000 Z-3.0000 F1000.00
G1 X71.6264 Y-0.5000 Z-3.0000 F1000.00
G1 X75.0205 Y-0.5000 Z-3.0000 F1000.00
G1 X148.0205 Y72.5000 Z-3.0000 F1000.00
G1 X151.4146 Y72.5000 Z-3.0000 F1000.00
G1 X78.4146 Y-0.5000 Z-3.0000 F1000.00
G1 X81.8087 Y-0.5000 Z-3.0000 F1000.00
G1 X154.8087 Y72.5000 Z-3.0000 F1000.00
G1 X158.2028 Y72.5000 Z-3.0000 F1000.00
G1 X85.2028 Y-0.5000 Z-3.0000 F1000.00
G1 X88.5969 Y-0.5000 Z-3.0000 F1000.00
G1 X161.5969 Y72.5000 Z-3.0000 F1000.00
G1 X164.9910 Y72.5000 Z-3.0000 F1000.00
G1 X91.9910 Y-0.5000 Z-3.0000 F1000.00
G1 X95.3852 Y-0.5000 Z-3.0000 F1000.00
G1 X168.3852 Y72.5000 Z-3.0000 F1000.00
G1 X171.7793 Y72.5000 Z-3.0000 F1000.00
G1 X98.7793 Y-0.5000 Z-3.0000 F1000.00
G1 X102.1734 Y-0.5000 Z-3.0000 F1000.00
G1 X174.3009 Y71.6275 Z-3.0000 F1000.00
G1 X174.4749 Y71.4749 Z-3.0000 F1000.00
G1 X176.0086 Y69.9411 Z-3.0000 F1000.00
G1 X105.5675 Y-0.5000 Z-3.0000 F1000.00
G1 X108.9616 Y-0.5000 Z-3.0000 F1000.00
G1 X177.7057 Y68.2441 Z-3.0000 F1000.00
G1 X179.4027 Y66.5470 Z-3.0000 F1000.00
G1 X112.3557 Y-0.5000 Z-3.0000 F1000.00
G1 X115.7498 Y-0.5000 Z-3.0000 F1000.00
G1 X181.0998 Y64.8500 Z-3.0000 F1000.00
G1 X182.7968 Y63.1529 Z-3.0000 F1000.00
G1 X119.1439 Y-0.5000 Z-3.0000 F1000.00
G1 X122.5381 Y-0.5000 Z-3.0000 F1000.00
G1 X184.4939 Y61.4558 Z-3.0000 F1000.00
G1 X186.1910 Y59.7588 Z-3.0000 F1000.00
G1 X125.9322 Y-0.5000 Z-3.0000 F1000.00
G1 X129.3263 Y-0.5000 Z-3.0000 F1000.00
G1 X187.8880 Y58.0617 Z-3.0000 F1000.00
G1 X189.4749 Y56.4749 Z-3.0000 F1000.00
G1 X189.5772 Y56.3568 Z-3.0000 F1000.00
G1 X132.7204 Y-0.5000 Z-3.0000 F1000.00
G1 X136.1145 Y-0.5000 Z-3.0000 F1000.00
G1 X190.4911 Y53.8766 Z-3.0000 F1000.00
G2 X189.4749 Y51.5251 Z-3.0000 I-3.4435 J0.0928 F1000.00
G1 X174.4749 Y36.5251 Z-3.0000 F1000.00
G2 X173.7965 Y36.0000 Z-3.0000 I-2.3335 J2.3137 F1000.00
G2 X174.9792 Y34.9706 Z-3.0000 I-2.3935 J-3.9438 F1000.00
G1 X139.5086 Y-0.5000 Z-3.0000 F1000.00
G1 X142.9027 Y-0.5000 Z-3.0000 F1000.00
G1 X176.6762 Y33.2735 Z-3.0000 F1000.00
G1 X178.3733 Y31.5765 Z-3.0000 F1000.00
G1 X146.2968 Y-0.5000 Z-3.0000 F1000.00
G1 X149.6910 Y-0.5000 Z-3.0000 F1000.00
G1 X180.0704 Y29.8794 Z-3.0000 F1000.00
G1 X181.7674 Y28.1823 Z-3.0000 F1000.00
G1 X153.0851 Y-0.5000 Z-3.0000 F1000.00
G1 X156.4792 Y-0.5000 Z-3.0000 F1000.00
G1 X183.4645 Y26.4853 Z-3.0000 F1000.00
G1 X185.1615 Y24.7882 Z-3.0000 F1000.00
G1 X159.8733 Y-0.5000 Z-3.0000 F1000.00
G1 X163.2674 Y-0.5000 Z-3.0000 F1000.00
G1 X186.8586 Y23.0912 Z-3.0000 F1000.00
G1 X188.5556 Y21.3941 Z-3.0000 F1000.00
G1 X166.6615 Y-0.5000 Z-3.0000 F1000.00
G1 X170.0556 Y-0.5000 Z-3.0000 F1000.00
G1 X190.1224 Y19.5668 Z-3.0000 F1000.00
G2 X189.4749 Y15.5251 Z-3.0000 I-3.1032 J-1.5755 F1000.00
G1 X174.4749 Y0.5251 Z-3.0000 F1000.00
G1 X174.4749 Y0.5251 Z-3.5000 F100.00
G1 X189.4749 Y15.5251 Z-3.5000 F1000.00
G3 X190.1224 Y19.5668 Z-3.5000 I-2.4557 J2.4661 F1000.00
G1 X170.0556 Y-0.5000 Z-3.5000 F1000.00
G1 X166.6615 Y-0.5000 Z-3.5000 F1000.00
G1 X188.5556 Y21.3941 Z-3.5000 F1000.00
G1 X186.8586 Y23.0912 Z-3.5000 F1000.00
G1 X163.2674 Y-0.5000 Z-3.5000 F1000.00
G1 X159.8733 Y-0.5000 Z-3.5000 F1000.00
G1 X185.1615 Y24.7882 Z-3.5000 F1000.00
G1 X183.4645 Y26.4853 Z-3.5000 F1000.00
G1 X156.4792 Y-0.5000 Z-3.5000 F1000.00
G1 X153.0851 Y-0.5000 Z-3.5000 F1000.00
G1 X181.7674 Y28.1823 Z-3.5000 F1000.00
G1 X180.0704 Y29.8794 Z-3.5000 F1000.00
G1 X149.6910 Y-0.5000 Z-3.5000 F1000.00
G1 X146.2968 Y-0.5000 Z-3.5000 F1000.00
G1 X178.3733 Y31.5765 Z-3.5000 F1000.00
G1 X176.6762 Y33.2735 Z-3.5000 F1000.00
G1 X142.9027 Y-0.5000 Z-3.5000 F1000.00
G1 X139.5086 Y-0.5000 Z-3.5000 F1000.00
G1 X174.9792 Y34.9706 Z-3.5000 F1000.00
G3 X173.7965 Y36.0000 Z-3.5000 I-3.5762 J-2.9144 F1000.00
G3 X174.4749 Y36.5251 Z-3.5000 I-1.6552 J2.8388 F1000.00
G1 X189.4749 Y51.5251 Z-3.5000 F1000.00
G3 X190.4911 Y53.8766 Z-3.5000 I-2.4273 J2.4443 F1000.00
G1 X136.1145 Y-0.5000 Z-3.5000 F1000.00
G1 X132.7204 Y-0.5000 Z-3.5000 F1000.00
G1 X189.5772 Y56.3568 Z-3.5000 F1000.00
G1 X189.4749 Y56.4749 Z-3.5000 F1000.00
G1 X187.8880 Y58.0617 Z-3.5000 F1000.00
G1 X129.3263 Y-0.5000 Z-3.5000 F1000.00
G1 X125.9322 Y-0.5000 Z-3.5000 F1000.00
G1 X186.1910 Y59.7588 Z-3.5000 F1000.00
G1 X184.4939 Y61.4558 Z-3.5000 F1000.00
G1 X122.5381 Y-0.5000 Z-3.5000 F1000.00
G1 X119.1439 Y-0.5000 Z-3.5000 F1000.00
G1 X182.7968 Y63.1529 Z-3.5000 F1000.00
G1 X181.0998 Y64.8500 Z-3.5000 F1000.00
G1 X115.7498 Y-0.5000 Z-3.5000 F1000.00
G1 X112.3557 Y-0.5000 Z-3.5000 F1000.00
G1 X179.4027 Y66.5470 Z-3.5000 F1000.00
G1 X177.7057 Y68.2441 Z-3.5000 F1000.00
G1 X108.9616 Y-0.5000 Z-3.5000 F1000.00
G1 X105.5675 Y-0.5000 Z-3.5000 F1000.00
G1 X176.0086 Y69.9411 Z-3.5000 F1000.00
G1 X174.4749 Y71.4749 Z-3.5000 F1000.00
G1 X174.3009 Y71.6275 Z-3.5000 F1000.00
G1 X102.1734 Y-0.5000 Z-3.5000 F1000.00
G1 X98.7793 Y-0.5000 Z-3.5000 F1000.00
G1 X171.7793 Y72.5000 Z-3.5000 F1000.00
G1 X168.3852 Y72.5000 Z-3.5000 F1000.00
G1 X95.3852 Y-0.5000 Z-3.5000 F1000.00
G1 X91.9910 Y-0.5000 Z-3.5000 F1000.00
G1 X164.9910 Y72.5000 Z-3.5000 F1000.00
G1 X161.5969 Y72.5000 Z-3.5000 F1000.00
G1 X88.5969 Y-0.5000 Z-3.5000 F1000.00
G1 X85.2028 Y-0.5000 Z-3.5000 F1000.00
G1 X158.2028 Y72.5000 Z-3.5000 F1000.00
G1 X154.8087 Y72.5000 Z-3.5000 F1000.00
G1 X81.8087 Y-0.5000 Z-3.5000 F1000.00
G1 X78.4146 Y-0.5000 Z-3.5000 F1000.00
G1 X151.4146 Y72.5000 Z-3.5000 F1000.00
G1 X148.0205 Y72.5000 Z-3.5000 F1000.00
G1 X75.0205 Y-0.5000 Z-3.5000 F1000.00
G1 X71.6264 Y-0.5000 Z-3.5000 F1000.00
G1 X144.6264 Y72.5000 Z-3.5000 F1000.00
G1 X141.2323 Y72.5000 Z-3.5000 F1000.00
G1 X68.2323 Y-0.5000 Z-3.5000 F1000.00
G1 X64.8381 Y-0.5000 Z-3.5000 F1000.00
G1 X137.8381 Y72.5000 Z-3.5000 F1000.00
G1 X134.4440 Y72.5000 Z-3.5000 F1000.00
G1 X61.4440 Y-0.5000 Z-3.5000 F1000.00
G1 X58.0499 Y-0.5000 Z-3.5000 F1000.00
G1 X131.0499 Y72.5000 Z-3.5000 F1000.00
G1 X127.6558 Y72.5000 Z-3.5000 F1000.00
G1 X54.6558 Y-0.5000 Z-3.5000 F1000.00
G1 X51.2617 Y-0.5000 Z-3.5000 F1000.00
G1 X124.2617 Y72.5000 Z-3.5000 F1000.00
G1 X120.8676 Y72.5000 Z-3.5000 F1000.00
G1 X47.8676 Y-0.5000 Z-3.5000 F1000.00
G1 X44.4735 Y-0.5000 Z-3.5000 F1000.00
G1 X117.4735 Y72.5000 Z-3.5000 F1000.00
G1 X114.0794 Y72.5000 Z-3.5000 F1000.00
G1 X41.0794 Y-0.5000 Z-3.5000 F1000.00
G1 X37.6852 Y-0.5000 Z-3.5000 F1000.00
G1 X110.6852 Y72.5000 Z-3.5000 F1000.00
G1 X107.2911 Y72.5000 Z-3.5000 F1000.00
G1 X34.2911 Y-0.5000 Z-3.5000 F1000.00
G1 X30.8970 Y-0.5000 Z-3.5000 F1000.00
G1 X103.8970 Y72.5000 Z-3.5000 F1000.00
G1 X100.5029 Y72.5000 Z-3.5000 F1000.00
G1 X27.5029 Y-0.5000 Z-3.5000 F1000.00
G1 X24.1088 Y-0.5000 Z-3.5000 F1000.00
G1 X97.1088 Y72.5000 Z-3.5000 F1000.00
G1 X93.7147 Y72.5000 Z-3.5000 F1000.00
G1 X20.7147 Y-0.5000 Z-3.5000 F1000.00
G1 X18.0000 Y-0.5000 Z-3.5000 F1000.00
G2 X17.3825 Y-0.4381 Z-3.5000 I-0.0737 J2.3762 F1000.00
G1 X90.3206 Y72.5000 Z-3.5000 F1000.00
G1 X86.9265 Y72.5000 Z-3.5000 F1000.00
G1 X15.2384 Y0.8119 Z-3.5000 F1000.00
G1 X13.5413 Y2.5090 Z-3.5000 F1000.00
G1 X83.5323 Y72.5000 Z-3.5000 F1000.00
G1 X80.1382 Y72.5000 Z-3.5000 F1000.00
G1 X11.8442 Y4.2060 Z-3.5000 F1000.00
G1 X10.1472 Y5.9031 Z-3.5000 F1000.00
G1 X76.7441 Y72.5000 Z-3.5000 F1000.00
G1 X73.3500 Y72.5000 Z-3.5000 F1000.00
G1 X8.4501 Y7.6001 Z-3.5000 F1000.00
G1 X6.7531 Y9.2972 Z-3.5000 F1000.00
G1 X69.9559 Y72.5000 Z-3.5000 F1000.00
G1 X66.5618 Y72.5000 Z-3.5000 F1000.00
G1 X5.0560 Y10.9942 Z-3.5000 F1000.00
G1 X3.3590 Y12.6913 Z-3.5000 F1000.00
G1 X63.1677 Y72.5000 Z-3.5000 F1000.00
G1 X59.7736 Y72.5000 Z-3.5000 F1000.00
G1 X1.6619 Y14.3883 Z-3.5000 F1000.00
G2 X0.1981 Y15.9025 Z-3.5000 I9.8536 J10.9904 F1000.00
G1 X0.0353 Y16.1559 Z-3.5000 F1000.00
G1 X56.3794 Y72.5000 Z-3.5000 F1000.00
G1 X52.9853 Y72.5000 Z-3.5000 F1000.00
G1 X-0.2691 Y19.2456 Z-3.5000 F1000.00
G2 X0.5251 Y20.4749 Z-3.5000 I3.2474 J-1.2269 F1000.00
G1 X15.5251 Y35.4749 Z-3.5000 F1000.00
G2 X16.2035 Y36.0000 Z-3.5000 I2.3335 J-2.3137 F1000.00
G2 X15.5251 Y36.5251 Z-3.5000 I1.6552 J2.8388 F1000.00
G1 X14.5707 Y37.4795 Z-3.5000 F1000.00
G1 X49.5912 Y72.5000 Z-3.5000 F1000.00
G1 X46.1971 Y72.5000 Z-3.5000 F1000.00
G1 X12.8737 Y39.1766 Z-3.5000 F1000.00
G1 X11.1766 Y40.8736 Z-3.5000 F1000.00
G1 X42.8030 Y72.5000 Z-3.5000 F1000.00
G1 X39.4089 Y72.5000 Z-3.5000 F1000.00
G1 X9.4796 Y42.5707 Z-3.5000 F1000.00
G1 X7.7825 Y44.2677 Z-3.5000 F1000.00
G1 X36.0148 Y72.5000 Z-3.5000 F1000.00
G1 X32.6207 Y72.5000 Z-3.5000 F1000.00
G1 X6.0855 Y45.9648 Z-3.5000 F1000.00
G1 X4.3884 Y47.6619 Z-3.5000 F1000.00
G1 X29.2265 Y72.5000 Z-3.5000 F1000.00
G1 X25.8324 Y72.5000 Z-3.5000 F1000.00
G1 X2.6913 Y49.3589 Z-3.5000 F1000.00
G1 X0.9943 Y51.0560 Z-3.5000 F1000.00
G1 X22.4383 Y72.5000 Z-3.5000 F1000.00
G1 X19.0442 Y72.5000 Z-3.5000 F1000.00
G1 X18.0000 Y72.5000 Z-3.5000 F1000.00
G3 X15.5251 Y71.4749 Z-3.5000 I0.0000 J-3.5000 F1000.00
G1 X0.5251 Y56.4749 Z-3.5000 F1000.00
G3 X-0.3700 Y53.0858 Z-3.5000 I2.4450 J-2.4586 F1000.00
G1 X19.0442 Y72.5000 Z-3.5000 F1000.00
G1 X19.0442 Y72.5000 Z-4.0000 F100.00
G1 X-0.3700 Y53.0858 Z-4.0000 F1000.00
G2 X0.5251 Y56.4749 Z-4.0000 I3.3401 J0.9306 F1000.00
G1 X15.5251 Y71.4749 Z-4.0000 F1000.00
G2 X18.0000 Y72.5000 Z-4.0000 I2.4749 J-2.4749 F1000.00
G1 X19.0442 Y72.5000 Z-4.0000 F1000.00
G1 X22.4383 Y72.5000 Z-4.0000 F1000.00
G1 X0.9943 Y51.0560 Z-4.0000 F1000.00
G1 X2.6913 Y49.3589 Z-4.0000 F1000.00
G1 X25.8324 Y72.5000 Z-4.0000 F1000.00
G1 X29.2265 Y72.5000 Z-4.0000 F1000.00
G1 X4.3884 Y47.6619 Z-4.0000 F1000.00
G1 X6.0855 Y45.9648 Z-4.0000 F1000.00
G1 X32.6207 Y72.5000 Z-4.0000 F1000.00
G1 X36.0148 Y72.5000 Z-4.0000 F1000.00
G1 X7.7825 Y44.2677 Z-4.0000 F1000.00
G1 X9.4796 Y42.5707 Z-4.0000 F1000.00
G1 X39.4089 Y72.5000 Z-4.0000 F1000.00
G1 X42.8030 Y72.5000 Z-4.0000 F1000.00
G1 X11.1766 Y40.8736 Z-4.0000 F1000.00
G1 X12.8737 Y39.1766 Z-4.0000 F1000.00
G1 X46.1971 Y72.5000 Z-4.0000 F1000.00
G1 X49.5912 Y72.5000 Z-4.0000 F1000.00
G1 X14.5707 Y37.4795 Z-4.0000 F1000.00
G1 X15.5251 Y36.5251 Z-4.0000 F1000.00
G3 X16.2035 Y36.0000 Z-4.0000 I2.3335 J2.3137 F1000.00
G3 X15.5251 Y35.4749 Z-4.0000 I1.6552 J-2.8388 F1000.00
G1 X0.5251 Y20.4749 Z-4.0000 F1000.00
G3 X-0.2691 Y19.2456 Z-4.0000 I2.4532 J-2.4561 F1000.00
G1 X52.9853 Y72.5000 Z-4.0000 F1000.00
G1 X56.3794 Y72.5000 Z-4.0000 F1000.00
G1 X0.0353 Y16.1559 Z-4.0000 F1000.00
G1 X0.1981 Y15.9025 Z-4.0000 F1000.00
G3 X1.6619 Y14.3883 Z-4.0000 I11.3174 J9.4762 F1000.00
G1 X59.7736 Y72.5000 Z-4.0000 F1000.00
G1 X63.1677 Y72.5000 Z-4.0000 F1000.00
G1 X3.3590 Y12.6913 Z-4.0000 F1000.00
G1 X5.0560 Y10.9942 Z-4.0000 F1000.00
G1 X66.5618 Y72.5000 Z-4.0000 F1000.00
G1 X69.9559 Y72.5000 Z-4.0000 F1000.00
G1 X6.7531 Y9.2972 Z-4.0000 F1000.00
G1 X8.4501 Y7.6001 Z-4.0000 F1000.00
G1 X73.3500 Y72.5000 Z-4.0000 F1000.00
G1 X76.7441 Y72.5000 Z-4.0000 F1000.00
G1 X10.1472 Y5.9031 Z-4.0000 F1000.00
G1 X11.8442 Y4.2060 Z-4.0000 F1000.00
G1 X80.1382 Y72.5000 Z-4.0000 F1000.00
G1 X83.5323 Y72.5000 Z-4.0000 F1000.00
G1 X13.5413 Y2.5090 Z-4.0000 F1000.00
G1 X15.2384 Y0.8119 Z-4.0000 F1000.00
G1 X86.9265 Y72.5000 Z-4.0000 F1000.00
G1 X90.3206 Y72.5000 Z-4.0000 F1000.00
G1 X17.3825 Y-0.4381 Z-4.0000 F1000.00
G3 X18.0000 Y-0.5000 Z-4.0000 I0.5439 J2.3143 F1000.00
G1 X20.7147 Y-0.5000 Z-4.0000 F1000.00
G1 X93.7147 Y72.5000 Z-4.0000 F1000.00
G1 X97.1088 Y72.5000 Z-4.0000 F1000.00
G1 X24.1088 Y-0.5000 Z-4.0000 F1000.00
G1 X27.5029 Y-0.5000 Z-4.0000 F1000.00
G1 X100.5029 Y72.5000 Z-4.0000 F1000.00
G1 X103.8970 Y72.5000 Z-4.0000 F1000.00
G1 X30.8970 Y-0.5000 Z-4.0000 F1000.00
G1 X34.2911 Y-0.5000 Z-4.0000 F1000.00
G1 X107.2911 Y72.5000 Z-4.0000 F1000.00
G1 X110.6852 Y72.5000 Z-4.0000 F1000.00
G1 X37.6852 Y-0.5000 Z-4.0000 F1000.00
G1 X41.0794 Y-0.5000 Z-4.0000 F1000.00
G1 X114.0794 Y72.5000 Z-4.0000 F1000.00
G1 X117.4735 Y72.5000 Z-4.0000 F1000.00
G1 X44.4735 Y-0.5000 Z-4.0000 F1000.00
G1 X47.8676 Y-0.5000 Z-4.0000 F1000.00
G1 X120.8676 Y72.5000 Z-4.0000 F1000.00
G1 X124.2617 Y72.5000 Z-4.0000 F1000.00
G1 X51.2617 Y-0.5000 Z-4.0000 F1000.00
G1 X54.6558 Y-0.5000 Z-4.0000 F1000.00
G1 X127.6558 Y72.5000 Z-4.0000 F1000.00
G1 X131.0499 Y72.5000 Z-4.0000 F1000.00
G1 X58.0499 Y-0.5000 Z-4.0000 F1000.00
G1 X61.4440 Y-0.5000 Z-4.0000 F1000.00
G1 X134.4440 Y72.5000 Z-4.0000 F1000.00
G1 X137.8381 Y72.5000 Z-4.0000 F1000.00
G1 X64.8381 Y-0.5000 Z-4.0000 F1000.00
G1 X68.2323 Y-0.5000 Z-4.0000 F1000.00
G1 X141.2323 Y72.5000 Z-4.0000 F1000.00
G1 X144.6264 Y72.5000 Z-4.0000 F1000.00
G1 X71.6264 Y-0.5000 Z-4.0000 F1000.00
G1 X75.0205 Y-0.5000 Z-4.0000 F1000.00
G1 X148.0205 Y72.5000 Z-4.0000 F1000.00
G1 X151.4146 Y72.5000 Z-4.0000 F1000.00
G1 X78.4146 Y-0.5000 Z-4.0000 F1000.00
G1 X81.8087 Y-0.5000 Z-4.0000 F1000.00
G1 X154.8087 Y72.5000 Z-4.0000 F1000.00
G1 X158.2028 Y72.5000 Z-4.0000 F1000.00
G1 X85.2028 Y-0.5000 Z-4.0000 F1000.00
G1 X88.5969 Y-0.5000 Z-4.0000 F1000.00
G1 X161.5969 Y72.5000 Z-4.0000 F1000.00
G1 X164.9910 Y72.5000 Z-4.0000 F1000.00
G1 X91.9910 Y-0.5000 Z-4.0000 F1000.00
G1 X95.3852 Y-0.5000 Z-4.0000 F1000.00
G1 X168.3852 Y72.5000 Z-4.0000 F1000.00
G1 X171.7793 Y72.5000 Z-4.0000 F1000.00
G1 X98.7793 Y-0.5000 Z-4.0000 F1000.00
G1 X102.1734 Y-0.5000 Z-4.0000 F1000.00
G1 X174.3009 Y71.6275 Z-4.0000 F1000.00
G1 X174.4749 Y71.4749 Z-4.0000 F1000.00
G1 X176.0086 Y69.9411 Z-4.0000 F1000.00
G1 X105.5675 Y-0.5000 Z-4.0000 F1000.00
G1 X108.9616 Y-0.5000 Z-4.0000 F1000.00
G1 X177.7057 Y68.2441 Z-4.0000 F1000.00
G1 X179.4027 Y66.5470 Z-4.0000 F1000.00
G1 X112.3557 Y-0.5000 Z-4.0000 F1000.00
G1 X115.7498 Y-0.5000 Z-4.0000 F1000.00
G1 X181.0998 Y64.8500 Z-4.0000 F1000.00
G1 X182.7968 Y63.1529 Z-4.0000 F1000.00
G1 X119.1439 Y-0.5000 Z-4.0000 F1000.00
G1 X122.5381 Y-0.5000 Z-4.0000 F1000.00
G1 X184.4939 Y61.4558 Z-4.0000 F1000.00
G1 X186.1910 Y59.7588 Z-4.0000 F1000.00
G1 X125.9322 Y-0.5000 Z-4.0000 F1000.00
G1 X129.3263 Y-0.5000 Z-4.0000 F1000.00
G1 X187.8880 Y58.0617 Z-4.0000 F1000.00
G1 X189.4749 Y56.4749 Z-4.0000 F1000.00
G1 X189.5772 Y56.3568 Z-4.0000 F1000.00
G1 X132.7204 Y-0.5000 Z-4.0000 F1000.00
G1 X136.1145 Y-0.5000 Z-4.0000 F1000.00
G1 X190.4911 Y53.8766 Z-4.0000 F1000.00
G2 X189.4749 Y51.5251 Z-4.0000 I-3.4435 J0.0928 F1000.00
G1 X174.4749 Y36.5251 Z-4.0000 F1000.00
G2 X173.7965 Y36.0000 Z-4.0000 I-2.3335 J2.3137 F1000.00
G2 X174.9792 Y34.9706 Z-4.0000 I-2.3935 J-3.9438 F1000.00
G1 X139.5086 Y-0.5000 Z-4.0000 F1000.00
G1 X142.9027 Y-0.5000 Z-4.0000 F1000.00
G1 X176.6762 Y33.2735 Z-4.0000 F1000.00
G1 X178.3733 Y31.5765 Z-4.0000 F1000.00
G1 X146.2968 Y-0.5000 Z-4.0000 F1000.00
G1 X149.6910 Y-0.5000 Z-4.0000 F1000.00
G1 X180.0704 Y29.8794 Z-4.0000 F1000.00
G1 X181.7674 Y28.1823 Z-4.0000 F1000.00
G1 X153.0851 Y-0.5000 Z-4.0000 F1000.00
G1 X156.4792 Y-0.5000 Z-4.0000 F1000.00
G1 X183.4645 Y26.4853 Z-4.0000 F1000.00
G1 X185.1615 Y24.7882 Z-4.0000 F1000.00
G1 X159.8733 Y-0.5000 Z-4.0000 F1000.00
G1 X163.2674 Y-0.5000 Z-4.0000 F1000.00
G1 X186.8586 Y23.0912 Z-4.0000 F1000.00
G1 X188.5556 Y21.3941 Z-4.0000 F1000.00
G1 X166.6615 Y-0.5000 Z-4.0000 F1000.00
G1 X170.0556 Y-0.5000 Z-4.0000 F1000.00
G1 X190.1224 Y19.5668 Z-4.0000 F1000.00
G2 X189.4749 Y15.5251 Z-4.0000 I-3.1032 J-1.5755 F1000.00
G1 X174.4749 Y0.5251 Z-4.0000 F1000.00
G0 Z5.0000
(finish operation: rough_facing_002)
(begin operation: rough_facing_003)
(Path: rough_facing_003)
(rough_facing_003)
G0 Z5.0000
G0 X174.4749 Y0.5251
G0 Z3.0000
G1 X174.4749 Y0.5251 Z-4.5000 F100.00
G1 X189.4749 Y15.5251 Z-4.5000 F1000.00
G3 X190.1224 Y19.5668 Z-4.5000 I-2.4557 J2.4661 F1000.00
G1 X170.0556 Y-0.5000 Z-4.5000 F1000.00
G1 X166.6615 Y-0.5000 Z-4.5000 F1000.00
G1 X188.5556 Y21.3941 Z-4.5000 F1000.00
G1 X186.8586 Y23.0912 Z-4.5000 F1000.00
G1 X163.2674 Y-0.5000 Z-4.5000 F1000.00
G1 X159.8733 Y-0.5000 Z-4.5000 F1000.00
G1 X185.1615 Y24.7882 Z-4.5000 F1000.00
G1 X183.4645 Y26.4853 Z-4.5000 F1000.00
G1 X156.4792 Y-0.5000 Z-4.5000 F1000.00
G1 X153.0851 Y-0.5000 Z-4.5000 F1000.00
G1 X181.7674 Y28.1823 Z-4.5000 F1000.00
G1 X180.0704 Y29.8794 Z-4.5000 F1000.00
G1 X149.6910 Y-0.5000 Z-4.5000 F1000.00
G1 X146.2968 Y-0.5000 Z-4.5000 F1000.00
G1 X178.3733 Y31.5765 Z-4.5000 F1000.00
G1 X176.6762 Y33.2735 Z-4.5000 F1000.00
G1 X142.9027 Y-0.5000 Z-4.5000 F1000.00
G1 X139.5086 Y-0.5000 Z-4.5000 F1000.00
G1 X174.9792 Y34.9706 Z-4.5000 F1000.00
G3 X173.7965 Y36.0000 Z-4.5000 I-3.5762 J-2.9144 F1000.00
G3 X174.4749 Y36.5251 Z-4.5000 I-1.6552 J2.8388 F1000.00
G1 X189.4749 Y51.5251 Z-4.5000 F1000.00
G3 X190.4911 Y53.8766 Z-4.5000 I-2.4273 J2.4443 F1000.00
G1 X136.1145 Y-0.5000 Z-4.5000 F1000.00
G1 X132.7204 Y-0.5000 Z-4.5000 F1000.00
G1 X189.5772 Y56.3568 Z-4.5000 F1000.00
G1 X189.4749 Y56.4749 Z-4.5000 F1000.00
G1 X187.8880 Y58.0617 Z-4.5000 F1000.00
G1 X129.3263 Y-0.5000 Z-4.5000 F1000.00
G1 X125.9322 Y-0.5000 Z-4.5000 F1000.00
G1 X186.1910 Y59.7588 Z-4.5000 F1000.00
G1 X184.4939 Y61.4558 Z-4.5000 F1000.00
G1 X122.5381 Y-0.5000 Z-4.5000 F1000.00
G1 X119.1439 Y-0.5000 Z-4.5000 F1000.00
G1 X182.7968 Y63.1529 Z-4.5000 F1000.00
G1 X181.0998 Y64.8500 Z-4.5000 F1000.00
G1 X115.7498 Y-0.5000 Z-4.5000 F1000.00
G1 X112.3557 Y-0.5000 Z-4.5000 F1000.00
G1 X179.4027 Y66.5470 Z-4.5000 F1000.00
G1 X177.7057 Y68.2441 Z-4.5000 F1000.00
G1 X108.9616 Y-0.5000 Z-4.5000 F1000.00
G1 X105.5675 Y-0.5000 Z-4.5000 F1000.00
G1 X176.0086 Y69.9411 Z-4.5000 F1000.00
G1 X174.4749 Y71.4749 Z-4.5000 F1000.00
G1 X174.3009 Y71.6275 Z-4.5000 F1000.00
G1 X102.1734 Y-0.5000 Z-4.5000 F1000.00
G1 X98.7793 Y-0.5000 Z-4.5000 F1000.00
G1 X171.7793 Y72.5000 Z-4.5000 F1000.00
G1 X168.3852 Y72.5000 Z-4.5000 F1000.00
G1 X95.3852 Y-0.5000 Z-4.5000 F1000.00
G1 X91.9910 Y-0.5000 Z-4.5000 F1000.00
G1 X164.9910 Y72.5000 Z-4.5000 F1000.00
G1 X161.5969 Y72.5000 Z-4.5000 F1000.00
G1 X88.5969 Y-0.5000 Z-4.5000 F1000.00
G1 X85.2028 Y-0.5000 Z-4.5000 F1000.00
G1 X158.2028 Y72.5000 Z-4.5000 F1000.00
G1 X154.8087 Y72.5000 Z-4.5000 F1000.00
G1 X81.8087 Y-0.5000 Z-4.5000 F1000.00
G1 X78.4146 Y-0.5000 Z-4.5000 F1000.00
G1 X151.4146 Y72.5000 Z-4.5000 F1000.00
G1 X148.0205 Y72.5000 Z-4.5000 F1000.00
G1 X75.0205 Y-0.5000 Z-4.5000 F1000.00
G1 X71.6264 Y-0.5000 Z-4.5000 F1000.00
G1 X144.6264 Y72.5000 Z-4.5000 F1000.00
G1 X141.2323 Y72.5000 Z-4.5000 F1000.00
G1 X68.2323 Y-0.5000 Z-4.5000 F1000.00
G1 X64.8381 Y-0.5000 Z-4.5000 F1000.00
G1 X137.8381 Y72.5000 Z-4.5000 F1000.00
G1 X134.4440 Y72.5000 Z-4.5000 F1000.00
G1 X61.4440 Y-0.5000 Z-4.5000 F1000.00
G1 X58.0499 Y-0.5000 Z-4.5000 F1000.00
G1 X131.0499 Y72.5000 Z-4.5000 F1000.00
G1 X127.6558 Y72.5000 Z-4.5000 F1000.00
G1 X54.6558 Y-0.5000 Z-4.5000 F1000.00
G1 X51.2617 Y-0.5000 Z-4.5000 F1000.00
G1 X124.2617 Y72.5000 Z-4.5000 F1000.00
G1 X120.8676 Y72.5000 Z-4.5000 F1000.00
G1 X47.8676 Y-0.5000 Z-4.5000 F1000.00
G1 X44.4735 Y-0.5000 Z-4.5000 F1000.00
G1 X117.4735 Y72.5000 Z-4.5000 F1000.00
G1 X114.0794 Y72.5000 Z-4.5000 F1000.00
G1 X41.0794 Y-0.5000 Z-4.5000 F1000.00
G1 X37.6852 Y-0.5000 Z-4.5000 F1000.00
G1 X110.6852 Y72.5000 Z-4.5000 F1000.00
G1 X107.2911 Y72.5000 Z-4.5000 F1000.00
G1 X34.2911 Y-0.5000 Z-4.5000 F1000.00
G1 X30.8970 Y-0.5000 Z-4.5000 F1000.00
G1 X103.8970 Y72.5000 Z-4.5000 F1000.00
G1 X100.5029 Y72.5000 Z-4.5000 F1000.00
G1 X27.5029 Y-0.5000 Z-4.5000 F1000.00
G1 X24.1088 Y-0.5000 Z-4.5000 F1000.00
G1 X97.1088 Y72.5000 Z-4.5000 F1000.00
G1 X93.7147 Y72.5000 Z-4.5000 F1000.00
G1 X20.7147 Y-0.5000 Z-4.5000 F1000.00
G1 X18.0000 Y-0.5000 Z-4.5000 F1000.00
G2 X17.3825 Y-0.4381 Z-4.5000 I-0.0737 J2.3762 F1000.00
G1 X90.3206 Y72.5000 Z-4.5000 F1000.00
G1 X86.9265 Y72.5000 Z-4.5000 F1000.00
G1 X15.2384 Y0.8119 Z-4.5000 F1000.00
G1 X13.5413 Y2.5090 Z-4.5000 F1000.00
G1 X83.5323 Y72.5000 Z-4.5000 F1000.00
G1 X80.1382 Y72.5000 Z-4.5000 F1000.00
G1 X11.8442 Y4.2060 Z-4.5000 F1000.00
G1 X10.1472 Y5.9031 Z-4.5000 F1000.00
G1 X76.7441 Y72.5000 Z-4.5000 F1000.00
G1 X73.3500 Y72.5000 Z-4.5000 F1000.00
G1 X8.4501 Y7.6001 Z-4.5000 F1000.00
G1 X6.7531 Y9.2972 Z-4.5000 F1000.00
G1 X69.9559 Y72.5000 Z-4.5000 F1000.00
G1 X66.5618 Y72.5000 Z-4.5000 F1000.00
G1 X5.0560 Y10.9942 Z-4.5000 F1000.00
G1 X3.3590 Y12.6913 Z-4.5000 F1000.00
G1 X63.1677 Y72.5000 Z-4.5000 F1000.00
G1 X59.7736 Y72.5000 Z-4.5000 F1000.00
G1 X1.6619 Y14.3883 Z-4.5000 F1000.00
G2 X0.1981 Y15.9025 Z-4.5000 I9.8536 J10.9904 F1000.00
G1 X0.0353 Y16.1559 Z-4.5000 F1000.00
G1 X56.3794 Y72.5000 Z-4.5000 F1000.00
G1 X52.9853 Y72.5000 Z-4.5000 F1000.00
G1 X-0.2691 Y19.2456 Z-4.5000 F1000.00
G2 X0.5251 Y20.4749 Z-4.5000 I3.2474 J-1.2269 F1000.00
G1 X15.5251 Y35.4749 Z-4.5000 F1000.00
G2 X16.2035 Y36.0000 Z-4.5000 I2.3335 J-2.3137 F1000.00
G2 X15.5251 Y36.5251 Z-4.5000 I1.6552 J2.8388 F1000.00
G1 X14.5707 Y37.4795 Z-4.5000 F1000.00
G1 X49.5912 Y72.5000 Z-4.5000 F1000.00
G1 X46.1971 Y72.5000 Z-4.5000 F1000.00
G1 X12.8737 Y39.1766 Z-4.5000 F1000.00
G1 X11.1766 Y40.8736 Z-4.5000 F1000.00
G1 X42.8030 Y72.5000 Z-4.5000 F1000.00
G1 X39.4089 Y72.5000 Z-4.5000 F1000.00
G1 X9.4796 Y42.5707 Z-4.5000 F1000.00
G1 X7.7825 Y44.2677 Z-4.5000 F1000.00
G1 X36.0148 Y72.5000 Z-4.5000 F1000.00
G1 X32.6207 Y72.5000 Z-4.5000 F1000.00
G1 X6.0855 Y45.9648 Z-4.5000 F1000.00
G1 X4.3884 Y47.6619 Z-4.5000 F1000.00
G1 X29.2265 Y72.5000 Z-4.5000 F1000.00
G1 X25.8324 Y72.5000 Z-4.5000 F1000.00
G1 X2.6913 Y49.3589 Z-4.5000 F1000.00
G1 X0.9943 Y51.0560 Z-4.5000 F1000.00
G1 X22.4383 Y72.5000 Z-4.5000 F1000.00
G1 X19.0442 Y72.5000 Z-4.5000 F1000.00
G1 X18.0000 Y72.5000 Z-4.5000 F1000.00
G3 X15.5251 Y71.4749 Z-4.5000 I0.0000 J-3.5000 F1000.00
G1 X0.5251 Y56.4749 Z-4.5000 F1000.00
G3 X-0.3700 Y53.0858 Z-4.5000 I2.4450 J-2.4586 F1000.00
G1 X19.0442 Y72.5000 Z-4.5000 F1000.00
G1 X19.0442 Y72.5000 Z-5.0000 F100.00
G1 X-0.3700 Y53.0858 Z-5.0000 F1000.00
G2 X0.5251 Y56.4749 Z-5.0000 I3.3401 J0.9306 F1000.00
G1 X15.5251 Y71.4749 Z-5.0000 F1000.00
G2 X18.0000 Y72.5000 Z-5.0000 I2.4749 J-2.4749 F1000.00
G1 X19.0442 Y72.5000 Z-5.0000 F1000.00
G1 X22.4383 Y72.5000 Z-5.0000 F1000.00
G1 X0.9943 Y51.0560 Z-5.0000 F1000.00
G1 X2.6913 Y49.3589 Z-5.0000 F1000.00
G1 X25.8324 Y72.5000 Z-5.0000 F1000.00
G1 X29.2265 Y72.5000 Z-5.0000 F1000.00
G1 X4.3884 Y47.6619 Z-5.0000 F1000.00
G1 X6.0855 Y45.9648 Z-5.0000 F1000.00
G1 X32.6207 Y72.5000 Z-5.0000 F1000.00
G1 X36.0148 Y72.5000 Z-5.0000 F1000.00
G1 X7.7825 Y44.2677 Z-5.0000 F1000.00
G1 X9.4796 Y42.5707 Z-5.0000 F1000.00
G1 X39.4089 Y72.5000 Z-5.0000 F1000.00
G1 X42.8030 Y72.5000 Z-5.0000 F1000.00
G1 X11.1766 Y40.8736 Z-5.0000 F1000.00
G1 X12.8737 Y39.1766 Z-5.0000 F1000.00
G1 X46.1971 Y72.5000 Z-5.0000 F1000.00
G1 X49.5912 Y72.5000 Z-5.0000 F1000.00
G1 X14.5707 Y37.4795 Z-5.0000 F1000.00
G1 X15.5251 Y36.5251 Z-5.0000 F1000.00
G3 X16.2035 Y36.0000 Z-5.0000 I2.3335 J2.3137 F1000.00
G3 X15.5251 Y35.4749 Z-5.0000 I1.6552 J-2.8388 F1000.00
G1 X0.5251 Y20.4749 Z-5.0000 F1000.00
G3 X-0.2691 Y19.2456 Z-5.0000 I2.4532 J-2.4561 F1000.00
G1 X52.9853 Y72.5000 Z-5.0000 F1000.00
G1 X56.3794 Y72.5000 Z-5.0000 F1000.00
G1 X0.0353 Y16.1559 Z-5.0000 F1000.00
G1 X0.1981 Y15.9025 Z-5.0000 F1000.00
G3 X1.6619 Y14.3883 Z-5.0000 I11.3174 J9.4762 F1000.00
G1 X59.7736 Y72.5000 Z-5.0000 F1000.00
G1 X63.1677 Y72.5000 Z-5.0000 F1000.00
G1 X3.3590 Y12.6913 Z-5.0000 F1000.00
G1 X5.0560 Y10.9942 Z-5.0000 F1000.00
G1 X66.5618 Y72.5000 Z-5.0000 F1000.00
G1 X69.9559 Y72.5000 Z-5.0000 F1000.00
G1 X6.7531 Y9.2972 Z-5.0000 F1000.00
G1 X8.4501 Y7.6001 Z-5.0000 F1000.00
G1 X73.3500 Y72.5000 Z-5.0000 F1000.00
G1 X76.7441 Y72.5000 Z-5.0000 F1000.00
G1 X10.1472 Y5.9031 Z-5.0000 F1000.00
G1 X11.8442 Y4.2060 Z-5.0000 F1000.00
G1 X80.1382 Y72.5000 Z-5.0000 F1000.00
G1 X83.5323 Y72.5000 Z-5.0000 F1000.00
G1 X13.5413 Y2.5090 Z-5.0000 F1000.00
G1 X15.2384 Y0.8119 Z-5.0000 F1000.00
G1 X86.9265 Y72.5000 Z-5.0000 F1000.00
G1 X90.3206 Y72.5000 Z-5.0000 F1000.00
G1 X17.3825 Y-0.4381 Z-5.0000 F1000.00
G3 X18.0000 Y-0.5000 Z-5.0000 I0.5439 J2.3143 F1000.00
G1 X20.7147 Y-0.5000 Z-5.0000 F1000.00
G1 X93.7147 Y72.5000 Z-5.0000 F1000.00
G1 X97.1088 Y72.5000 Z-5.0000 F1000.00
G1 X24.1088 Y-0.5000 Z-5.0000 F1000.00
G1 X27.5029 Y-0.5000 Z-5.0000 F1000.00
G1 X100.5029 Y72.5000 Z-5.0000 F1000.00
G1 X103.8970 Y72.5000 Z-5.0000 F1000.00
G1 X30.8970 Y-0.5000 Z-5.0000 F1000.00
G1 X34.2911 Y-0.5000 Z-5.0000 F1000.00
G1 X107.2911 Y72.5000 Z-5.0000 F1000.00
G1 X110.6852 Y72.5000 Z-5.0000 F1000.00
G1 X37.6852 Y-0.5000 Z-5.0000 F1000.00
G1 X41.0794 Y-0.5000 Z-5.0000 F1000.00
G1 X114.0794 Y72.5000 Z-5.0000 F1000.00
G1 X117.4735 Y72.5000 Z-5.0000 F1000.00
G1 X44.4735 Y-0.5000 Z-5.0000 F1000.00
G1 X47.8676 Y-0.5000 Z-5.0000 F1000.00
G1 X120.8676 Y72.5000 Z-5.0000 F1000.00
G1 X124.2617 Y72.5000 Z-5.0000 F1000.00
G1 X51.2617 Y-0.5000 Z-5.0000 F1000.00
G1 X54.6558 Y-0.5000 Z-5.0000 F1000.00
G1 X127.6558 Y72.5000 Z-5.0000 F1000.00
G1 X131.0499 Y72.5000 Z-5.0000 F1000.00
G1 X58.0499 Y-0.5000 Z-5.0000 F1000.00
G1 X61.4440 Y-0.5000 Z-5.0000 F1000.00
G1 X134.4440 Y72.5000 Z-5.0000 F1000.00
G1 X137.8381 Y72.5000 Z-5.0000 F1000.00
G1 X64.8381 Y-0.5000 Z-5.0000 F1000.00
G1 X68.2323 Y-0.5000 Z-5.0000 F1000.00
G1 X141.2323 Y72.5000 Z-5.0000 F1000.00
G1 X144.6264 Y72.5000 Z-5.0000 F1000.00
G1 X71.6264 Y-0.5000 Z-5.0000 F1000.00
G1 X75.0205 Y-0.5000 Z-5.0000 F1000.00
G1 X148.0205 Y72.5000 Z-5.0000 F1000.00
G1 X151.4146 Y72.5000 Z-5.0000 F1000.00
G1 X78.4146 Y-0.5000 Z-5.0000 F1000.00
G1 X81.8087 Y-0.5000 Z-5.0000 F1000.00
G1 X154.8087 Y72.5000 Z-5.0000 F1000.00
G1 X158.2028 Y72.5000 Z-5.0000 F1000.00
G1 X85.2028 Y-0.5000 Z-5.0000 F1000.00
G1 X88.5969 Y-0.5000 Z-5.0000 F1000.00
G1 X161.5969 Y72.5000 Z-5.0000 F1000.00
G1 X164.9910 Y72.5000 Z-5.0000 F1000.00
G1 X91.9910 Y-0.5000 Z-5.0000 F1000.00
G1 X95.3852 Y-0.5000 Z-5.0000 F1000.00
G1 X168.3852 Y72.5000 Z-5.0000 F1000.00
G1 X171.7793 Y72.5000 Z-5.0000 F1000.00
G1 X98.7793 Y-0.5000 Z-5.0000 F1000.00
G1 X102.1734 Y-0.5000 Z-5.0000 F1000.00
G1 X174.3009 Y71.6275 Z-5.0000 F1000.00
G1 X174.4749 Y71.4749 Z-5.0000 F1000.00
G1 X176.0086 Y69.9411 Z-5.0000 F1000.00
G1 X105.5675 Y-0.5000 Z-5.0000 F1000.00
G1 X108.9616 Y-0.5000 Z-5.0000 F1000.00
G1 X177.7057 Y68.2441 Z-5.0000 F1000.00
G1 X179.4027 Y66.5470 Z-5.0000 F1000.00
G1 X112.3557 Y-0.5000 Z-5.0000 F1000.00
G1 X115.7498 Y-0.5000 Z-5.0000 F1000.00
G1 X181.0998 Y64.8500 Z-5.0000 F1000.00
G1 X182.7968 Y63.1529 Z-5.0000 F1000.00
G1 X119.1439 Y-0.5000 Z-5.0000 F1000.00
G1 X122.5381 Y-0.5000 Z-5.0000 F1000.00
G1 X184.4939 Y61.4558 Z-5.0000 F1000.00
G1 X186.1910 Y59.7588 Z-5.0000 F1000.00
G1 X125.9322 Y-0.5000 Z-5.0000 F1000.00
G1 X129.3263 Y-0.5000 Z-5.0000 F1000.00
G1 X187.8880 Y58.0617 Z-5.0000 F1000.00
G1 X189.4749 Y56.4749 Z-5.0000 F1000.00
G1 X189.5772 Y56.3568 Z-5.0000 F1000.00
G1 X132.7204 Y-0.5000 Z-5.0000 F1000.00
G1 X136.1145 Y-0.5000 Z-5.0000 F1000.00
G1 X190.4911 Y53.8766 Z-5.0000 F1000.00
G2 X189.4749 Y51.5251 Z-5.0000 I-3.4435 J0.0928 F1000.00
G1 X174.4749 Y36.5251 Z-5.0000 F1000.00
G2 X173.7965 Y36.0000 Z-5.0000 I-2.3335 J2.3137 F1000.00
G2 X174.9792 Y34.9706 Z-5.0000 I-2.3935 J-3.9438 F1000.00
G1 X139.5086 Y-0.5000 Z-5.0000 F1000.00
G1 X142.9027 Y-0.5000 Z-5.0000 F1000.00
G1 X176.6762 Y33.2735 Z-5.0000 F1000.00
G1 X178.3733 Y31.5765 Z-5.0000 F1000.00
G1 X146.2968 Y-0.5000 Z-5.0000 F1000.00
G1 X149.6910 Y-0.5000 Z-5.0000 F1000.00
G1 X180.0704 Y29.8794 Z-5.0000 F1000.00
G1 X181.7674 Y28.1823 Z-5.0000 F1000.00
G1 X153.0851 Y-0.5000 Z-5.0000 F1000.00
G1 X156.4792 Y-0.5000 Z-5.0000 F1000.00
G1 X183.4645 Y26.4853 Z-5.0000 F1000.00
G1 X185.1615 Y24.7882 Z-5.0000 F1000.00
G1 X159.8733 Y-0.5000 Z-5.0000 F1000.00
G1 X163.2674 Y-0.5000 Z-5.0000 F1000.00
G1 X186.8586 Y23.0912 Z-5.0000 F1000.00
G1 X188.5556 Y21.3941 Z-5.0000 F1000.00
G1 X166.6615 Y-0.5000 Z-5.0000 F1000.00
G1 X170.0556 Y-0.5000 Z-5.0000 F1000.00
G1 X190.1224 Y19.5668 Z-5.0000 F1000.00
G2 X189.4749 Y15.5251 Z-5.0000 I-3.1032 J-1.5755 F1000.00
G1 X174.4749 Y0.5251 Z-5.0000 F1000.00
G1 X174.4749 Y0.5251 Z-5.5000 F100.00
G1 X189.4749 Y15.5251 Z-5.5000 F1000.00
G3 X190.1224 Y19.5668 Z-5.5000 I-2.4557 J2.4661 F1000.00
G1 X170.0556 Y-0.5000 Z-5.5000 F1000.00
G1 X166.6615 Y-0.5000 Z-5.5000 F1000.00
G1 X188.5556 Y21.3941 Z-5.5000 F1000.00
G1 X186.8586 Y23.0912 Z-5.5000 F1000.00
G1 X163.2674 Y-0.5000 Z-5.5000 F1000.00
G1 X159.8733 Y-0.5000 Z-5.5000 F1000.00
G1 X185.1615 Y24.7882 Z-5.5000 F1000.00
G1 X183.4645 Y26.4853 Z-5.5000 F1000.00
G1 X156.4792 Y-0.5000 Z-5.5000 F1000.00
G1 X153.0851 Y-0.5000 Z-5.5000 F1000.00
G1 X181.7674 Y28.1823 Z-5.5000 F1000.00
G1 X180.0704 Y29.8794 Z-5.5000 F1000.00
G1 X149.6910 Y-0.5000 Z-5.5000 F1000.00
G1 X146.2968 Y-0.5000 Z-5.5000 F1000.00
G1 X178.3733 Y31.5765 Z-5.5000 F1000.00
G1 X176.6762 Y33.2735 Z-5.5000 F1000.00
G1 X142.9027 Y-0.5000 Z-5.5000 F1000.00
G1 X139.5086 Y-0.5000 Z-5.5000 F1000.00
G1 X174.9792 Y34.9706 Z-5.5000 F1000.00
G3 X173.7965 Y36.0000 Z-5.5000 I-3.5762 J-2.9144 F1000.00
G3 X174.4749 Y36.5251 Z-5.5000 I-1.6552 J2.8388 F1000.00
G1 X189.4749 Y51.5251 Z-5.5000 F1000.00
G3 X190.4911 Y53.8766 Z-5.5000 I-2.4273 J2.4443 F1000.00
G1 X136.1145 Y-0.5000 Z-5.5000 F1000.00
G1 X132.7204 Y-0.5000 Z-5.5000 F1000.00
G1 X189.5772 Y56.3568 Z-5.5000 F1000.00
G1 X189.4749 Y56.4749 Z-5.5000 F1000.00
G1 X187.8880 Y58.0617 Z-5.5000 F1000.00
G1 X129.3263 Y-0.5000 Z-5.5000 F1000.00
G1 X125.9322 Y-0.5000 Z-5.5000 F1000.00
G1 X186.1910 Y59.7588 Z-5.5000 F1000.00
G1 X184.4939 Y61.4558 Z-5.5000 F1000.00
G1 X122.5381 Y-0.5000 Z-5.5000 F1000.00
G1 X119.1439 Y-0.5000 Z-5.5000 F1000.00
G1 X182.7968 Y63.1529 Z-5.5000 F1000.00
G1 X181.0998 Y64.8500 Z-5.5000 F1000.00
G1 X115.7498 Y-0.5000 Z-5.5000 F1000.00
G1 X112.3557 Y-0.5000 Z-5.5000 F1000.00
G1 X179.4027 Y66.5470 Z-5.5000 F1000.00
G1 X177.7057 Y68.2441 Z-5.5000 F1000.00
G1 X108.9616 Y-0.5000 Z-5.5000 F1000.00
G1 X105.5675 Y-0.5000 Z-5.5000 F1000.00
G1 X176.0086 Y69.9411 Z-5.5000 F1000.00
G1 X174.4749 Y71.4749 Z-5.5000 F1000.00
G1 X174.3009 Y71.6275 Z-5.5000 F1000.00
G1 X102.1734 Y-0.5000 Z-5.5000 F1000.00
G1 X98.7793 Y-0.5000 Z-5.5000 F1000.00
G1 X171.7793 Y72.5000 Z-5.5000 F1000.00
G1 X168.3852 Y72.5000 Z-5.5000 F1000.00
G1 X95.3852 Y-0.5000 Z-5.5000 F1000.00
G1 X91.9910 Y-0.5000 Z-5.5000 F1000.00
G1 X164.9910 Y72.5000 Z-5.5000 F1000.00
G1 X161.5969 Y72.5000 Z-5.5000 F1000.00
G1 X88.5969 Y-0.5000 Z-5.5000 F1000.00
G1 X85.2028 Y-0.5000 Z-5.5000 F1000.00
G1 X158.2028 Y72.5000 Z-5.5000 F1000.00
G1 X154.8087 Y72.5000 Z-5.5000 F1000.00
G1 X81.8087 Y-0.5000 Z-5.5000 F1000.00
G1 X78.4146 Y-0.5000 Z-5.5000 F1000.00
G1 X151.4146 Y72.5000 Z-5.5000 F1000.00
G1 X148.0205 Y72.5000 Z-5.5000 F1000.00
G1 X75.0205 Y-0.5000 Z-5.5000 F1000.00
G1 X71.6264 Y-0.5000 Z-5.5000 F1000.00
G1 X144.6264 Y72.5000 Z-5.5000 F1000.00
G1 X141.2323 Y72.5000 Z-5.5000 F1000.00
G1 X68.2323 Y-0.5000 Z-5.5000 F1000.00
G1 X64.8381 Y-0.5000 Z-5.5000 F1000.00
G1 X137.8381 Y72.5000 Z-5.5000 F1000.00
G1 X134.4440 Y72.5000 Z-5.5000 F1000.00
G1 X61.4440 Y-0.5000 Z-5.5000 F1000.00
G1 X58.0499 Y-0.5000 Z-5.5000 F1000.00
G1 X131.0499 Y72.5000 Z-5.5000 F1000.00
G1 X127.6558 Y72.5000 Z-5.5000 F1000.00
G1 X54.6558 Y-0.5000 Z-5.5000 F1000.00
G1 X51.2617 Y-0.5000 Z-5.5000 F1000.00
G1 X124.2617 Y72.5000 Z-5.5000 F1000.00
G1 X120.8676 Y72.5000 Z-5.5000 F1000.00
G1 X47.8676 Y-0.5000 Z-5.5000 F1000.00
G1 X44.4735 Y-0.5000 Z-5.5000 F1000.00
G1 X117.4735 Y72.5000 Z-5.5000 F1000.00
G1 X114.0794 Y72.5000 Z-5.5000 F1000.00
G1 X41.0794 Y-0.5000 Z-5.5000 F1000.00
G1 X37.6852 Y-0.5000 Z-5.5000 F1000.00
G1 X110.6852 Y72.5000 Z-5.5000 F1000.00
G1 X107.2911 Y72.5000 Z-5.5000 F1000.00
G1 X34.2911 Y-0.5000 Z-5.5000 F1000.00
G1 X30.8970 Y-0.5000 Z-5.5000 F1000.00
G1 X103.8970 Y72.5000 Z-5.5000 F1000.00
G1 X100.5029 Y72.5000 Z-5.5000 F1000.00
G1 X27.5029 Y-0.5000 Z-5.5000 F1000.00
G1 X24.1088 Y-0.5000 Z-5.5000 F1000.00
G1 X97.1088 Y72.5000 Z-5.5000 F1000.00
G1 X93.7147 Y72.5000 Z-5.5000 F1000.00
G1 X20.7147 Y-0.5000 Z-5.5000 F1000.00
G1 X18.0000 Y-0.5000 Z-5.5000 F1000.00
G2 X17.3825 Y-0.4381 Z-5.5000 I-0.0737 J2.3762 F1000.00
G1 X90.3206 Y72.5000 Z-5.5000 F1000.00
G1 X86.9265 Y72.5000 Z-5.5000 F1000.00
G1 X15.2384 Y0.8119 Z-5.5000 F1000.00
G1 X13.5413 Y2.5090 Z-5.5000 F1000.00
G1 X83.5323 Y72.5000 Z-5.5000 F1000.00
G1 X80.1382 Y72.5000 Z-5.5000 F1000.00
G1 X11.8442 Y4.2060 Z-5.5000 F1000.00
G1 X10.1472 Y5.9031 Z-5.5000 F1000.00
G1 X76.7441 Y72.5000 Z-5.5000 F1000.00
G1 X73.3500 Y72.5000 Z-5.5000 F1000.00
G1 X8.4501 Y7.6001 Z-5.5000 F1000.00
G1 X6.7531 Y9.2972 Z-5.5000 F1000.00
G1 X69.9559 Y72.5000 Z-5.5000 F1000.00
G1 X66.5618 Y72.5000 Z-5.5000 F1000.00
G1 X5.0560 Y10.9942 Z-5.5000 F1000.00
G1 X3.3590 Y12.6913 Z-5.5000 F1000.00
G1 X63.1677 Y72.5000 Z-5.5000 F1000.00
G1 X59.7736 Y72.5000 Z-5.5000 F1000.00
G1 X1.6619 Y14.3883 Z-5.5000 F1000.00
G2 X0.1981 Y15.9025 Z-5.5000 I9.8536 J10.9904 F1000.00
G1 X0.0353 Y16.1559 Z-5.5000 F1000.00
G1 X56.3794 Y72.5000 Z-5.5000 F1000.00
G1 X52.9853 Y72.5000 Z-5.5000 F1000.00
G1 X-0.2691 Y19.2456 Z-5.5000 F1000.00
G2 X0.5251 Y20.4749 Z-5.5000 I3.2474 J-1.2269 F1000.00
G1 X15.5251 Y35.4749 Z-5.5000 F1000.00
G2 X16.2035 Y36.0000 Z-5.5000 I2.3335 J-2.3137 F1000.00
G2 X15.5251 Y36.5251 Z-5.5000 I1.6552 J2.8388 F1000.00
G1 X14.5707 Y37.4795 Z-5.5000 F1000.00
G1 X49.5912 Y72.5000 Z-5.5000 F1000.00
G1 X46.1971 Y72.5000 Z-5.5000 F1000.00
G1 X12.8737 Y39.1766 Z-5.5000 F1000.00
G1 X11.1766 Y40.8736 Z-5.5000 F1000.00
G1 X42.8030 Y72.5000 Z-5.5000 F1000.00
G1 X39.4089 Y72.5000 Z-5.5000 F1000.00
G1 X9.4796 Y42.5707 Z-5.5000 F1000.00
G1 X7.7825 Y44.2677 Z-5.5000 F1000.00
G1 X36.0148 Y72.5000 Z-5.5000 F1000.00
G1 X32.6207 Y72.5000 Z-5.5000 F1000.00
G1 X6.0855 Y45.9648 Z-5.5000 F1000.00
G1 X4.3884 Y47.6619 Z-5.5000 F1000.00
G1 X29.2265 Y72.5000 Z-5.5000 F1000.00
G1 X25.8324 Y72.5000 Z-5.5000 F1000.00
G1 X2.6913 Y49.3589 Z-5.5000 F1000.00
G1 X0.9943 Y51.0560 Z-5.5000 F1000.00
G1 X22.4383 Y72.5000 Z-5.5000 F1000.00
G1 X19.0442 Y72.5000 Z-5.5000 F1000.00
G1 X18.0000 Y72.5000 Z-5.5000 F1000.00
G3 X15.5251 Y71.4749 Z-5.5000 I0.0000 J-3.5000 F1000.00
G1 X0.5251 Y56.4749 Z-5.5000 F1000.00
G3 X-0.3700 Y53.0858 Z-5.5000 I2.4450 J-2.4586 F1000.00
G1 X19.0442 Y72.5000 Z-5.5000 F1000.00
G1 X19.0442 Y72.5000 Z-6.0000 F100.00
G1 X-0.3700 Y53.0858 Z-6.0000 F1000.00
G2 X0.5251 Y56.4749 Z-6.0000 I3.3401 J0.9306 F1000.00
G1 X15.5251 Y71.4749 Z-6.0000 F1000.00
G2 X18.0000 Y72.5000 Z-6.0000 I2.4749 J-2.4749 F1000.00
G1 X19.0442 Y72.5000 Z-6.0000 F1000.00
G1 X22.4383 Y72.5000 Z-6.0000 F1000.00
G1 X0.9943 Y51.0560 Z-6.0000 F1000.00
G1 X2.6913 Y49.3589 Z-6.0000 F1000.00
G1 X25.8324 Y72.5000 Z-6.0000 F1000.00
G1 X29.2265 Y72.5000 Z-6.0000 F1000.00
G1 X4.3884 Y47.6619 Z-6.0000 F1000.00
G1 X6.0855 Y45.9648 Z-6.0000 F1000.00
G1 X32.6207 Y72.5000 Z-6.0000 F1000.00
G1 X36.0148 Y72.5000 Z-6.0000 F1000.00
G1 X7.7825 Y44.2677 Z-6.0000 F1000.00
G1 X9.4796 Y42.5707 Z-6.0000 F1000.00
G1 X39.4089 Y72.5000 Z-6.0000 F1000.00
G1 X42.8030 Y72.5000 Z-6.0000 F1000.00
G1 X11.1766 Y40.8736 Z-6.0000 F1000.00
G1 X12.8737 Y39.1766 Z-6.0000 F1000.00
G1 X46.1971 Y72.5000 Z-6.0000 F1000.00
G1 X49.5912 Y72.5000 Z-6.0000 F1000.00
G1 X14.5707 Y37.4795 Z-6.0000 F1000.00
G1 X15.5251 Y36.5251 Z-6.0000 F1000.00
G3 X16.2035 Y36.0000 Z-6.0000 I2.3335 J2.3137 F1000.00
G3 X15.5251 Y35.4749 Z-6.0000 I1.6552 J-2.8388 F1000.00
G1 X0.5251 Y20.4749 Z-6.0000 F1000.00
G3 X-0.2691 Y19.2456 Z-6.0000 I2.4532 J-2.4561 F1000.00
G1 X52.9853 Y72.5000 Z-6.0000 F1000.00
G1 X56.3794 Y72.5000 Z-6.0000 F1000.00
G1 X0.0353 Y16.1559 Z-6.0000 F1000.00
G1 X0.1981 Y15.9025 Z-6.0000 F1000.00
G3 X1.6619 Y14.3883 Z-6.0000 I11.3174 J9.4762 F1000.00
G1 X59.7736 Y72.5000 Z-6.0000 F1000.00
G1 X63.1677 Y72.5000 Z-6.0000 F1000.00
G1 X3.3590 Y12.6913 Z-6.0000 F1000.00
G1 X5.0560 Y10.9942 Z-6.0000 F1000.00
G1 X66.5618 Y72.5000 Z-6.0000 F1000.00
G1 X69.9559 Y72.5000 Z-6.0000 F1000.00
G1 X6.7531 Y9.2972 Z-6.0000 F1000.00
G1 X8.4501 Y7.6001 Z-6.0000 F1000.00
G1 X73.3500 Y72.5000 Z-6.0000 F1000.00
G1 X76.7441 Y72.5000 Z-6.0000 F1000.00
G1 X10.1472 Y5.9031 Z-6.0000 F1000.00
G1 X11.8442 Y4.2060 Z-6.0000 F1000.00
G1 X80.1382 Y72.5000 Z-6.0000 F1000.00
G1 X83.5323 Y72.5000 Z-6.0000 F1000.00
G1 X13.5413 Y2.5090 Z-6.0000 F1000.00
G1 X15.2384 Y0.8119 Z-6.0000 F1000.00
G1 X86.9265 Y72.5000 Z-6.0000 F1000.00
G1 X90.3206 Y72.5000 Z-6.0000 F1000.00
G1 X17.3825 Y-0.4381 Z-6.0000 F1000.00
G3 X18.0000 Y-0.5000 Z-6.0000 I0.5439 J2.3143 F1000.00
G1 X20.7147 Y-0.5000 Z-6.0000 F1000.00
G1 X93.7147 Y72.5000 Z-6.0000 F1000.00
G1 X97.1088 Y72.5000 Z-6.0000 F1000.00
G1 X24.1088 Y-0.5000 Z-6.0000 F1000.00
G1 X27.5029 Y-0.5000 Z-6.0000 F1000.00
G1 X100.5029 Y72.5000 Z-6.0000 F1000.00
G1 X103.8970 Y72.5000 Z-6.0000 F1000.00
G1 X30.8970 Y-0.5000 Z-6.0000 F1000.00
G1 X34.2911 Y-0.5000 Z-6.0000 F1000.00
G1 X107.2911 Y72.5000 Z-6.0000 F1000.00
G1 X110.6852 Y72.5000 Z-6.0000 F1000.00
G1 X37.6852 Y-0.5000 Z-6.0000 F1000.00
G1 X41.0794 Y-0.5000 Z-6.0000 F1000.00
G1 X114.0794 Y72.5000 Z-6.0000 F1000.00
G1 X117.4735 Y72.5000 Z-6.0000 F1000.00
G1 X44.4735 Y-0.5000 Z-6.0000 F1000.00
G1 X47.8676 Y-0.5000 Z-6.0000 F1000.00
G1 X120.8676 Y72.5000 Z-6.0000 F1000.00
G1 X124.2617 Y72.5000 Z-6.0000 F1000.00
G1 X51.2617 Y-0.5000 Z-6.0000 F1000.00
G1 X54.6558 Y-0.5000 Z-6.0000 F1000.00
G1 X127.6558 Y72.5000 Z-6.0000 F1000.00
G1 X131.0499 Y72.5000 Z-6.0000 F1000.00
G1 X58.0499 Y-0.5000 Z-6.0000 F1000.00
G1 X61.4440 Y-0.5000 Z-6.0000 F1000.00
G1 X134.4440 Y72.5000 Z-6.0000 F1000.00
G1 X137.8381 Y72.5000 Z-6.0000 F1000.00
G1 X64.8381 Y-0.5000 Z-6.0000 F1000.00
G1 X68.2323 Y-0.5000 Z-6.0000 F1000.00
G1 X141.2323 Y72.5000 Z-6.0000 F1000.00
G1 X144.6264 Y72.5000 Z-6.0000 F1000.00
G1 X71.6264 Y-0.5000 Z-6.0000 F1000.00
G1 X75.0205 Y-0.5000 Z-6.0000 F1000.00
G1 X148.0205 Y72.5000 Z-6.0000 F1000.00
G1 X151.4146 Y72.5000 Z-6.0000 F1000.00
G1 X78.4146 Y-0.5000 Z-6.0000 F1000.00
G1 X81.8087 Y-0.5000 Z-6.0000 F1000.00
G1 X154.8087 Y72.5000 Z-6.0000 F1000.00
G1 X158.2028 Y72.5000 Z-6.0000 F1000.00
G1 X85.2028 Y-0.5000 Z-6.0000 F1000.00
G1 X88.5969 Y-0.5000 Z-6.0000 F1000.00
G1 X161.5969 Y72.5000 Z-6.0000 F1000.00
G1 X164.9910 Y72.5000 Z-6.0000 F1000.00
G1 X91.9910 Y-0.5000 Z-6.0000 F1000.00
G1 X95.3852 Y-0.5000 Z-6.0000 F1000.00
G1 X168.3852 Y72.5000 Z-6.0000 F1000.00
G1 X171.7793 Y72.5000 Z-6.0000 F1000.00
G1 X98.7793 Y-0.5000 Z-6.0000 F1000.00
G1 X102.1734 Y-0.5000 Z-6.0000 F1000.00
G1 X174.3009 Y71.6275 Z-6.0000 F1000.00
G1 X174.4749 Y71.4749 Z-6.0000 F1000.00
G1 X176.0086 Y69.9411 Z-6.0000 F1000.00
G1 X105.5675 Y-0.5000 Z-6.0000 F1000.00
G1 X108.9616 Y-0.5000 Z-6.0000 F1000.00
G1 X177.7057 Y68.2441 Z-6.0000 F1000.00
G1 X179.4027 Y66.5470 Z-6.0000 F1000.00
G1 X112.3557 Y-0.5000 Z-6.0000 F1000.00
G1 X115.7498 Y-0.5000 Z-6.0000 F1000.00
G1 X181.0998 Y64.8500 Z-6.0000 F1000.00
G1 X182.7968 Y63.1529 Z-6.0000 F1000.00
G1 X119.1439 Y-0.5000 Z-6.0000 F1000.00
G1 X122.5381 Y-0.5000 Z-6.0000 F1000.00
G1 X184.4939 Y61.4558 Z-6.0000 F1000.00
G1 X186.1910 Y59.7588 Z-6.0000 F1000.00
G1 X125.9322 Y-0.5000 Z-6.0000 F1000.00
G1 X129.3263 Y-0.5000 Z-6.0000 F1000.00
G1 X187.8880 Y58.0617 Z-6.0000 F1000.00
G1 X189.4749 Y56.4749 Z-6.0000 F1000.00
G1 X189.5772 Y56.3568 Z-6.0000 F1000.00
G1 X132.7204 Y-0.5000 Z-6.0000 F1000.00
G1 X136.1145 Y-0.5000 Z-6.0000 F1000.00
G1 X190.4911 Y53.8766 Z-6.0000 F1000.00
G2 X189.4749 Y51.5251 Z-6.0000 I-3.4435 J0.0928 F1000.00
G1 X174.4749 Y36.5251 Z-6.0000 F1000.00
G2 X173.7965 Y36.0000 Z-6.0000 I-2.3335 J2.3137 F1000.00
G2 X174.9792 Y34.9706 Z-6.0000 I-2.3935 J-3.9438 F1000.00
G1 X139.5086 Y-0.5000 Z-6.0000 F1000.00
G1 X142.9027 Y-0.5000 Z-6.0000 F1000.00
G1 X176.6762 Y33.2735 Z-6.0000 F1000.00
G1 X178.3733 Y31.5765 Z-6.0000 F1000.00
G1 X146.2968 Y-0.5000 Z-6.0000 F1000.00
G1 X149.6910 Y-0.5000 Z-6.0000 F1000.00
G1 X180.0704 Y29.8794 Z-6.0000 F1000.00
G1 X181.7674 Y28.1823 Z-6.0000 F1000.00
G1 X153.0851 Y-0.5000 Z-6.0000 F1000.00
G1 X156.4792 Y-0.5000 Z-6.0000 F1000.00
G1 X183.4645 Y26.4853 Z-6.0000 F1000.00
G1 X185.1615 Y24.7882 Z-6.0000 F1000.00
G1 X159.8733 Y-0.5000 Z-6.0000 F1000.00
G1 X163.2674 Y-0.5000 Z-6.0000 F1000.00
G1 X186.8586 Y23.0912 Z-6.0000 F1000.00
G1 X188.5556 Y21.3941 Z-6.0000 F1000.00
G1 X166.6615 Y-0.5000 Z-6.0000 F1000.00
G1 X170.0556 Y-0.5000 Z-6.0000 F1000.00
G1 X190.1224 Y19.5668 Z-6.0000 F1000.00
G2 X189.4749 Y15.5251 Z-6.0000 I-3.1032 J-1.5755 F1000.00
G1 X174.4749 Y0.5251 Z-6.0000 F1000.00
G0 Z5.0000
(finish operation: rough_facing_003)
(begin operation: rough_facing_004)
(Path: rough_facing_004)
(rough_facing_004)
G0 Z5.0000
G0 X174.4749 Y0.5251
G0 Z3.0000
G1 X174.4749 Y0.5251 Z-6.5000 F100.00
G1 X189.4749 Y15.5251 Z-6.5000 F1000.00
G3 X190.1224 Y19.5668 Z-6.5000 I-2.4557 J2.4661 F1000.00
G1 X170.0556 Y-0.5000 Z-6.5000 F1000.00
G1 X166.6615 Y-0.5000 Z-6.5000 F1000.00
G1 X188.5556 Y21.3941 Z-6.5000 F1000.00
G1 X186.8586 Y23.0912 Z-6.5000 F1000.00
G1 X163.2674 Y-0.5000 Z-6.5000 F1000.00
G1 X159.8733 Y-0.5000 Z-6.5000 F1000.00
G1 X185.1615 Y24.7882 Z-6.5000 F1000.00
G1 X183.4645 Y26.4853 Z-6.5000 F1000.00
G1 X156.4792 Y-0.5000 Z-6.5000 F1000.00
G1 X153.0851 Y-0.5000 Z-6.5000 F1000.00
G1 X181.7674 Y28.1823 Z-6.5000 F1000.00
G1 X180.0704 Y29.8794 Z-6.5000 F1000.00
G1 X149.6910 Y-0.5000 Z-6.5000 F1000.00
G1 X146.2968 Y-0.5000 Z-6.5000 F1000.00
G1 X178.3733 Y31.5765 Z-6.5000 F1000.00
G1 X176.6762 Y33.2735 Z-6.5000 F1000.00
G1 X142.9027 Y-0.5000 Z-6.5000 F1000.00
G1 X139.5086 Y-0.5000 Z-6.5000 F1000.00
G1 X174.9792 Y34.9706 Z-6.5000 F1000.00
G3 X173.7965 Y36.0000 Z-6.5000 I-3.5762 J-2.9144 F1000.00
G3 X174.4749 Y36.5251 Z-6.5000 I-1.6552 J2.8388 F1000.00
G1 X189.4749 Y51.5251 Z-6.5000 F1000.00
G3 X190.4911 Y53.8766 Z-6.5000 I-2.4273 J2.4443 F1000.00
G1 X136.1145 Y-0.5000 Z-6.5000 F1000.00
G1 X132.7204 Y-0.5000 Z-6.5000 F1000.00
G1 X189.5772 Y56.3568 Z-6.5000 F1000.00
G1 X189.4749 Y56.4749 Z-6.5000 F1000.00
G1 X187.8880 Y58.0617 Z-6.5000 F1000.00
G1 X129.3263 Y-0.5000 Z-6.5000 F1000.00
G1 X125.9322 Y-0.5000 Z-6.5000 F1000.00
G1 X186.1910 Y59.7588 Z-6.5000 F1000.00
G1 X184.4939 Y61.4558 Z-6.5000 F1000.00
G1 X122.5381 Y-0.5000 Z-6.5000 F1000.00
G1 X119.1439 Y-0.5000 Z-6.5000 F1000.00
G1 X182.7968 Y63.1529 Z-6.5000 F1000.00
G1 X181.0998 Y64.8500 Z-6.5000 F1000.00
G1 X115.7498 Y-0.5000 Z-6.5000 F1000.00
G1 X112.3557 Y-0.5000 Z-6.5000 F1000.00
G1 X179.4027 Y66.5470 Z-6.5000 F1000.00
G1 X177.7057 Y68.2441 Z-6.5000 F1000.00
G1 X108.9616 Y-0.5000 Z-6.5000 F1000.00
G1 X105.5675 Y-0.5000 Z-6.5000 F1000.00
G1 X176.0086 Y69.9411 Z-6.5000 F1000.00
G1 X174.4749 Y71.4749 Z-6.5000 F1000.00
G1 X174.3009 Y71.6275 Z-6.5000 F1000.00
G1 X102.1734 Y-0.5000 Z-6.5000 F1000.00
G1 X98.7793 Y-0.5000 Z-6.5000 F1000.00
G1 X171.7793 Y72.5000 Z-6.5000 F1000.00
G1 X168.3852 Y72.5000 Z-6.5000 F1000.00
G1 X95.3852 Y-0.5000 Z-6.5000 F1000.00
G1 X91.9910 Y-0.5000 Z-6.5000 F1000.00
G1 X164.9910 Y72.5000 Z-6.5000 F1000.00
G1 X161.5969 Y72.5000 Z-6.5000 F1000.00
G1 X88.5969 Y-0.5000 Z-6.5000 F1000.00
G1 X85.2028 Y-0.5000 Z-6.5000 F1000.00
G1 X158.2028 Y72.5000 Z-6.5000 F1000.00
G1 X154.8087 Y72.5000 Z-6.5000 F1000.00
G1 X81.8087 Y-0.5000 Z-6.5000 F1000.00
G1 X78.4146 Y-0.5000 Z-6.5000 F1000.00
G1 X151.4146 Y72.5000 Z-6.5000 F1000.00
G1 X148.0205 Y72.5000 Z-6.5000 F1000.00
G1 X75.0205 Y-0.5000 Z-6.5000 F1000.00
G1 X71.6264 Y-0.5000 Z-6.5000 F1000.00
G1 X144.6264 Y72.5000 Z-6.5000 F1000.00
G1 X141.2323 Y72.5000 Z-6.5000 F1000.00
G1 X68.2323 Y-0.5000 Z-6.5000 F1000.00
G1 X64.8381 Y-0.5000 Z-6.5000 F1000.00
G1 X137.8381 Y72.5000 Z-6.5000 F1000.00
G1 X134.4440 Y72.5000 Z-6.5000 F1000.00
G1 X61.4440 Y-0.5000 Z-6.5000 F1000.00
G1 X58.0499 Y-0.5000 Z-6.5000 F1000.00
G1 X131.0499 Y72.5000 Z-6.5000 F1000.00
G1 X127.6558 Y72.5000 Z-6.5000 F1000.00
G1 X54.6558 Y-0.5000 Z-6.5000 F1000.00
G1 X51.2617 Y-0.5000 Z-6.5000 F1000.00
G1 X124.2617 Y72.5000 Z-6.5000 F1000.00
G1 X120.8676 Y72.5000 Z-6.5000 F1000.00
G1 X47.8676 Y-0.5000 Z-6.5000 F1000.00
G1 X44.4735 Y-0.5000 Z-6.5000 F1000.00
G1 X117.4735 Y72.5000 Z-6.5000 F1000.00
G1 X114.0794 Y72.5000 Z-6.5000 F1000.00
G1 X41.0794 Y-0.5000 Z-6.5000 F1000.00
G1 X37.6852 Y-0.5000 Z-6.5000 F1000.00
G1 X110.6852 Y72.5000 Z-6.5000 F1000.00
G1 X107.2911 Y72.5000 Z-6.5000 F1000.00
G1 X34.2911 Y-0.5000 Z-6.5000 F1000.00
G1 X30.8970 Y-0.5000 Z-6.5000 F1000.00
G1 X103.8970 Y72.5000 Z-6.5000 F1000.00
G1 X100.5029 Y72.5000 Z-6.5000 F1000.00
G1 X27.5029 Y-0.5000 Z-6.5000 F1000.00
G1 X24.1088 Y-0.5000 Z-6.5000 F1000.00
G1 X97.1088 Y72.5000 Z-6.5000 F1000.00
G1 X93.7147 Y72.5000 Z-6.5000 F1000.00
G1 X20.7147 Y-0.5000 Z-6.5000 F1000.00
G1 X18.0000 Y-0.5000 Z-6.5000 F1000.00
G2 X17.3825 Y-0.4381 Z-6.5000 I-0.0737 J2.3762 F1000.00
G1 X90.3206 Y72.5000 Z-6.5000 F1000.00
G1 X86.9265 Y72.5000 Z-6.5000 F1000.00
G1 X15.2384 Y0.8119 Z-6.5000 F1000.00
G1 X13.5413 Y2.5090 Z-6.5000 F1000.00
G1 X83.5323 Y72.5000 Z-6.5000 F1000.00
G1 X80.1382 Y72.5000 Z-6.5000 F1000.00
G1 X11.8442 Y4.2060 Z-6.5000 F1000.00
G1 X10.1472 Y5.9031 Z-6.5000 F1000.00
G1 X76.7441 Y72.5000 Z-6.5000 F1000.00
G1 X73.3500 Y72.5000 Z-6.5000 F1000.00
G1 X8.4501 Y7.6001 Z-6.5000 F1000.00
G1 X6.7531 Y9.2972 Z-6.5000 F1000.00
G1 X69.9559 Y72.5000 Z-6.5000 F1000.00
G1 X66.5618 Y72.5000 Z-6.5000 F1000.00
G1 X5.0560 Y10.9942 Z-6.5000 F1000.00
G1 X3.3590 Y12.6913 Z-6.5000 F1000.00
G1 X63.1677 Y72.5000 Z-6.5000 F1000.00
G1 X59.7736 Y72.5000 Z-6.5000 F1000.00
G1 X1.6619 Y14.3883 Z-6.5000 F1000.00
G2 X0.1981 Y15.9025 Z-6.5000 I9.8536 J10.9904 F1000.00
G1 X0.0353 Y16.1559 Z-6.5000 F1000.00
G1 X56.3794 Y72.5000 Z-6.5000 F1000.00
G1 X52.9853 Y72.5000 Z-6.5000 F1000.00
G1 X-0.2691 Y19.2456 Z-6.5000 F1000.00
G2 X0.5251 Y20.4749 Z-6.5000 I3.2474 J-1.2269 F1000.00
G1 X15.5251 Y35.4749 Z-6.5000 F1000.00
G2 X16.2035 Y36.0000 Z-6.5000 I2.3335 J-2.3137 F1000.00
G2 X15.5251 Y36.5251 Z-6.5000 I1.6552 J2.8388 F1000.00
G1 X14.5707 Y37.4795 Z-6.5000 F1000.00
G1 X49.5912 Y72.5000 Z-6.5000 F1000.00
G1 X46.1971 Y72.5000 Z-6.5000 F1000.00
G1 X12.8737 Y39.1766 Z-6.5000 F1000.00
G1 X11.1766 Y40.8736 Z-6.5000 F1000.00
G1 X42.8030 Y72.5000 Z-6.5000 F1000.00
G1 X39.4089 Y72.5000 Z-6.5000 F1000.00
G1 X9.4796 Y42.5707 Z-6.5000 F1000.00
G1 X7.7825 Y44.2677 Z-6.5000 F1000.00
G1 X36.0148 Y72.5000 Z-6.5000 F1000.00
G1 X32.6207 Y72.5000 Z-6.5000 F1000.00
G1 X6.0855 Y45.9648 Z-6.5000 F1000.00
G1 X4.3884 Y47.6619 Z-6.5000 F1000.00
G1 X29.2265 Y72.5000 Z-6.5000 F1000.00
G1 X25.8324 Y72.5000 Z-6.5000 F1000.00
G1 X2.6913 Y49.3589 Z-6.5000 F1000.00
G1 X0.9943 Y51.0560 Z-6.5000 F1000.00
G1 X22.4383 Y72.5000 Z-6.5000 F1000.00
G1 X19.0442 Y72.5000 Z-6.5000 F1000.00
G1 X18.0000 Y72.5000 Z-6.5000 F1000.00
G3 X15.5251 Y71.4749 Z-6.5000 I0.0000 J-3.5000 F1000.00
G1 X0.5251 Y56.4749 Z-6.5000 F1000.00
G3 X-0.3700 Y53.0858 Z-6.5000 I2.4450 J-2.4586 F1000.00
G1 X19.0442 Y72.5000 Z-6.5000 F1000.00
G1 X19.0442 Y72.5000 Z-7.0000 F100.00
G1 X-0.3700 Y53.0858 Z-7.0000 F1000.00
G2 X0.5251 Y56.4749 Z-7.0000 I3.3401 J0.9306 F1000.00
G1 X15.5251 Y71.4749 Z-7.0000 F1000.00
G2 X18.0000 Y72.5000 Z-7.0000 I2.4749 J-2.4749 F1000.00
G1 X19.0442 Y72.5000 Z-7.0000 F1000.00
G1 X22.4383 Y72.5000 Z-7.0000 F1000.00
G1 X0.9943 Y51.0560 Z-7.0000 F1000.00
G1 X2.6913 Y49.3589 Z-7.0000 F1000.00
G1 X25.8324 Y72.5000 Z-7.0000 F1000.00
G1 X29.2265 Y72.5000 Z-7.0000 F1000.00
G1 X4.3884 Y47.6619 Z-7.0000 F1000.00
G1 X6.0855 Y45.9648 Z-7.0000 F1000.00
G1 X32.6207 Y72.5000 Z-7.0000 F1000.00
G1 X36.0148 Y72.5000 Z-7.0000 F1000.00
G1 X7.7825 Y44.2677 Z-7.0000 F1000.00
G1 X9.4796 Y42.5707 Z-7.0000 F1000.00
G1 X39.4089 Y72.5000 Z-7.0000 F1000.00
G1 X42.8030 Y72.5000 Z-7.0000 F1000.00
G1 X11.1766 Y40.8736 Z-7.0000 F1000.00
G1 X12.8737 Y39.1766 Z-7.0000 F1000.00
G1 X46.1971 Y72.5000 Z-7.0000 F1000.00
G1 X49.5912 Y72.5000 Z-7.0000 F1000.00
G1 X14.5707 Y37.4795 Z-7.0000 F1000.00
G1 X15.5251 Y36.5251 Z-7.0000 F1000.00
G3 X16.2035 Y36.0000 Z-7.0000 I2.3335 J2.3137 F1000.00
G3 X15.5251 Y35.4749 Z-7.0000 I1.6552 J-2.8388 F1000.00
G1 X0.5251 Y20.4749 Z-7.0000 F1000.00
G3 X-0.2691 Y19.2456 Z-7.0000 I2.4532 J-2.4561 F1000.00
G1 X52.9853 Y72.5000 Z-7.0000 F1000.00
G1 X56.3794 Y72.5000 Z-7.0000 F1000.00
G1 X0.0353 Y16.1559 Z-7.0000 F1000.00
G1 X0.1981 Y15.9025 Z-7.0000 F1000.00
G3 X1.6619 Y14.3883 Z-7.0000 I11.3174 J9.4762 F1000.00
G1 X59.7736 Y72.5000 Z-7.0000 F1000.00
G1 X63.1677 Y72.5000 Z-7.0000 F1000.00
G1 X3.3590 Y12.6913 Z-7.0000 F1000.00
G1 X5.0560 Y10.9942 Z-7.0000 F1000.00
G1 X66.5618 Y72.5000 Z-7.0000 F1000.00
G1 X69.9559 Y72.5000 Z-7.0000 F1000.00
G1 X6.7531 Y9.2972 Z-7.0000 F1000.00
G1 X8.4501 Y7.6001 Z-7.0000 F1000.00
G1 X73.3500 Y72.5000 Z-7.0000 F1000.00
G1 X76.7441 Y72.5000 Z-7.0000 F1000.00
G1 X10.1472 Y5.9031 Z-7.0000 F1000.00
G1 X11.8442 Y4.2060 Z-7.0000 F1000.00
G1 X80.1382 Y72.5000 Z-7.0000 F1000.00
G1 X83.5323 Y72.5000 Z-7.0000 F1000.00
G1 X13.5413 Y2.5090 Z-7.0000 F1000.00
G1 X15.2384 Y0.8119 Z-7.0000 F1000.00
G1 X86.9265 Y72.5000 Z-7.0000 F1000.00
G1 X90.3206 Y72.5000 Z-7.0000 F1000.00
G1 X17.3825 Y-0.4381 Z-7.0000 F1000.00
G3 X18.0000 Y-0.5000 Z-7.0000 I0.5439 J2.3143 F1000.00
G1 X20.7147 Y-0.5000 Z-7.0000 F1000.00
G1 X93.7147 Y72.5000 Z-7.0000 F1000.00
G1 X97.1088 Y72.5000 Z-7.0000 F1000.00
G1 X24.1088 Y-0.5000 Z-7.0000 F1000.00
G1 X27.5029 Y-0.5000 Z-7.0000 F1000.00
G1 X100.5029 Y72.5000 Z-7.0000 F1000.00
G1 X103.8970 Y72.5000 Z-7.0000 F1000.00
G1 X30.8970 Y-0.5000 Z-7.0000 F1000.00
G1 X34.2911 Y-0.5000 Z-7.0000 F1000.00
G1 X107.2911 Y72.5000 Z-7.0000 F1000.00
G1 X110.6852 Y72.5000 Z-7.0000 F1000.00
G1 X37.6852 Y-0.5000 Z-7.0000 F1000.00
G1 X41.0794 Y-0.5000 Z-7.0000 F1000.00
G1 X114.0794 Y72.5000 Z-7.0000 F1000.00
G1 X117.4735 Y72.5000 Z-7.0000 F1000.00
G1 X44.4735 Y-0.5000 Z-7.0000 F1000.00
G1 X47.8676 Y-0.5000 Z-7.0000 F1000.00
G1 X120.8676 Y72.5000 Z-7.0000 F1000.00
G1 X124.2617 Y72.5000 Z-7.0000 F1000.00
G1 X51.2617 Y-0.5000 Z-7.0000 F1000.00
G1 X54.6558 Y-0.5000 Z-7.0000 F1000.00
G1 X127.6558 Y72.5000 Z-7.0000 F1000.00
G1 X131.0499 Y72.5000 Z-7.0000 F1000.00
G1 X58.0499 Y-0.5000 Z-7.0000 F1000.00
G1 X61.4440 Y-0.5000 Z-7.0000 F1000.00
G1 X134.4440 Y72.5000 Z-7.0000 F1000.00
G1 X137.8381 Y72.5000 Z-7.0000 F1000.00
G1 X64.8381 Y-0.5000 Z-7.0000 F1000.00
G1 X68.2323 Y-0.5000 Z-7.0000 F1000.00
G1 X141.2323 Y72.5000 Z-7.0000 F1000.00
G1 X144.6264 Y72.5000 Z-7.0000 F1000.00
G1 X71.6264 Y-0.5000 Z-7.0000 F1000.00
G1 X75.0205 Y-0.5000 Z-7.0000 F1000.00
G1 X148.0205 Y72.5000 Z-7.0000 F1000.00
G1 X151.4146 Y72.5000 Z-7.0000 F1000.00
G1 X78.4146 Y-0.5000 Z-7.0000 F1000.00
G1 X81.8087 Y-0.5000 Z-7.0000 F1000.00
G1 X154.8087 Y72.5000 Z-7.0000 F1000.00
G1 X158.2028 Y72.5000 Z-7.0000 F1000.00
G1 X85.2028 Y-0.5000 Z-7.0000 F1000.00
G1 X88.5969 Y-0.5000 Z-7.0000 F1000.00
G1 X161.5969 Y72.5000 Z-7.0000 F1000.00
G1 X164.9910 Y72.5000 Z-7.0000 F1000.00
G1 X91.9910 Y-0.5000 Z-7.0000 F1000.00
G1 X95.3852 Y-0.5000 Z-7.0000 F1000.00
G1 X168.3852 Y72.5000 Z-7.0000 F1000.00
G1 X171.7793 Y72.5000 Z-7.0000 F1000.00
G1 X98.7793 Y-0.5000 Z-7.0000 F1000.00
G1 X102.1734 Y-0.5000 Z-7.0000 F1000.00
G1 X174.3009 Y71.6275 Z-7.0000 F1000.00
G1 X174.4749 Y71.4749 Z-7.0000 F1000.00
G1 X176.0086 Y69.9411 Z-7.0000 F1000.00
G1 X105.5675 Y-0.5000 Z-7.0000 F1000.00
G1 X108.9616 Y-0.5000 Z-7.0000 F1000.00
G1 X177.7057 Y68.2441 Z-7.0000 F1000.00
G1 X179.4027 Y66.5470 Z-7.0000 F1000.00
G1 X112.3557 Y-0.5000 Z-7.0000 F1000.00
G1 X115.7498 Y-0.5000 Z-7.0000 F1000.00
G1 X181.0998 Y64.8500 Z-7.0000 F1000.00
G1 X182.7968 Y63.1529 Z-7.0000 F1000.00
G1 X119.1439 Y-0.5000 Z-7.0000 F1000.00
G1 X122.5381 Y-0.5000 Z-7.0000 F1000.00
G1 X184.4939 Y61.4558 Z-7.0000 F1000.00
G1 X186.1910 Y59.7588 Z-7.0000 F1000.00
G1 X125.9322 Y-0.5000 Z-7.0000 F1000.00
G1 X129.3263 Y-0.5000 Z-7.0000 F1000.00
G1 X187.8880 Y58.0617 Z-7.0000 F1000.00
G1 X189.4749 Y56.4749 Z-7.0000 F1000.00
G1 X189.5772 Y56.3568 Z-7.0000 F1000.00
G1 X132.7204 Y-0.5000 Z-7.0000 F1000.00
G1 X136.1145 Y-0.5000 Z-7.0000 F1000.00
G1 X190.4911 Y53.8766 Z-7.0000 F1000.00
G2 X189.4749 Y51.5251 Z-7.0000 I-3.4435 J0.0928 F1000.00
G1 X174.4749 Y36.5251 Z-7.0000 F1000.00
G2 X173.7965 Y36.0000 Z-7.0000 I-2.3335 J2.3137 F1000.00
G2 X174.9792 Y34.9706 Z-7.0000 I-2.3935 J-3.9438 F1000.00
G1 X139.5086 Y-0.5000 Z-7.0000 F1000.00
G1 X142.9027 Y-0.5000 Z-7.0000 F1000.00
G1 X176.6762 Y33.2735 Z-7.0000 F1000.00
G1 X178.3733 Y31.5765 Z-7.0000 F1000.00
G1 X146.2968 Y-0.5000 Z-7.0000 F1000.00
G1 X149.6910 Y-0.5000 Z-7.0000 F1000.00
G1 X180.0704 Y29.8794 Z-7.0000 F1000.00
G1 X181.7674 Y28.1823 Z-7.0000 F1000.00
G1 X153.0851 Y-0.5000 Z-7.0000 F1000.00
G1 X156.4792 Y-0.5000 Z-7.0000 F1000.00
G1 X183.4645 Y26.4853 Z-7.0000 F1000.00
G1 X185.1615 Y24.7882 Z-7.0000 F1000.00
G1 X159.8733 Y-0.5000 Z-7.0000 F1000.00
G1 X163.2674 Y-0.5000 Z-7.0000 F1000.00
G1 X186.8586 Y23.0912 Z-7.0000 F1000.00
G1 X188.5556 Y21.3941 Z-7.0000 F1000.00
G1 X166.6615 Y-0.5000 Z-7.0000 F1000.00
G1 X170.0556 Y-0.5000 Z-7.0000 F1000.00
G1 X190.1224 Y19.5668 Z-7.0000 F1000.00
G2 X189.4749 Y15.5251 Z-7.0000 I-3.1032 J-1.5755 F1000.00
G1 X174.4749 Y0.5251 Z-7.0000 F1000.00
G1 X174.4749 Y0.5251 Z-7.5000 F100.00
G1 X189.4749 Y15.5251 Z-7.5000 F1000.00
G3 X190.1224 Y19.5668 Z-7.5000 I-2.4557 J2.4661 F1000.00
G1 X170.0556 Y-0.5000 Z-7.5000 F1000.00
G1 X166.6615 Y-0.5000 Z-7.5000 F1000.00
G1 X188.5556 Y21.3941 Z-7.5000 F1000.00
G1 X186.8586 Y23.0912 Z-7.5000 F1000.00
G1 X163.2674 Y-0.5000 Z-7.5000 F1000.00
G1 X159.8733 Y-0.5000 Z-7.5000 F1000.00
G1 X185.1615 Y24.7882 Z-7.5000 F1000.00
G1 X183.4645 Y26.4853 Z-7.5000 F1000.00
G1 X156.4792 Y-0.5000 Z-7.5000 F1000.00
G1 X153.0851 Y-0.5000 Z-7.5000 F1000.00
G1 X181.7674 Y28.1823 Z-7.5000 F1000.00
G1 X180.0704 Y29.8794 Z-7.5000 F1000.00
G1 X149.6910 Y-0.5000 Z-7.5000 F1000.00
G1 X146.2968 Y-0.5000 Z-7.5000 F1000.00
G1 X178.3733 Y31.5765 Z-7.5000 F1000.00
G1 X176.6762 Y33.2735 Z-7.5000 F1000.00
G1 X142.9027 Y-0.5000 Z-7.5000 F1000.00
G1 X139.5086 Y-0.5000 Z-7.5000 F1000.00
G1 X174.9792 Y34.9706 Z-7.5000 F1000.00
G3 X173.7965 Y36.0000 Z-7.5000 I-3.5762 J-2.9144 F1000.00
G3 X174.4749 Y36.5251 Z-7.5000 I-1.6552 J2.8388 F1000.00
G1 X189.4749 Y51.5251 Z-7.5000 F1000.00
G3 X190.4911 Y53.8766 Z-7.5000 I-2.4273 J2.4443 F1000.00
G1 X136.1145 Y-0.5000 Z-7.5000 F1000.00
G1 X132.7204 Y-0.5000 Z-7.5000 F1000.00
G1 X189.5772 Y56.3568 Z-7.5000 F1000.00
G1 X189.4749 Y56.4749 Z-7.5000 F1000.00
G1 X187.8880 Y58.0617 Z-7.5000 F1000.00
G1 X129.3263 Y-0.5000 Z-7.5000 F1000.00
G1 X125.9322 Y-0.5000 Z-7.5000 F1000.00
G1 X186.1910 Y59.7588 Z-7.5000 F1000.00
G1 X184.4939 Y61.4558 Z-7.5000 F1000.00
G1 X122.5381 Y-0.5000 Z-7.5000 F1000.00
G1 X119.1439 Y-0.5000 Z-7.5000 F1000.00
G1 X182.7968 Y63.1529 Z-7.5000 F1000.00
G1 X181.0998 Y64.8500 Z-7.5000 F1000.00
G1 X115.7498 Y-0.5000 Z-7.5000 F1000.00
G1 X112.3557 Y-0.5000 Z-7.5000 F1000.00
G1 X179.4027 Y66.5470 Z-7.5000 F1000.00
G1 X177.7057 Y68.2441 Z-7.5000 F1000.00
G1 X108.9616 Y-0.5000 Z-7.5000 F1000.00
G1 X105.5675 Y-0.5000 Z-7.5000 F1000.00
G1 X176.0086 Y69.9411 Z-7.5000 F1000.00
G1 X174.4749 Y71.4749 Z-7.5000 F1000.00
G1 X174.3009 Y71.6275 Z-7.5000 F1000.00
G1 X102.1734 Y-0.5000 Z-7.5000 F1000.00
G1 X98.7793 Y-0.5000 Z-7.5000 F1000.00
G1 X171.7793 Y72.5000 Z-7.5000 F1000.00
G1 X168.3852 Y72.5000 Z-7.5000 F1000.00
G1 X95.3852 Y-0.5000 Z-7.5000 F1000.00
G1 X91.9910 Y-0.5000 Z-7.5000 F1000.00
G1 X164.9910 Y72.5000 Z-7.5000 F1000.00
G1 X161.5969 Y72.5000 Z-7.5000 F1000.00
G1 X88.5969 Y-0.5000 Z-7.5000 F1000.00
G1 X85.2028 Y-0.5000 Z-7.5000 F1000.00
G1 X158.2028 Y72.5000 Z-7.5000 F1000.00
G1 X154.8087 Y72.5000 Z-7.5000 F1000.00
G1 X81.8087 Y-0.5000 Z-7.5000 F1000.00
G1 X78.4146 Y-0.5000 Z-7.5000 F1000.00
G1 X151.4146 Y72.5000 Z-7.5000 F1000.00
G1 X148.0205 Y72.5000 Z-7.5000 F1000.00
G1 X75.0205 Y-0.5000 Z-7.5000 F1000.00
G1 X71.6264 Y-0.5000 Z-7.5000 F1000.00
G1 X144.6264 Y72.5000 Z-7.5000 F1000.00
G1 X141.2323 Y72.5000 Z-7.5000 F1000.00
G1 X68.2323 Y-0.5000 Z-7.5000 F1000.00
G1 X64.8381 Y-0.5000 Z-7.5000 F1000.00
G1 X137.8381 Y72.5000 Z-7.5000 F1000.00
G1 X134.4440 Y72.5000 Z-7.5000 F1000.00
G1 X61.4440 Y-0.5000 Z-7.5000 F1000.00
G1 X58.0499 Y-0.5000 Z-7.5000 F1000.00
G1 X131.0499 Y72.5000 Z-7.5000 F1000.00
G1 X127.6558 Y72.5000 Z-7.5000 F1000.00
G1 X54.6558 Y-0.5000 Z-7.5000 F1000.00
G1 X51.2617 Y-0.5000 Z-7.5000 F1000.00
G1 X124.2617 Y72.5000 Z-7.5000 F1000.00
G1 X120.8676 Y72.5000 Z-7.5000 F1000.00
G1 X47.8676 Y-0.5000 Z-7.5000 F1000.00
G1 X44.4735 Y-0.5000 Z-7.5000 F1000.00
G1 X117.4735 Y72.5000 Z-7.5000 F1000.00
G1 X114.0794 Y72.5000 Z-7.5000 F1000.00
G1 X41.0794 Y-0.5000 Z-7.5000 F1000.00
G1 X37.6852 Y-0.5000 Z-7.5000 F1000.00
G1 X110.6852 Y72.5000 Z-7.5000 F1000.00
G1 X107.2911 Y72.5000 Z-7.5000 F1000.00
G1 X34.2911 Y-0.5000 Z-7.5000 F1000.00
G1 X30.8970 Y-0.5000 Z-7.5000 F1000.00
G1 X103.8970 Y72.5000 Z-7.5000 F1000.00
G1 X100.5029 Y72.5000 Z-7.5000 F1000.00
G1 X27.5029 Y-0.5000 Z-7.5000 F1000.00
G1 X24.1088 Y-0.5000 Z-7.5000 F1000.00
G1 X97.1088 Y72.5000 Z-7.5000 F1000.00
G1 X93.7147 Y72.5000 Z-7.5000 F1000.00
G1 X20.7147 Y-0.5000 Z-7.5000 F1000.00
G1 X18.0000 Y-0.5000 Z-7.5000 F1000.00
G2 X17.3825 Y-0.4381 Z-7.5000 I-0.0737 J2.3762 F1000.00
G1 X90.3206 Y72.5000 Z-7.5000 F1000.00
G1 X86.9265 Y72.5000 Z-7.5000 F1000.00
G1 X15.2384 Y0.8119 Z-7.5000 F1000.00
G1 X13.5413 Y2.5090 Z-7.5000 F1000.00
G1 X83.5323 Y72.5000 Z-7.5000 F1000.00
G1 X80.1382 Y72.5000 Z-7.5000 F1000.00
G1 X11.8442 Y4.2060 Z-7.5000 F1000.00
G1 X10.1472 Y5.9031 Z-7.5000 F1000.00
G1 X76.7441 Y72.5000 Z-7.5000 F1000.00
G1 X73.3500 Y72.5000 Z-7.5000 F1000.00
G1 X8.4501 Y7.6001 Z-7.5000 F1000.00
G1 X6.7531 Y9.2972 Z-7.5000 F1000.00
G1 X69.9559 Y72.5000 Z-7.5000 F1000.00
G1 X66.5618 Y72.5000 Z-7.5000 F1000.00
G1 X5.0560 Y10.9942 Z-7.5000 F1000.00
G1 X3.3590 Y12.6913 Z-7.5000 F1000.00
G1 X63.1677 Y72.5000 Z-7.5000 F1000.00
G1 X59.7736 Y72.5000 Z-7.5000 F1000.00
G1 X1.6619 Y14.3883 Z-7.5000 F1000.00
G2 X0.1981 Y15.9025 Z-7.5000 I9.8536 J10.9904 F1000.00
G1 X0.0353 Y16.1559 Z-7.5000 F1000.00
G1 X56.3794 Y72.5000 Z-7.5000 F1000.00
G1 X52.9853 Y72.5000 Z-7.5000 F1000.00
G1 X-0.2691 Y19.2456 Z-7.5000 F1000.00
G2 X0.5251 Y20.4749 Z-7.5000 I3.2474 J-1.2269 F1000.00
G1 X15.5251 Y35.4749 Z-7.5000 F1000.00
G2 X16.2035 Y36.0000 Z-7.5000 I2.3335 J-2.3137 F1000.00
G2 X15.5251 Y36.5251 Z-7.5000 I1.6552 J2.8388 F1000.00
G1 X14.5707 Y37.4795 Z-7.5000 F1000.00
G1 X49.5912 Y72.5000 Z-7.5000 F1000.00
G1 X46.1971 Y72.5000 Z-7.5000 F1000.00
G1 X12.8737 Y39.1766 Z-7.5000 F1000.00
G1 X11.1766 Y40.8736 Z-7.5000 F1000.00
G1 X42.8030 Y72.5000 Z-7.5000 F1000.00
G1 X39.4089 Y72.5000 Z-7.5000 F1000.00
G1 X9.4796 Y42.5707 Z-7.5000 F1000.00
G1 X7.7825 Y44.2677 Z-7.5000 F1000.00
G1 X36.0148 Y72.5000 Z-7.5000 F1000.00
G1 X32.6207 Y72.5000 Z-7.5000 F1000.00
G1 X6.0855 Y45.9648 Z-7.5000 F1000.00
G1 X4.3884 Y47.6619 Z-7.5000 F1000.00
G1 X29.2265 Y72.5000 Z-7.5000 F1000.00
G1 X25.8324 Y72.5000 Z-7.5000 F1000.00
G1 X2.6913 Y49.3589 Z-7.5000 F1000.00
G1 X0.9943 Y51.0560 Z-7.5000 F1000.00
G1 X22.4383 Y72.5000 Z-7.5000 F1000.00
G1 X19.0442 Y72.5000 Z-7.5000 F1000.00
G1 X18.0000 Y72.5000 Z-7.5000 F1000.00
G3 X15.5251 Y71.4749 Z-7.5000 I0.0000 J-3.5000 F1000.00
G1 X0.5251 Y56.4749 Z-7.5000 F1000.00
G3 X-0.3700 Y53.0858 Z-7.5000 I2.4450 J-2.4586 F1000.00
G1 X19.0442 Y72.5000 Z-7.5000 F1000.00
G1 X19.0442 Y72.5000 Z-8.0000 F100.00
G1 X-0.3700 Y53.0858 Z-8.0000 F1000.00
G2 X0.5251 Y56.4749 Z-8.0000 I3.3401 J0.9306 F1000.00
G1 X15.5251 Y71.4749 Z-8.0000 F1000.00
G2 X18.0000 Y72.5000 Z-8.0000 I2.4749 J-2.4749 F1000.00
G1 X19.0442 Y72.5000 Z-8.0000 F1000.00
G1 X22.4383 Y72.5000 Z-8.0000 F1000.00
G1 X0.9943 Y51.0560 Z-8.0000 F1000.00
G1 X2.6913 Y49.3589 Z-8.0000 F1000.00
G1 X25.8324 Y72.5000 Z-8.0000 F1000.00
G1 X29.2265 Y72.5000 Z-8.0000 F1000.00
G1 X4.3884 Y47.6619 Z-8.0000 F1000.00
G1 X6.0855 Y45.9648 Z-8.0000 F1000.00
G1 X32.6207 Y72.5000 Z-8.0000 F1000.00
G1 X36.0148 Y72.5000 Z-8.0000 F1000.00
G1 X7.7825 Y44.2677 Z-8.0000 F1000.00
G1 X9.4796 Y42.5707 Z-8.0000 F1000.00
G1 X39.4089 Y72.5000 Z-8.0000 F1000.00
G1 X42.8030 Y72.5000 Z-8.0000 F1000.00
G1 X11.1766 Y40.8736 Z-8.0000 F1000.00
G1 X12.8737 Y39.1766 Z-8.0000 F1000.00
G1 X46.1971 Y72.5000 Z-8.0000 F1000.00
G1 X49.5912 Y72.5000 Z-8.0000 F1000.00
G1 X14.5707 Y37.4795 Z-8.0000 F1000.00
G1 X15.5251 Y36.5251 Z-8.0000 F1000.00
G3 X16.2035 Y36.0000 Z-8.0000 I2.3335 J2.3137 F1000.00
G3 X15.5251 Y35.4749 Z-8.0000 I1.6552 J-2.8388 F1000.00
G1 X0.5251 Y20.4749 Z-8.0000 F1000.00
G3 X-0.2691 Y19.2456 Z-8.0000 I2.4532 J-2.4561 F1000.00
G1 X52.9853 Y72.5000 Z-8.0000 F1000.00
G1 X56.3794 Y72.5000 Z-8.0000 F1000.00
G1 X0.0353 Y16.1559 Z-8.0000 F1000.00
G1 X0.1981 Y15.9025 Z-8.0000 F1000.00
G3 X1.6619 Y14.3883 Z-8.0000 I11.3174 J9.4762 F1000.00
G1 X59.7736 Y72.5000 Z-8.0000 F1000.00
G1 X63.1677 Y72.5000 Z-8.0000 F1000.00
G1 X3.3590 Y12.6913 Z-8.0000 F1000.00
G1 X5.0560 Y10.9942 Z-8.0000 F1000.00
G1 X66.5618 Y72.5000 Z-8.0000 F1000.00
G1 X69.9559 Y72.5000 Z-8.0000 F1000.00
G1 X6.7531 Y9.2972 Z-8.0000 F1000.00
G1 X8.4501 Y7.6001 Z-8.0000 F1000.00
G1 X73.3500 Y72.5000 Z-8.0000 F1000.00
G1 X76.7441 Y72.5000 Z-8.0000 F1000.00
G1 X10.1472 Y5.9031 Z-8.0000 F1000.00
G1 X11.8442 Y4.2060 Z-8.0000 F1000.00
G1 X80.1382 Y72.5000 Z-8.0000 F1000.00
G1 X83.5323 Y72.5000 Z-8.0000 F1000.00
G1 X13.5413 Y2.5090 Z-8.0000 F1000.00
G1 X15.2384 Y0.8119 Z-8.0000 F1000.00
G1 X86.9265 Y72.5000 Z-8.0000 F1000.00
G1 X90.3206 Y72.5000 Z-8.0000 F1000.00
G1 X17.3825 Y-0.4381 Z-8.0000 F1000.00
G3 X18.0000 Y-0.5000 Z-8.0000 I0.5439 J2.3143 F1000.00
G1 X20.7147 Y-0.5000 Z-8.0000 F1000.00
G1 X93.7147 Y72.5000 Z-8.0000 F1000.00
G1 X97.1088 Y72.5000 Z-8.0000 F1000.00
G1 X24.1088 Y-0.5000 Z-8.0000 F1000.00
G1 X27.5029 Y-0.5000 Z-8.0000 F1000.00
G1 X100.5029 Y72.5000 Z-8.0000 F1000.00
G1 X103.8970 Y72.5000 Z-8.0000 F1000.00
G1 X30.8970 Y-0.5000 Z-8.0000 F1000.00
G1 X34.2911 Y-0.5000 Z-8.0000 F1000.00
G1 X107.2911 Y72.5000 Z-8.0000 F1000.00
G1 X110.6852 Y72.5000 Z-8.0000 F1000.00
G1 X37.6852 Y-0.5000 Z-8.0000 F1000.00
G1 X41.0794 Y-0.5000 Z-8.0000 F1000.00
G1 X114.0794 Y72.5000 Z-8.0000 F1000.00
G1 X117.4735 Y72.5000 Z-8.0000 F1000.00
G1 X44.4735 Y-0.5000 Z-8.0000 F1000.00
G1 X47.8676 Y-0.5000 Z-8.0000 F1000.00
G1 X120.8676 Y72.5000 Z-8.0000 F1000.00
G1 X124.2617 Y72.5000 Z-8.0000 F1000.00
G1 X51.2617 Y-0.5000 Z-8.0000 F1000.00
G1 X54.6558 Y-0.5000 Z-8.0000 F1000.00
G1 X127.6558 Y72.5000 Z-8.0000 F1000.00
G1 X131.0499 Y72.5000 Z-8.0000 F1000.00
G1 X58.0499 Y-0.5000 Z-8.0000 F1000.00
G1 X61.4440 Y-0.5000 Z-8.0000 F1000.00
G1 X134.4440 Y72.5000 Z-8.0000 F1000.00
G1 X137.8381 Y72.5000 Z-8.0000 F1000.00
G1 X64.8381 Y-0.5000 Z-8.0000 F1000.00
G1 X68.2323 Y-0.5000 Z-8.0000 F1000.00
G1 X141.2323 Y72.5000 Z-8.0000 F1000.00
G1 X144.6264 Y72.5000 Z-8.0000 F1000.00
G1 X71.6264 Y-0.5000 Z-8.0000 F1000.00
G1 X75.0205 Y-0.5000 Z-8.0000 F1000.00
G1 X148.0205 Y72.5000 Z-8.0000 F1000.00
G1 X151.4146 Y72.5000 Z-8.0000 F1000.00
G1 X78.4146 Y-0.5000 Z-8.0000 F1000.00
G1 X81.8087 Y-0.5000 Z-8.0000 F1000.00
G1 X154.8087 Y72.5000 Z-8.0000 F1000.00
G1 X158.2028 Y72.5000 Z-8.0000 F1000.00
G1 X85.2028 Y-0.5000 Z-8.0000 F1000.00
G1 X88.5969 Y-0.5000 Z-8.0000 F1000.00
G1 X161.5969 Y72.5000 Z-8.0000 F1000.00
G1 X164.9910 Y72.5000 Z-8.0000 F1000.00
G1 X91.9910 Y-0.5000 Z-8.0000 F1000.00
G1 X95.3852 Y-0.5000 Z-8.0000 F1000.00
G1 X168.3852 Y72.5000 Z-8.0000 F1000.00
G1 X171.7793 Y72.5000 Z-8.0000 F1000.00
G1 X98.7793 Y-0.5000 Z-8.0000 F1000.00
G1 X102.1734 Y-0.5000 Z-8.0000 F1000.00
G1 X174.3009 Y71.6275 Z-8.0000 F1000.00
G1 X174.4749 Y71.4749 Z-8.0000 F1000.00
G1 X176.0086 Y69.9411 Z-8.0000 F1000.00
G1 X105.5675 Y-0.5000 Z-8.0000 F1000.00
G1 X108.9616 Y-0.5000 Z-8.0000 F1000.00
G1 X177.7057 Y68.2441 Z-8.0000 F1000.00
G1 X179.4027 Y66.5470 Z-8.0000 F1000.00
G1 X112.3557 Y-0.5000 Z-8.0000 F1000.00
G1 X115.7498 Y-0.5000 Z-8.0000 F1000.00
G1 X181.0998 Y64.8500 Z-8.0000 F1000.00
G1 X182.7968 Y63.1529 Z-8.0000 F1000.00
G1 X119.1439 Y-0.5000 Z-8.0000 F1000.00
G1 X122.5381 Y-0.5000 Z-8.0000 F1000.00
G1 X184.4939 Y61.4558 Z-8.0000 F1000.00
G1 X186.1910 Y59.7588 Z-8.0000 F1000.00
G1 X125.9322 Y-0.5000 Z-8.0000 F1000.00
G1 X129.3263 Y-0.5000 Z-8.0000 F1000.00
G1 X187.8880 Y58.0617 Z-8.0000 F1000.00
G1 X189.4749 Y56.4749 Z-8.0000 F1000.00
G1 X189.5772 Y56.3568 Z-8.0000 F1000.00
G1 X132.7204 Y-0.5000 Z-8.0000 F1000.00
G1 X136.1145 Y-0.5000 Z-8.0000 F1000.00
G1 X190.4911 Y53.8766 Z-8.0000 F1000.00
G2 X189.4749 Y51.5251 Z-8.0000 I-3.4435 J0.0928 F1000.00
G1 X174.4749 Y36.5251 Z-8.0000 F1000.00
G2 X173.7965 Y36.0000 Z-8.0000 I-2.3335 J2.3137 F1000.00
G2 X174.9792 Y34.9706 Z-8.0000 I-2.3935 J-3.9438 F1000.00
G1 X139.5086 Y-0.5000 Z-8.0000 F1000.00
G1 X142.9027 Y-0.5000 Z-8.0000 F1000.00
G1 X176.6762 Y33.2735 Z-8.0000 F1000.00
G1 X178.3733 Y31.5765 Z-8.0000 F1000.00
G1 X146.2968 Y-0.5000 Z-8.0000 F1000.00
G1 X149.6910 Y-0.5000 Z-8.0000 F1000.00
G1 X180.0704 Y29.8794 Z-8.0000 F1000.00
G1 X181.7674 Y28.1823 Z-8.0000 F1000.00
G1 X153.0851 Y-0.5000 Z-8.0000 F1000.00
G1 X156.4792 Y-0.5000 Z-8.0000 F1000.00
G1 X183.4645 Y26.4853 Z-8.0000 F1000.00
G1 X185.1615 Y24.7882 Z-8.0000 F1000.00
G1 X159.8733 Y-0.5000 Z-8.0000 F1000.00
G1 X163.2674 Y-0.5000 Z-8.0000 F1000.00
G1 X186.8586 Y23.0912 Z-8.0000 F1000.00
G1 X188.5556 Y21.3941 Z-8.0000 F1000.00
G1 X166.6615 Y-0.5000 Z-8.0000 F1000.00
G1 X170.0556 Y-0.5000 Z-8.0000 F1000.00
G1 X190.1224 Y19.5668 Z-8.0000 F1000.00
G2 X189.4749 Y15.5251 Z-8.0000 I-3.1032 J-1.5755 F1000.00
G1 X174.4749 Y0.5251 Z-8.0000 F1000.00
G1 X174.4749 Y0.5251 Z-8.2500 F100.00
G1 X189.4749 Y15.5251 Z-8.2500 F1000.00
G3 X190.1224 Y19.5668 Z-8.2500 I-2.4557 J2.4661 F1000.00
G1 X170.0556 Y-0.5000 Z-8.2500 F1000.00
G1 X166.6615 Y-0.5000 Z-8.2500 F1000.00
G1 X188.5556 Y21.3941 Z-8.2500 F1000.00
G1 X186.8586 Y23.0912 Z-8.2500 F1000.00
G1 X163.2674 Y-0.5000 Z-8.2500 F1000.00
G1 X159.8733 Y-0.5000 Z-8.2500 F1000.00
G1 X185.1615 Y24.7882 Z-8.2500 F1000.00
G1 X183.4645 Y26.4853 Z-8.2500 F1000.00
G1 X156.4792 Y-0.5000 Z-8.2500 F1000.00
G1 X153.0851 Y-0.5000 Z-8.2500 F1000.00
G1 X181.7674 Y28.1823 Z-8.2500 F1000.00
G1 X180.0704 Y29.8794 Z-8.2500 F1000.00
G1 X149.6910 Y-0.5000 Z-8.2500 F1000.00
G1 X146.2968 Y-0.5000 Z-8.2500 F1000.00
G1 X178.3733 Y31.5765 Z-8.2500 F1000.00
G1 X176.6762 Y33.2735 Z-8.2500 F1000.00
G1 X142.9027 Y-0.5000 Z-8.2500 F1000.00
G1 X139.5086 Y-0.5000 Z-8.2500 F1000.00
G1 X174.9792 Y34.9706 Z-8.2500 F1000.00
G3 X173.7965 Y36.0000 Z-8.2500 I-3.5762 J-2.9144 F1000.00
G3 X174.4749 Y36.5251 Z-8.2500 I-1.6552 J2.8388 F1000.00
G1 X189.4749 Y51.5251 Z-8.2500 F1000.00
G3 X190.4911 Y53.8766 Z-8.2500 I-2.4273 J2.4443 F1000.00
