(Exported by FreeCAD)
(Post Processor: grbl_post)
(Output Time:2019-09-19 14:46:32.148930)
(begin preamble)
G17 G90
G21
(begin operation: T5: end mill 0.8mm 2)
(Path: T5: end mill 0.8mm 2)
(T5: end mill 0.8mm 2)
(begin toolchange)
; M6 T5
M3 S10000.0000
(finish operation: T5: end mill 0.8mm 2)
(begin operation: Profile_Edges024)
(Path: Profile_Edges024)
(Profile_Edges024)
(Compensated Tool Path. Diameter: 0.8)
G0 Z5.0000
G0 X39.7660 Y13.7260
G0 Z3.0000
G1 X39.7660 Y13.7260 Z-0.2500 F100.00
G2 X39.4662 Y11.9612 Z-0.2500 I-0.7760 J-0.7760 F500.00
G2 X38.5138 Y13.9388 Z-0.2500 I-0.4762 J0.9888 F500.00
G2 X39.7660 Y13.7260 Z-0.2500 I0.4762 J-0.9888 F500.00
G1 X39.7660 Y13.7260 Z-0.5000 F100.00
G2 X39.4662 Y11.9612 Z-0.5000 I-0.7760 J-0.7760 F500.00
G2 X38.5138 Y13.9388 Z-0.5000 I-0.4762 J0.9888 F500.00
G2 X39.7660 Y13.7260 Z-0.5000 I0.4762 J-0.9888 F500.00
G1 X39.7660 Y13.7260 Z-0.7500 F100.00
G2 X39.4662 Y11.9612 Z-0.7500 I-0.7760 J-0.7760 F500.00
G2 X38.5138 Y13.9388 Z-0.7500 I-0.4762 J0.9888 F500.00
G2 X39.7660 Y13.7260 Z-0.7500 I0.4762 J-0.9888 F500.00
G1 X39.7660 Y13.7260 Z-1.0000 F100.00
G2 X39.4662 Y11.9612 Z-1.0000 I-0.7760 J-0.7760 F500.00
G2 X38.5138 Y13.9388 Z-1.0000 I-0.4762 J0.9888 F500.00
G2 X39.7660 Y13.7260 Z-1.0000 I0.4762 J-0.9888 F500.00
G1 X39.7660 Y13.7260 Z-1.2500 F100.00
G2 X39.4662 Y11.9612 Z-1.2500 I-0.7760 J-0.7760 F500.00
G2 X38.5138 Y13.9388 Z-1.2500 I-0.4762 J0.9888 F500.00
G2 X39.7660 Y13.7260 Z-1.2500 I0.4762 J-0.9888 F500.00
G1 X39.7660 Y13.7260 Z-1.5000 F100.00
G2 X39.4662 Y11.9612 Z-1.5000 I-0.7760 J-0.7760 F500.00
G2 X38.5138 Y13.9388 Z-1.5000 I-0.4762 J0.9888 F500.00
G2 X39.7660 Y13.7260 Z-1.5000 I0.4762 J-0.9888 F500.00
G1 X39.7660 Y13.7260 Z-1.7500 F100.00
G2 X39.4662 Y11.9612 Z-1.7500 I-0.7760 J-0.7760 F500.00
G2 X38.5138 Y13.9388 Z-1.7500 I-0.4762 J0.9888 F500.00
G2 X39.7660 Y13.7260 Z-1.7500 I0.4762 J-0.9888 F500.00
G1 X39.7660 Y13.7260 Z-2.0000 F100.00
G2 X39.4662 Y11.9612 Z-2.0000 I-0.7760 J-0.7760 F500.00
G2 X38.5138 Y13.9388 Z-2.0000 I-0.4762 J0.9888 F500.00
G2 X39.7660 Y13.7260 Z-2.0000 I0.4762 J-0.9888 F500.00
G1 X39.7660 Y13.7260 Z-2.2500 F100.00
G2 X39.4662 Y11.9612 Z-2.2500 I-0.7760 J-0.7760 F500.00
G2 X38.5138 Y13.9388 Z-2.2500 I-0.4762 J0.9888 F500.00
G2 X39.7660 Y13.7260 Z-2.2500 I0.4762 J-0.9888 F500.00
G1 X39.7660 Y13.7260 Z-2.5000 F100.00
G2 X39.4662 Y11.9612 Z-2.5000 I-0.7760 J-0.7760 F500.00
G2 X38.5138 Y13.9388 Z-2.5000 I-0.4762 J0.9888 F500.00
G2 X39.7660 Y13.7260 Z-2.5000 I0.4762 J-0.9888 F500.00
G1 X39.7660 Y13.7260 Z-2.7500 F100.00
G2 X39.4662 Y11.9612 Z-2.7500 I-0.7760 J-0.7760 F500.00
G2 X38.5138 Y13.9388 Z-2.7500 I-0.4762 J0.9888 F500.00
G2 X39.7660 Y13.7260 Z-2.7500 I0.4762 J-0.9888 F500.00
G1 X39.7660 Y13.7260 Z-3.0000 F100.00
G2 X39.4662 Y11.9612 Z-3.0000 I-0.7760 J-0.7760 F500.00
G2 X38.5138 Y13.9388 Z-3.0000 I-0.4762 J0.9888 F500.00
G2 X39.7660 Y13.7260 Z-3.0000 I0.4762 J-0.9888 F500.00
G0 Z5.0000
G0 X4.7760 Y13.7260
G0 Z3.0000
G1 X4.7760 Y13.7260 Z-0.2500 F100.00
G2 X4.4762 Y11.9612 Z-0.2500 I-0.7760 J-0.7760 F500.00
G2 X3.5238 Y13.9388 Z-0.2500 I-0.4762 J0.9888 F500.00
G2 X4.7760 Y13.7260 Z-0.2500 I0.4762 J-0.9888 F500.00
G1 X4.7760 Y13.7260 Z-0.5000 F100.00
G2 X4.4762 Y11.9612 Z-0.5000 I-0.7760 J-0.7760 F500.00
G2 X3.5238 Y13.9388 Z-0.5000 I-0.4762 J0.9888 F500.00
G2 X4.7760 Y13.7260 Z-0.5000 I0.4762 J-0.9888 F500.00
G1 X4.7760 Y13.7260 Z-0.7500 F100.00
G2 X4.4762 Y11.9612 Z-0.7500 I-0.7760 J-0.7760 F500.00
G2 X3.5238 Y13.9388 Z-0.7500 I-0.4762 J0.9888 F500.00
G2 X4.7760 Y13.7260 Z-0.7500 I0.4762 J-0.9888 F500.00
G1 X4.7760 Y13.7260 Z-1.0000 F100.00
G2 X4.4762 Y11.9612 Z-1.0000 I-0.7760 J-0.7760 F500.00
G2 X3.5238 Y13.9388 Z-1.0000 I-0.4762 J0.9888 F500.00
G2 X4.7760 Y13.7260 Z-1.0000 I0.4762 J-0.9888 F500.00
G1 X4.7760 Y13.7260 Z-1.2500 F100.00
G2 X4.4762 Y11.9612 Z-1.2500 I-0.7760 J-0.7760 F500.00
G2 X3.5238 Y13.9388 Z-1.2500 I-0.4762 J0.9888 F500.00
G2 X4.7760 Y13.7260 Z-1.2500 I0.4762 J-0.9888 F500.00
G1 X4.7760 Y13.7260 Z-1.5000 F100.00
G2 X4.4762 Y11.9612 Z-1.5000 I-0.7760 J-0.7760 F500.00
G2 X3.5238 Y13.9388 Z-1.5000 I-0.4762 J0.9888 F500.00
G2 X4.7760 Y13.7260 Z-1.5000 I0.4762 J-0.9888 F500.00
G1 X4.7760 Y13.7260 Z-1.7500 F100.00
G2 X4.4762 Y11.9612 Z-1.7500 I-0.7760 J-0.7760 F500.00
G2 X3.5238 Y13.9388 Z-1.7500 I-0.4762 J0.9888 F500.00
G2 X4.7760 Y13.7260 Z-1.7500 I0.4762 J-0.9888 F500.00
G1 X4.7760 Y13.7260 Z-2.0000 F100.00
G2 X4.4762 Y11.9612 Z-2.0000 I-0.7760 J-0.7760 F500.00
G2 X3.5238 Y13.9388 Z-2.0000 I-0.4762 J0.9888 F500.00
G2 X4.7760 Y13.7260 Z-2.0000 I0.4762 J-0.9888 F500.00
G1 X4.7760 Y13.7260 Z-2.2500 F100.00
G2 X4.4762 Y11.9612 Z-2.2500 I-0.7760 J-0.7760 F500.00
G2 X3.5238 Y13.9388 Z-2.2500 I-0.4762 J0.9888 F500.00
G2 X4.7760 Y13.7260 Z-2.2500 I0.4762 J-0.9888 F500.00
G1 X4.7760 Y13.7260 Z-2.5000 F100.00
G2 X4.4762 Y11.9612 Z-2.5000 I-0.7760 J-0.7760 F500.00
G2 X3.5238 Y13.9388 Z-2.5000 I-0.4762 J0.9888 F500.00
G2 X4.7760 Y13.7260 Z-2.5000 I0.4762 J-0.9888 F500.00
G1 X4.7760 Y13.7260 Z-2.7500 F100.00
G2 X4.4762 Y11.9612 Z-2.7500 I-0.7760 J-0.7760 F500.00
G2 X3.5238 Y13.9388 Z-2.7500 I-0.4762 J0.9888 F500.00
G2 X4.7760 Y13.7260 Z-2.7500 I0.4762 J-0.9888 F500.00
G1 X4.7760 Y13.7260 Z-3.0000 F100.00
G2 X4.4762 Y11.9612 Z-3.0000 I-0.7760 J-0.7760 F500.00
G2 X3.5238 Y13.9388 Z-3.0000 I-0.4762 J0.9888 F500.00
G2 X4.7760 Y13.7260 Z-3.0000 I0.4762 J-0.9888 F500.00
G0 Z5.0000
G0 X13.2760 Y9.0260
G0 Z3.0000
G1 X13.2760 Y9.0260 Z-0.2500 F100.00
G2 X12.9762 Y7.2612 Z-0.2500 I-0.7760 J-0.7760 F500.00
G2 X12.0238 Y9.2388 Z-0.2500 I-0.4762 J0.9888 F500.00
G2 X13.2760 Y9.0260 Z-0.2500 I0.4762 J-0.9888 F500.00
G1 X13.2760 Y9.0260 Z-0.5000 F100.00
G2 X12.9762 Y7.2612 Z-0.5000 I-0.7760 J-0.7760 F500.00
G2 X12.0238 Y9.2388 Z-0.5000 I-0.4762 J0.9888 F500.00
G2 X13.2760 Y9.0260 Z-0.5000 I0.4762 J-0.9888 F500.00
G1 X13.2760 Y9.0260 Z-0.7500 F100.00
G2 X12.9762 Y7.2612 Z-0.7500 I-0.7760 J-0.7760 F500.00
G2 X12.0238 Y9.2388 Z-0.7500 I-0.4762 J0.9888 F500.00
G2 X13.2760 Y9.0260 Z-0.7500 I0.4762 J-0.9888 F500.00
G1 X13.2760 Y9.0260 Z-1.0000 F100.00
G2 X12.9762 Y7.2612 Z-1.0000 I-0.7760 J-0.7760 F500.00
G2 X12.0238 Y9.2388 Z-1.0000 I-0.4762 J0.9888 F500.00
G2 X13.2760 Y9.0260 Z-1.0000 I0.4762 J-0.9888 F500.00
G1 X13.2760 Y9.0260 Z-1.2500 F100.00
G2 X12.9762 Y7.2612 Z-1.2500 I-0.7760 J-0.7760 F500.00
G2 X12.0238 Y9.2388 Z-1.2500 I-0.4762 J0.9888 F500.00
G2 X13.2760 Y9.0260 Z-1.2500 I0.4762 J-0.9888 F500.00
G1 X13.2760 Y9.0260 Z-1.5000 F100.00
G2 X12.9762 Y7.2612 Z-1.5000 I-0.7760 J-0.7760 F500.00
G2 X12.0238 Y9.2388 Z-1.5000 I-0.4762 J0.9888 F500.00
G2 X13.2760 Y9.0260 Z-1.5000 I0.4762 J-0.9888 F500.00
G1 X13.2760 Y9.0260 Z-1.7500 F100.00
G2 X12.9762 Y7.2612 Z-1.7500 I-0.7760 J-0.7760 F500.00
G2 X12.0238 Y9.2388 Z-1.7500 I-0.4762 J0.9888 F500.00
G2 X13.2760 Y9.0260 Z-1.7500 I0.4762 J-0.9888 F500.00
G1 X13.2760 Y9.0260 Z-2.0000 F100.00
G2 X12.9762 Y7.2612 Z-2.0000 I-0.7760 J-0.7760 F500.00
G2 X12.0238 Y9.2388 Z-2.0000 I-0.4762 J0.9888 F500.00
G2 X13.2760 Y9.0260 Z-2.0000 I0.4762 J-0.9888 F500.00
G1 X13.2760 Y9.0260 Z-2.2500 F100.00
G2 X12.9762 Y7.2612 Z-2.2500 I-0.7760 J-0.7760 F500.00
G2 X12.0238 Y9.2388 Z-2.2500 I-0.4762 J0.9888 F500.00
G2 X13.2760 Y9.0260 Z-2.2500 I0.4762 J-0.9888 F500.00
G1 X13.2760 Y9.0260 Z-2.5000 F100.00
G2 X12.9762 Y7.2612 Z-2.5000 I-0.7760 J-0.7760 F500.00
G2 X12.0238 Y9.2388 Z-2.5000 I-0.4762 J0.9888 F500.00
G2 X13.2760 Y9.0260 Z-2.5000 I0.4762 J-0.9888 F500.00
G1 X13.2760 Y9.0260 Z-2.7500 F100.00
G2 X12.9762 Y7.2612 Z-2.7500 I-0.7760 J-0.7760 F500.00
G2 X12.0238 Y9.2388 Z-2.7500 I-0.4762 J0.9888 F500.00
G2 X13.2760 Y9.0260 Z-2.7500 I0.4762 J-0.9888 F500.00
G1 X13.2760 Y9.0260 Z-3.0000 F100.00
G2 X12.9762 Y7.2612 Z-3.0000 I-0.7760 J-0.7760 F500.00
G2 X12.0238 Y9.2388 Z-3.0000 I-0.4762 J0.9888 F500.00
G2 X13.2760 Y9.0260 Z-3.0000 I0.4762 J-0.9888 F500.00
G0 Z5.0000
(finish operation: Profile_Edges024)
(begin operation: Pocket_Shape)
(Path: Pocket_Shape)
(Pocket_Shape)
G0 Z5.0000
G0 X14.3385 Y10.0880
G0 Z3.0000
G1 X14.3385 Y10.0880 Z-0.2500 F100.00
G3 X12.9065 Y10.8168 Z-0.2500 I-1.8359 J-1.8361 F500.00
G3 X12.0935 Y5.6832 Z-0.2500 I-0.4065 J-2.5668 F500.00
G1 X12.4372 Y5.6562 Z-0.2500 F500.00
G1 X12.5000 Y6.4537 Z-0.2500 F500.00
G1 X12.4372 Y5.6562 Z-0.2500 F500.00
G3 X14.3385 Y10.0880 Z-0.2500 I0.0653 J2.5957 F500.00
G0 X14.3385 Y10.0880 Z5.0000
G0 X13.7709 Y9.5206 Z5.0000
G0 X13.7709 Y9.5206 Z2.7500
G1 X13.7709 Y9.5206 Z-0.2500 F100.00
G2 X12.5628 Y6.4587 Z-0.2500 I-1.2689 J-1.2686 F500.00
G1 X12.5000 Y7.2562 Z-0.2500 F500.00
G1 X12.5927 Y7.2635 Z-0.2500 F500.00
G3 X12.5000 Y9.2438 Z-0.2500 I-0.0911 J0.9881 F500.00
G3 X12.5000 Y7.2562 Z-0.2500 I0.0000 J-0.9938 F500.00
G1 X12.5628 Y6.4587 Z-0.2500 F500.00
G1 X12.5000 Y6.4537 Z-0.2500 F500.00
G2 X12.5000 Y10.0463 Z-0.2500 I0.0000 J1.7963 F500.00
G2 X13.7709 Y9.5206 Z-0.2500 I0.0020 J-1.7943 F500.00
G0 X13.7709 Y9.5206 Z5.0000
G0 X12.6353 Y8.3853 Z5.0000
G0 X12.6353 Y8.3853 Z2.7500
G1 X12.6353 Y8.3853 Z-0.2500 F100.00
G2 X12.5299 Y8.0610 Z-0.2500 I-0.1353 J-0.1353 F500.00
G1 X12.5927 Y7.2635 Z-0.2500 F500.00
G1 X12.5299 Y8.0610 Z-0.2500 F500.00
G2 X12.4701 Y8.4390 Z-0.2500 I-0.0299 J0.1890 F500.00
G2 X12.6353 Y8.3853 Z-0.2500 I0.0299 J-0.1890 F500.00
G1 X12.6353 Y8.3853 Z-0.5000 F100.00
G2 X12.5299 Y8.0610 Z-0.5000 I-0.1353 J-0.1353 F500.00
G1 X12.5927 Y7.2635 Z-0.5000 F500.00
G1 X12.5299 Y8.0610 Z-0.5000 F500.00
G2 X12.4701 Y8.4390 Z-0.5000 I-0.0299 J0.1890 F500.00
G2 X12.6353 Y8.3853 Z-0.5000 I0.0299 J-0.1890 F500.00
G0 X12.6353 Y8.3853 Z5.0000
G0 X13.2033 Y8.9531 Z5.0000
G0 X13.2033 Y8.9531 Z2.5000
G1 X13.2033 Y8.9531 Z-0.5000 F100.00
G3 X12.5000 Y9.2438 Z-0.5000 I-0.7017 J-0.7016 F500.00
G3 X12.5000 Y7.2562 Z-0.5000 I0.0000 J-0.9938 F500.00
G1 X12.5628 Y6.4587 Z-0.5000 F500.00
G1 X12.5000 Y6.4537 Z-0.5000 F500.00
G2 X12.5000 Y10.0463 Z-0.5000 I0.0000 J1.7963 F500.00
G2 X12.5628 Y6.4587 Z-0.5000 I0.0020 J-1.7943 F500.00
G1 X12.5000 Y7.2562 Z-0.5000 F500.00
G1 X12.5927 Y7.2635 Z-0.5000 F500.00
G3 X13.2033 Y8.9531 Z-0.5000 I-0.0911 J0.9881 F500.00
G0 X13.2033 Y8.9531 Z5.0000
G0 X14.3379 Y10.0886 Z5.0000
G0 X14.3379 Y10.0886 Z2.5000
G1 X14.3379 Y10.0886 Z-0.5000 F100.00
G3 X12.9065 Y10.8168 Z-0.5000 I-1.8353 J-1.8367 F500.00
G3 X12.0935 Y5.6832 Z-0.5000 I-0.4065 J-2.5668 F500.00
G1 X12.4372 Y5.6562 Z-0.5000 F500.00
G1 X12.5000 Y6.4537 Z-0.5000 F500.00
G1 X12.4372 Y5.6562 Z-0.5000 F500.00
G3 X14.3379 Y10.0886 Z-0.5000 I0.0653 J2.5957 F500.00
G1 X14.3379 Y10.0886 Z-0.7500 F100.00
G3 X12.9065 Y10.8168 Z-0.7500 I-1.8353 J-1.8367 F500.00
G3 X12.0935 Y5.6832 Z-0.7500 I-0.4065 J-2.5668 F500.00
G1 X12.4372 Y5.6562 Z-0.7500 F500.00
G1 X12.5000 Y6.4537 Z-0.7500 F500.00
G1 X12.4372 Y5.6562 Z-0.7500 F500.00
G3 X14.3379 Y10.0886 Z-0.7500 I0.0653 J2.5957 F500.00
G0 X14.3379 Y10.0886 Z5.0000
G0 X13.7705 Y9.5210 Z5.0000
G0 X13.7705 Y9.5210 Z2.2500
G1 X13.7705 Y9.5210 Z-0.7500 F100.00
G2 X12.5628 Y6.4587 Z-0.7500 I-1.2685 J-1.2690 F500.00
G1 X12.5000 Y7.2562 Z-0.7500 F500.00
G1 X12.5927 Y7.2635 Z-0.7500 F500.00
G3 X12.5000 Y9.2438 Z-0.7500 I-0.0911 J0.9881 F500.00
G3 X12.5000 Y7.2562 Z-0.7500 I0.0000 J-0.9938 F500.00
G1 X12.5628 Y6.4587 Z-0.7500 F500.00
G1 X12.5000 Y6.4537 Z-0.7500 F500.00
G2 X12.5000 Y10.0463 Z-0.7500 I0.0000 J1.7963 F500.00
G2 X13.7705 Y9.5210 Z-0.7500 I0.0020 J-1.7943 F500.00
G0 X13.7705 Y9.5210 Z5.0000
G0 X12.6353 Y8.3853 Z5.0000
G0 X12.6353 Y8.3853 Z2.2500
G1 X12.6353 Y8.3853 Z-0.7500 F100.00
G2 X12.5299 Y8.0610 Z-0.7500 I-0.1353 J-0.1353 F500.00
G1 X12.5927 Y7.2635 Z-0.7500 F500.00
G1 X12.5299 Y8.0610 Z-0.7500 F500.00
G2 X12.4701 Y8.4390 Z-0.7500 I-0.0299 J0.1890 F500.00
G2 X12.6353 Y8.3853 Z-0.7500 I0.0299 J-0.1890 F500.00
G1 X12.6353 Y8.3853 Z-1.0000 F100.00
G2 X12.5299 Y8.0610 Z-1.0000 I-0.1353 J-0.1353 F500.00
G1 X12.5927 Y7.2635 Z-1.0000 F500.00
G1 X12.5299 Y8.0610 Z-1.0000 F500.00
G2 X12.4701 Y8.4390 Z-1.0000 I-0.0299 J0.1890 F500.00
G2 X12.6353 Y8.3853 Z-1.0000 I0.0299 J-0.1890 F500.00
G0 X12.6353 Y8.3853 Z5.0000
G0 X13.2031 Y8.9533 Z5.0000
G0 X13.2031 Y8.9533 Z2.0000
G1 X13.2031 Y8.9533 Z-1.0000 F100.00
G3 X12.5000 Y9.2438 Z-1.0000 I-0.7015 J-0.7018 F500.00
G3 X12.5000 Y7.2562 Z-1.0000 I0.0000 J-0.9938 F500.00
G1 X12.5628 Y6.4587 Z-1.0000 F500.00
G1 X12.5000 Y6.4537 Z-1.0000 F500.00
G2 X12.5000 Y10.0463 Z-1.0000 I0.0000 J1.7963 F500.00
G2 X12.5628 Y6.4587 Z-1.0000 I0.0020 J-1.7943 F500.00
G1 X12.5000 Y7.2562 Z-1.0000 F500.00
G1 X12.5927 Y7.2635 Z-1.0000 F500.00
G3 X13.2031 Y8.9533 Z-1.0000 I-0.0911 J0.9881 F500.00
G0 X13.2031 Y8.9533 Z5.0000
G0 X14.3373 Y10.0892 Z5.0000
G0 X14.3373 Y10.0892 Z2.0000
G1 X14.3373 Y10.0892 Z-1.0000 F100.00
G3 X12.9065 Y10.8168 Z-1.0000 I-1.8347 J-1.8373 F500.00
G3 X12.0935 Y5.6832 Z-1.0000 I-0.4065 J-2.5668 F500.00
G1 X12.4372 Y5.6562 Z-1.0000 F500.00
G1 X12.5000 Y6.4537 Z-1.0000 F500.00
G1 X12.4372 Y5.6562 Z-1.0000 F500.00
G3 X14.3373 Y10.0892 Z-1.0000 I0.0653 J2.5957 F500.00
G1 X14.3373 Y10.0892 Z-1.2500 F100.00
G3 X12.9065 Y10.8168 Z-1.2500 I-1.8347 J-1.8373 F500.00
G3 X12.0935 Y5.6832 Z-1.2500 I-0.4065 J-2.5668 F500.00
G1 X12.4372 Y5.6562 Z-1.2500 F500.00
G1 X12.5000 Y6.4537 Z-1.2500 F500.00
G1 X12.4372 Y5.6562 Z-1.2500 F500.00
G3 X14.3373 Y10.0892 Z-1.2500 I0.0653 J2.5957 F500.00
G0 X14.3373 Y10.0892 Z5.0000
G0 X13.7701 Y9.5214 Z5.0000
G0 X13.7701 Y9.5214 Z1.7500
G1 X13.7701 Y9.5214 Z-1.2500 F100.00
G2 X12.5628 Y6.4587 Z-1.2500 I-1.2681 J-1.2694 F500.00
G1 X12.5000 Y7.2562 Z-1.2500 F500.00
G1 X12.5927 Y7.2635 Z-1.2500 F500.00
G3 X12.5000 Y9.2438 Z-1.2500 I-0.0911 J0.9881 F500.00
G3 X12.5000 Y7.2562 Z-1.2500 I0.0000 J-0.9938 F500.00
G1 X12.5628 Y6.4587 Z-1.2500 F500.00
G1 X12.5000 Y6.4537 Z-1.2500 F500.00
G2 X12.5000 Y10.0463 Z-1.2500 I0.0000 J1.7963 F500.00
G2 X13.7701 Y9.5214 Z-1.2500 I0.0020 J-1.7943 F500.00
G0 X13.7701 Y9.5214 Z5.0000
G0 X12.6352 Y8.3854 Z5.0000
G0 X12.6352 Y8.3854 Z1.7500
G1 X12.6352 Y8.3854 Z-1.2500 F100.00
G2 X12.5299 Y8.0610 Z-1.2500 I-0.1352 J-0.1354 F500.00
G1 X12.5927 Y7.2635 Z-1.2500 F500.00
G1 X12.5299 Y8.0610 Z-1.2500 F500.00
G2 X12.4701 Y8.4390 Z-1.2500 I-0.0299 J0.1890 F500.00
G2 X12.6352 Y8.3854 Z-1.2500 I0.0299 J-0.1890 F500.00
G1 X12.6352 Y8.3854 Z-1.5000 F100.00
G2 X12.5299 Y8.0610 Z-1.5000 I-0.1352 J-0.1354 F500.00
G1 X12.5927 Y7.2635 Z-1.5000 F500.00
G1 X12.5299 Y8.0610 Z-1.5000 F500.00
G2 X12.4701 Y8.4390 Z-1.5000 I-0.0299 J0.1890 F500.00
G2 X12.6352 Y8.3854 Z-1.5000 I0.0299 J-0.1890 F500.00
G0 X12.6352 Y8.3854 Z5.0000
G0 X13.2028 Y8.9535 Z5.0000
G0 X13.2028 Y8.9535 Z1.5000
G1 X13.2028 Y8.9535 Z-1.5000 F100.00
G3 X12.5000 Y9.2438 Z-1.5000 I-0.7013 J-0.7020 F500.00
G3 X12.5000 Y7.2562 Z-1.5000 I0.0000 J-0.9938 F500.00
G1 X12.5628 Y6.4587 Z-1.5000 F500.00
G1 X12.5000 Y6.4537 Z-1.5000 F500.00
G2 X12.5000 Y10.0463 Z-1.5000 I0.0000 J1.7963 F500.00
G2 X12.5628 Y6.4587 Z-1.5000 I0.0020 J-1.7943 F500.00
G1 X12.5000 Y7.2562 Z-1.5000 F500.00
G1 X12.5927 Y7.2635 Z-1.5000 F500.00
G3 X13.2028 Y8.9535 Z-1.5000 I-0.0911 J0.9881 F500.00
G0 X13.2028 Y8.9535 Z5.0000
G0 X14.3367 Y10.0897 Z5.0000
G0 X14.3367 Y10.0897 Z1.5000
G1 X14.3367 Y10.0897 Z-1.5000 F100.00
G3 X12.9065 Y10.8168 Z-1.5000 I-1.8342 J-1.8379 F500.00
G3 X12.0935 Y5.6832 Z-1.5000 I-0.4065 J-2.5668 F500.00
G1 X12.4372 Y5.6562 Z-1.5000 F500.00
G1 X12.5000 Y6.4537 Z-1.5000 F500.00
G1 X12.4372 Y5.6562 Z-1.5000 F500.00
G3 X14.3367 Y10.0897 Z-1.5000 I0.0653 J2.5957 F500.00
G1 X14.3367 Y10.0897 Z-1.7500 F100.00
G3 X12.9065 Y10.8168 Z-1.7500 I-1.8342 J-1.8379 F500.00
G3 X12.0935 Y5.6832 Z-1.7500 I-0.4065 J-2.5668 F500.00
G1 X12.4372 Y5.6562 Z-1.7500 F500.00
G1 X12.5000 Y6.4537 Z-1.7500 F500.00
G1 X12.4372 Y5.6562 Z-1.7500 F500.00
G3 X14.3367 Y10.0897 Z-1.7500 I0.0653 J2.5957 F500.00
G0 X14.3367 Y10.0897 Z5.0000
G0 X13.7697 Y9.5218 Z5.0000
G0 X13.7697 Y9.5218 Z1.2500
G1 X13.7697 Y9.5218 Z-1.7500 F100.00
G2 X12.5628 Y6.4587 Z-1.7500 I-1.2677 J-1.2698 F500.00
G1 X12.5000 Y7.2562 Z-1.7500 F500.00
G1 X12.5927 Y7.2635 Z-1.7500 F500.00
G3 X12.5000 Y9.2438 Z-1.7500 I-0.0911 J0.9881 F500.00
G3 X12.5000 Y7.2562 Z-1.7500 I0.0000 J-0.9938 F500.00
G1 X12.5628 Y6.4587 Z-1.7500 F500.00
G1 X12.5000 Y6.4537 Z-1.7500 F500.00
G2 X12.5000 Y10.0463 Z-1.7500 I0.0000 J1.7963 F500.00
G2 X13.7697 Y9.5218 Z-1.7500 I0.0020 J-1.7943 F500.00
G0 X13.7697 Y9.5218 Z5.0000
G0 X12.6352 Y8.3854 Z5.0000
G0 X12.6352 Y8.3854 Z1.2500
G1 X12.6352 Y8.3854 Z-1.7500 F100.00
G2 X12.5299 Y8.0610 Z-1.7500 I-0.1352 J-0.1354 F500.00
G1 X12.5927 Y7.2635 Z-1.7500 F500.00
G1 X12.5299 Y8.0610 Z-1.7500 F500.00
G2 X12.4701 Y8.4390 Z-1.7500 I-0.0299 J0.1890 F500.00
G2 X12.6352 Y8.3854 Z-1.7500 I0.0299 J-0.1890 F500.00
G1 X12.6352 Y8.3854 Z-2.0000 F100.00
G2 X12.5299 Y8.0610 Z-2.0000 I-0.1352 J-0.1354 F500.00
G1 X12.5927 Y7.2635 Z-2.0000 F500.00
G1 X12.5299 Y8.0610 Z-2.0000 F500.00
G2 X12.4701 Y8.4390 Z-2.0000 I-0.0299 J0.1890 F500.00
G2 X12.6352 Y8.3854 Z-2.0000 I0.0299 J-0.1890 F500.00
G0 X12.6352 Y8.3854 Z5.0000
G0 X13.2026 Y8.9538 Z5.0000
G0 X13.2026 Y8.9538 Z1.0000
G1 X13.2026 Y8.9538 Z-2.0000 F100.00
G3 X12.5000 Y9.2438 Z-2.0000 I-0.7011 J-0.7022 F500.00
G3 X12.5000 Y7.2562 Z-2.0000 I0.0000 J-0.9938 F500.00
G1 X12.5628 Y6.4587 Z-2.0000 F500.00
G1 X12.5000 Y6.4537 Z-2.0000 F500.00
G2 X12.5000 Y10.0463 Z-2.0000 I0.0000 J1.7963 F500.00
G2 X12.5628 Y6.4587 Z-2.0000 I0.0020 J-1.7943 F500.00
G1 X12.5000 Y7.2562 Z-2.0000 F500.00
G1 X12.5927 Y7.2635 Z-2.0000 F500.00
G3 X13.2026 Y8.9538 Z-2.0000 I-0.0911 J0.9881 F500.00
G0 X13.2026 Y8.9538 Z5.0000
G0 X14.3361 Y10.0903 Z5.0000
G0 X14.3361 Y10.0903 Z1.0000
G1 X14.3361 Y10.0903 Z-2.0000 F100.00
G3 X12.9065 Y10.8168 Z-2.0000 I-1.8336 J-1.8385 F500.00
G3 X12.0935 Y5.6832 Z-2.0000 I-0.4065 J-2.5668 F500.00
G1 X12.4372 Y5.6562 Z-2.0000 F500.00
G1 X12.5000 Y6.4537 Z-2.0000 F500.00
G1 X12.4372 Y5.6562 Z-2.0000 F500.00
G3 X14.3361 Y10.0903 Z-2.0000 I0.0653 J2.5957 F500.00
G1 X14.3361 Y10.0903 Z-2.2500 F100.00
G3 X12.9065 Y10.8168 Z-2.2500 I-1.8336 J-1.8385 F500.00
G3 X12.0935 Y5.6832 Z-2.2500 I-0.4065 J-2.5668 F500.00
G1 X12.4372 Y5.6562 Z-2.2500 F500.00
G1 X12.5000 Y6.4537 Z-2.2500 F500.00
G1 X12.4372 Y5.6562 Z-2.2500 F500.00
G3 X14.3361 Y10.0903 Z-2.2500 I0.0653 J2.5957 F500.00
G0 X14.3361 Y10.0903 Z5.0000
G0 X13.7693 Y9.5222 Z5.0000
G0 X13.7693 Y9.5222 Z0.7500
G1 X13.7693 Y9.5222 Z-2.2500 F100.00
G2 X12.5628 Y6.4587 Z-2.2500 I-1.2673 J-1.2702 F500.00
G1 X12.5000 Y7.2562 Z-2.2500 F500.00
G1 X12.5927 Y7.2635 Z-2.2500 F500.00
G3 X12.5000 Y9.2438 Z-2.2500 I-0.0911 J0.9881 F500.00
G3 X12.5000 Y7.2562 Z-2.2500 I0.0000 J-0.9938 F500.00
G1 X12.5628 Y6.4587 Z-2.2500 F500.00
G1 X12.5000 Y6.4537 Z-2.2500 F500.00
G2 X12.5000 Y10.0463 Z-2.2500 I0.0000 J1.7963 F500.00
G2 X13.7693 Y9.5222 Z-2.2500 I0.0020 J-1.7943 F500.00
G0 X13.7693 Y9.5222 Z5.0000
G0 X12.6351 Y8.3855 Z5.0000
G0 X12.6351 Y8.3855 Z0.7500
G1 X12.6351 Y8.3855 Z-2.2500 F100.00
G2 X12.5299 Y8.0610 Z-2.2500 I-0.1351 J-0.1355 F500.00
G1 X12.5927 Y7.2635 Z-2.2500 F500.00
G1 X12.5299 Y8.0610 Z-2.2500 F500.00
G2 X12.4701 Y8.4390 Z-2.2500 I-0.0299 J0.1890 F500.00
G2 X12.6351 Y8.3855 Z-2.2500 I0.0299 J-0.1890 F500.00
G1 X12.6351 Y8.3855 Z-2.5000 F100.00
G2 X12.5299 Y8.0610 Z-2.5000 I-0.1351 J-0.1355 F500.00
G1 X12.5927 Y7.2635 Z-2.5000 F500.00
G1 X12.5299 Y8.0610 Z-2.5000 F500.00
G2 X12.4701 Y8.4390 Z-2.5000 I-0.0299 J0.1890 F500.00
G2 X12.6351 Y8.3855 Z-2.5000 I0.0299 J-0.1890 F500.00
G0 X12.6351 Y8.3855 Z5.0000
G0 X13.2024 Y8.9540 Z5.0000
G0 X13.2024 Y8.9540 Z0.5000
G1 X13.2024 Y8.9540 Z-2.5000 F100.00
G3 X12.5000 Y9.2438 Z-2.5000 I-0.7008 J-0.7024 F500.00
G3 X12.5000 Y7.2562 Z-2.5000 I0.0000 J-0.9938 F500.00
G1 X12.5628 Y6.4587 Z-2.5000 F500.00
G1 X12.5000 Y6.4537 Z-2.5000 F500.00
G2 X12.5000 Y10.0463 Z-2.5000 I0.0000 J1.7963 F500.00
G2 X12.5628 Y6.4587 Z-2.5000 I0.0020 J-1.7943 F500.00
G1 X12.5000 Y7.2562 Z-2.5000 F500.00
G1 X12.5927 Y7.2635 Z-2.5000 F500.00
G3 X13.2024 Y8.9540 Z-2.5000 I-0.0911 J0.9881 F500.00
G0 X13.2024 Y8.9540 Z5.0000
G0 X14.3356 Y10.0909 Z5.0000
G0 X14.3356 Y10.0909 Z0.5000
G1 X14.3356 Y10.0909 Z-2.5000 F100.00
G3 X12.9065 Y10.8168 Z-2.5000 I-1.8330 J-1.8390 F500.00
G3 X12.0935 Y5.6832 Z-2.5000 I-0.4065 J-2.5668 F500.00
G1 X12.4372 Y5.6562 Z-2.5000 F500.00
G1 X12.5000 Y6.4537 Z-2.5000 F500.00
G1 X12.4372 Y5.6562 Z-2.5000 F500.00
G3 X14.3356 Y10.0909 Z-2.5000 I0.0653 J2.5957 F500.00
G0 Z5.0000
(finish operation: Pocket_Shape)
(begin operation: Profile_Edges026)
(Path: Profile_Edges026)
(Profile_Edges026)
(Compensated Tool Path. Diameter: 0.8)
G0 Z5.0000
G0 X43.2828 Y16.7828
G0 Z3.0000
G1 X43.2828 Y16.7828 Z-0.2500 F100.00
G2 X43.4000 Y16.5000 Z-0.2500 I-0.2828 J-0.2828 F500.00
G1 X43.4000 Y9.5000 Z-0.2500 F500.00
G2 X43.0000 Y9.1000 Z-0.2500 I-0.4000 J0.0000 F500.00
G1 X17.9000 Y9.1000 Z-0.2500 F500.00
G1 X17.9000 Y7.4000 Z-0.2500 F500.00
G1 X25.0000 Y7.4000 Z-0.2500 F500.00
G2 X25.4000 Y7.0000 Z-0.2500 I-0.0000 J-0.4000 F500.00
G1 X25.4000 Y0.0000 Z-0.2500 F500.00
G2 X25.0000 Y-0.4000 Z-0.2500 I-0.4000 J0.0000 F500.00
G1 X0.0000 Y-0.4000 Z-0.2500 F500.00
G2 X-0.4000 Y0.0000 Z-0.2500 I0.0000 J0.4000 F500.00
G1 X-0.4000 Y7.0000 Z-0.2500 F500.00
G2 X0.0000 Y7.4000 Z-0.2500 I0.4000 J-0.0000 F500.00
G1 X7.1000 Y7.4000 Z-0.2500 F500.00
G1 X7.1000 Y9.1000 Z-0.2500 F500.00
G1 X0.0000 Y9.1000 Z-0.2500 F500.00
G2 X-0.4000 Y9.5000 Z-0.2500 I0.0000 J0.4000 F500.00
G1 X-0.4000 Y16.5000 Z-0.2500 F500.00
G2 X0.0000 Y16.9000 Z-0.2500 I0.4000 J-0.0000 F500.00
G1 X43.0000 Y16.9000 Z-0.2500 F500.00
G2 X43.2828 Y16.7828 Z-0.2500 I-0.0000 J-0.4000 F500.00
G1 X43.2828 Y16.7828 Z-0.5000 F100.00
G2 X43.4000 Y16.5000 Z-0.5000 I-0.2828 J-0.2828 F500.00
G1 X43.4000 Y9.5000 Z-0.5000 F500.00
G2 X43.0000 Y9.1000 Z-0.5000 I-0.4000 J0.0000 F500.00
G1 X17.9000 Y9.1000 Z-0.5000 F500.00
G1 X17.9000 Y7.4000 Z-0.5000 F500.00
G1 X25.0000 Y7.4000 Z-0.5000 F500.00
G2 X25.4000 Y7.0000 Z-0.5000 I-0.0000 J-0.4000 F500.00
G1 X25.4000 Y0.0000 Z-0.5000 F500.00
G2 X25.0000 Y-0.4000 Z-0.5000 I-0.4000 J0.0000 F500.00
G1 X0.0000 Y-0.4000 Z-0.5000 F500.00
G2 X-0.4000 Y0.0000 Z-0.5000 I0.0000 J0.4000 F500.00
G1 X-0.4000 Y7.0000 Z-0.5000 F500.00
G2 X0.0000 Y7.4000 Z-0.5000 I0.4000 J-0.0000 F500.00
G1 X7.1000 Y7.4000 Z-0.5000 F500.00
G1 X7.1000 Y9.1000 Z-0.5000 F500.00
G1 X0.0000 Y9.1000 Z-0.5000 F500.00
G2 X-0.4000 Y9.5000 Z-0.5000 I0.0000 J0.4000 F500.00
G1 X-0.4000 Y16.5000 Z-0.5000 F500.00
G2 X0.0000 Y16.9000 Z-0.5000 I0.4000 J-0.0000 F500.00
G1 X43.0000 Y16.9000 Z-0.5000 F500.00
G2 X43.2828 Y16.7828 Z-0.5000 I-0.0000 J-0.4000 F500.00
G1 X43.2828 Y16.7828 Z-0.7500 F100.00
G2 X43.4000 Y16.5000 Z-0.7500 I-0.2828 J-0.2828 F500.00
G1 X43.4000 Y9.5000 Z-0.7500 F500.00
G2 X43.0000 Y9.1000 Z-0.7500 I-0.4000 J0.0000 F500.00
G1 X17.9000 Y9.1000 Z-0.7500 F500.00
G1 X17.9000 Y7.4000 Z-0.7500 F500.00
G1 X25.0000 Y7.4000 Z-0.7500 F500.00
G2 X25.4000 Y7.0000 Z-0.7500 I-0.0000 J-0.4000 F500.00
G1 X25.4000 Y0.0000 Z-0.7500 F500.00
G2 X25.0000 Y-0.4000 Z-0.7500 I-0.4000 J0.0000 F500.00
G1 X0.0000 Y-0.4000 Z-0.7500 F500.00
G2 X-0.4000 Y0.0000 Z-0.7500 I0.0000 J0.4000 F500.00
G1 X-0.4000 Y7.0000 Z-0.7500 F500.00
G2 X0.0000 Y7.4000 Z-0.7500 I0.4000 J-0.0000 F500.00
G1 X7.1000 Y7.4000 Z-0.7500 F500.00
G1 X7.1000 Y9.1000 Z-0.7500 F500.00
G1 X0.0000 Y9.1000 Z-0.7500 F500.00
G2 X-0.4000 Y9.5000 Z-0.7500 I0.0000 J0.4000 F500.00
G1 X-0.4000 Y16.5000 Z-0.7500 F500.00
G2 X0.0000 Y16.9000 Z-0.7500 I0.4000 J-0.0000 F500.00
G1 X43.0000 Y16.9000 Z-0.7500 F500.00
G2 X43.2828 Y16.7828 Z-0.7500 I-0.0000 J-0.4000 F500.00
G1 X43.2828 Y16.7828 Z-1.0000 F100.00
G2 X43.4000 Y16.5000 Z-1.0000 I-0.2828 J-0.2828 F500.00
G1 X43.4000 Y9.5000 Z-1.0000 F500.00
G2 X43.0000 Y9.1000 Z-1.0000 I-0.4000 J0.0000 F500.00
G1 X17.9000 Y9.1000 Z-1.0000 F500.00
G1 X17.9000 Y7.4000 Z-1.0000 F500.00
G1 X25.0000 Y7.4000 Z-1.0000 F500.00
G2 X25.4000 Y7.0000 Z-1.0000 I-0.0000 J-0.4000 F500.00
G1 X25.4000 Y0.0000 Z-1.0000 F500.00
G2 X25.0000 Y-0.4000 Z-1.0000 I-0.4000 J0.0000 F500.00
G1 X0.0000 Y-0.4000 Z-1.0000 F500.00
G2 X-0.4000 Y0.0000 Z-1.0000 I0.0000 J0.4000 F500.00
G1 X-0.4000 Y7.0000 Z-1.0000 F500.00
G2 X0.0000 Y7.4000 Z-1.0000 I0.4000 J-0.0000 F500.00
G1 X7.1000 Y7.4000 Z-1.0000 F500.00
G1 X7.1000 Y9.1000 Z-1.0000 F500.00
G1 X0.0000 Y9.1000 Z-1.0000 F500.00
G2 X-0.4000 Y9.5000 Z-1.0000 I0.0000 J0.4000 F500.00
G1 X-0.4000 Y16.5000 Z-1.0000 F500.00
G2 X0.0000 Y16.9000 Z-1.0000 I0.4000 J-0.0000 F500.00
G1 X43.0000 Y16.9000 Z-1.0000 F500.00
G2 X43.2828 Y16.7828 Z-1.0000 I-0.0000 J-0.4000 F500.00
G1 X43.2828 Y16.7828 Z-1.2500 F100.00
G2 X43.4000 Y16.5000 Z-1.2500 I-0.2828 J-0.2828 F500.00
G1 X43.4000 Y9.5000 Z-1.2500 F500.00
G2 X43.0000 Y9.1000 Z-1.2500 I-0.4000 J0.0000 F500.00
G1 X17.9000 Y9.1000 Z-1.2500 F500.00
G1 X17.9000 Y7.4000 Z-1.2500 F500.00
G1 X25.0000 Y7.4000 Z-1.2500 F500.00
G2 X25.4000 Y7.0000 Z-1.2500 I-0.0000 J-0.4000 F500.00
G1 X25.4000 Y0.0000 Z-1.2500 F500.00
G2 X25.0000 Y-0.4000 Z-1.2500 I-0.4000 J0.0000 F500.00
G1 X0.0000 Y-0.4000 Z-1.2500 F500.00
G2 X-0.4000 Y0.0000 Z-1.2500 I0.0000 J0.4000 F500.00
G1 X-0.4000 Y7.0000 Z-1.2500 F500.00
G2 X0.0000 Y7.4000 Z-1.2500 I0.4000 J-0.0000 F500.00
G1 X7.1000 Y7.4000 Z-1.2500 F500.00
G1 X7.1000 Y9.1000 Z-1.2500 F500.00
G1 X0.0000 Y9.1000 Z-1.2500 F500.00
G2 X-0.4000 Y9.5000 Z-1.2500 I0.0000 J0.4000 F500.00
G1 X-0.4000 Y16.5000 Z-1.2500 F500.00
G2 X0.0000 Y16.9000 Z-1.2500 I0.4000 J-0.0000 F500.00
G1 X43.0000 Y16.9000 Z-1.2500 F500.00
G2 X43.2828 Y16.7828 Z-1.2500 I-0.0000 J-0.4000 F500.00
G1 X43.2828 Y16.7828 Z-1.5000 F100.00
G2 X43.4000 Y16.5000 Z-1.5000 I-0.2828 J-0.2828 F500.00
G1 X43.4000 Y9.5000 Z-1.5000 F500.00
G2 X43.0000 Y9.1000 Z-1.5000 I-0.4000 J0.0000 F500.00
G1 X17.9000 Y9.1000 Z-1.5000 F500.00
G1 X17.9000 Y7.4000 Z-1.5000 F500.00
G1 X25.0000 Y7.4000 Z-1.5000 F500.00
G2 X25.4000 Y7.0000 Z-1.5000 I-0.0000 J-0.4000 F500.00
G1 X25.4000 Y0.0000 Z-1.5000 F500.00
G2 X25.0000 Y-0.4000 Z-1.5000 I-0.4000 J0.0000 F500.00
G1 X0.0000 Y-0.4000 Z-1.5000 F500.00
G2 X-0.4000 Y0.0000 Z-1.5000 I0.0000 J0.4000 F500.00
G1 X-0.4000 Y7.0000 Z-1.5000 F500.00
G2 X0.0000 Y7.4000 Z-1.5000 I0.4000 J-0.0000 F500.00
G1 X7.1000 Y7.4000 Z-1.5000 F500.00
G1 X7.1000 Y9.1000 Z-1.5000 F500.00
G1 X0.0000 Y9.1000 Z-1.5000 F500.00
G2 X-0.4000 Y9.5000 Z-1.5000 I0.0000 J0.4000 F500.00
G1 X-0.4000 Y16.5000 Z-1.5000 F500.00
G2 X0.0000 Y16.9000 Z-1.5000 I0.4000 J-0.0000 F500.00
G1 X43.0000 Y16.9000 Z-1.5000 F500.00
G2 X43.2828 Y16.7828 Z-1.5000 I-0.0000 J-0.4000 F500.00
G1 X43.2828 Y16.7828 Z-1.7500 F100.00
G2 X43.4000 Y16.5000 Z-1.7500 I-0.2828 J-0.2828 F500.00
G1 X43.4000 Y9.5000 Z-1.7500 F500.00
G2 X43.0000 Y9.1000 Z-1.7500 I-0.4000 J0.0000 F500.00
G1 X17.9000 Y9.1000 Z-1.7500 F500.00
G1 X17.9000 Y7.4000 Z-1.7500 F500.00
G1 X25.0000 Y7.4000 Z-1.7500 F500.00
G2 X25.4000 Y7.0000 Z-1.7500 I-0.0000 J-0.4000 F500.00
G1 X25.4000 Y0.0000 Z-1.7500 F500.00
G2 X25.0000 Y-0.4000 Z-1.7500 I-0.4000 J0.0000 F500.00
G1 X0.0000 Y-0.4000 Z-1.7500 F500.00
G2 X-0.4000 Y0.0000 Z-1.7500 I0.0000 J0.4000 F500.00
G1 X-0.4000 Y7.0000 Z-1.7500 F500.00
G2 X0.0000 Y7.4000 Z-1.7500 I0.4000 J-0.0000 F500.00
G1 X7.1000 Y7.4000 Z-1.7500 F500.00
G1 X7.1000 Y9.1000 Z-1.7500 F500.00
G1 X0.0000 Y9.1000 Z-1.7500 F500.00
G2 X-0.4000 Y9.5000 Z-1.7500 I0.0000 J0.4000 F500.00
G1 X-0.4000 Y16.5000 Z-1.7500 F500.00
G2 X0.0000 Y16.9000 Z-1.7500 I0.4000 J-0.0000 F500.00
G1 X43.0000 Y16.9000 Z-1.7500 F500.00
G2 X43.2828 Y16.7828 Z-1.7500 I-0.0000 J-0.4000 F500.00
G1 X43.2828 Y16.7828 Z-2.0000 F100.00
G2 X43.4000 Y16.5000 Z-2.0000 I-0.2828 J-0.2828 F500.00
G1 X43.4000 Y9.5000 Z-2.0000 F500.00
G2 X43.0000 Y9.1000 Z-2.0000 I-0.4000 J0.0000 F500.00
G1 X17.9000 Y9.1000 Z-2.0000 F500.00
G1 X17.9000 Y7.4000 Z-2.0000 F500.00
G1 X25.0000 Y7.4000 Z-2.0000 F500.00
G2 X25.4000 Y7.0000 Z-2.0000 I-0.0000 J-0.4000 F500.00
G1 X25.4000 Y0.0000 Z-2.0000 F500.00
G2 X25.0000 Y-0.4000 Z-2.0000 I-0.4000 J0.0000 F500.00
G1 X0.0000 Y-0.4000 Z-2.0000 F500.00
G2 X-0.4000 Y0.0000 Z-2.0000 I0.0000 J0.4000 F500.00
G1 X-0.4000 Y7.0000 Z-2.0000 F500.00
G2 X0.0000 Y7.4000 Z-2.0000 I0.4000 J-0.0000 F500.00
G1 X7.1000 Y7.4000 Z-2.0000 F500.00
G1 X7.1000 Y9.1000 Z-2.0000 F500.00
G1 X0.0000 Y9.1000 Z-2.0000 F500.00
G2 X-0.4000 Y9.5000 Z-2.0000 I0.0000 J0.4000 F500.00
G1 X-0.4000 Y16.5000 Z-2.0000 F500.00
G2 X0.0000 Y16.9000 Z-2.0000 I0.4000 J-0.0000 F500.00
G1 X43.0000 Y16.9000 Z-2.0000 F500.00
G2 X43.2828 Y16.7828 Z-2.0000 I-0.0000 J-0.4000 F500.00
G1 X43.2828 Y16.7828 Z-2.2500 F100.00
G2 X43.4000 Y16.5000 Z-2.2500 I-0.2828 J-0.2828 F500.00
G1 X43.4000 Y9.5000 Z-2.2500 F500.00
G2 X43.0000 Y9.1000 Z-2.2500 I-0.4000 J0.0000 F500.00
G1 X17.9000 Y9.1000 Z-2.2500 F500.00
G1 X17.9000 Y7.4000 Z-2.2500 F500.00
G1 X25.0000 Y7.4000 Z-2.2500 F500.00
G2 X25.4000 Y7.0000 Z-2.2500 I-0.0000 J-0.4000 F500.00
G1 X25.4000 Y0.0000 Z-2.2500 F500.00
G2 X25.0000 Y-0.4000 Z-2.2500 I-0.4000 J0.0000 F500.00
G1 X0.0000 Y-0.4000 Z-2.2500 F500.00
G2 X-0.4000 Y0.0000 Z-2.2500 I0.0000 J0.4000 F500.00
G1 X-0.4000 Y7.0000 Z-2.2500 F500.00
G2 X0.0000 Y7.4000 Z-2.2500 I0.4000 J-0.0000 F500.00
G1 X7.1000 Y7.4000 Z-2.2500 F500.00
G1 X7.1000 Y9.1000 Z-2.2500 F500.00
G1 X0.0000 Y9.1000 Z-2.2500 F500.00
G2 X-0.4000 Y9.5000 Z-2.2500 I0.0000 J0.4000 F500.00
G1 X-0.4000 Y16.5000 Z-2.2500 F500.00
G2 X0.0000 Y16.9000 Z-2.2500 I0.4000 J-0.0000 F500.00
G1 X43.0000 Y16.9000 Z-2.2500 F500.00
G2 X43.2828 Y16.7828 Z-2.2500 I-0.0000 J-0.4000 F500.00
G1 X43.2828 Y16.7828 Z-2.5000 F100.00
G2 X43.4000 Y16.5000 Z-2.5000 I-0.2828 J-0.2828 F500.00
G1 X43.4000 Y9.5000 Z-2.5000 F500.00
G2 X43.0000 Y9.1000 Z-2.5000 I-0.4000 J0.0000 F500.00
G1 X17.9000 Y9.1000 Z-2.5000 F500.00
G1 X17.9000 Y7.4000 Z-2.5000 F500.00
G1 X25.0000 Y7.4000 Z-2.5000 F500.00
G2 X25.4000 Y7.0000 Z-2.5000 I-0.0000 J-0.4000 F500.00
G1 X25.4000 Y0.0000 Z-2.5000 F500.00
G2 X25.0000 Y-0.4000 Z-2.5000 I-0.4000 J0.0000 F500.00
G1 X0.0000 Y-0.4000 Z-2.5000 F500.00
G2 X-0.4000 Y0.0000 Z-2.5000 I0.0000 J0.4000 F500.00
G1 X-0.4000 Y7.0000 Z-2.5000 F500.00
G2 X0.0000 Y7.4000 Z-2.5000 I0.4000 J-0.0000 F500.00
G1 X7.1000 Y7.4000 Z-2.5000 F500.00
G1 X7.1000 Y9.1000 Z-2.5000 F500.00
G1 X0.0000 Y9.1000 Z-2.5000 F500.00
G2 X-0.4000 Y9.5000 Z-2.5000 I0.0000 J0.4000 F500.00
G1 X-0.4000 Y16.5000 Z-2.5000 F500.00
G2 X0.0000 Y16.9000 Z-2.5000 I0.4000 J-0.0000 F500.00
G1 X43.0000 Y16.9000 Z-2.5000 F500.00
G2 X43.2828 Y16.7828 Z-2.5000 I-0.0000 J-0.4000 F500.00
G1 X43.2828 Y16.7828 Z-2.7500 F100.00
G2 X43.4000 Y16.5000 Z-2.7500 I-0.2828 J-0.2828 F500.00
G1 X43.4000 Y9.5000 Z-2.7500 F500.00
G2 X43.0000 Y9.1000 Z-2.7500 I-0.4000 J0.0000 F500.00
G1 X17.9000 Y9.1000 Z-2.7500 F500.00
G1 X17.9000 Y7.4000 Z-2.7500 F500.00
G1 X25.0000 Y7.4000 Z-2.7500 F500.00
G2 X25.4000 Y7.0000 Z-2.7500 I-0.0000 J-0.4000 F500.00
G1 X25.4000 Y0.0000 Z-2.7500 F500.00
G2 X25.0000 Y-0.4000 Z-2.7500 I-0.4000 J0.0000 F500.00
G1 X0.0000 Y-0.4000 Z-2.7500 F500.00
G2 X-0.4000 Y0.0000 Z-2.7500 I0.0000 J0.4000 F500.00
G1 X-0.4000 Y7.0000 Z-2.7500 F500.00
G2 X0.0000 Y7.4000 Z-2.7500 I0.4000 J-0.0000 F500.00
G1 X7.1000 Y7.4000 Z-2.7500 F500.00
G1 X7.1000 Y9.1000 Z-2.7500 F500.00
G1 X0.0000 Y9.1000 Z-2.7500 F500.00
G2 X-0.4000 Y9.5000 Z-2.7500 I0.0000 J0.4000 F500.00
G1 X-0.4000 Y16.5000 Z-2.7500 F500.00
G2 X0.0000 Y16.9000 Z-2.7500 I0.4000 J-0.0000 F500.00
G1 X43.0000 Y16.9000 Z-2.7500 F500.00
G2 X43.2828 Y16.7828 Z-2.7500 I-0.0000 J-0.4000 F500.00
G1 X43.2828 Y16.7828 Z-3.0000 F100.00
G2 X43.4000 Y16.5000 Z-3.0000 I-0.2828 J-0.2828 F500.00
G1 X43.4000 Y9.5000 Z-3.0000 F500.00
G2 X43.0000 Y9.1000 Z-3.0000 I-0.4000 J0.0000 F500.00
G1 X17.9000 Y9.1000 Z-3.0000 F500.00
G1 X17.9000 Y7.4000 Z-3.0000 F500.00
G1 X25.0000 Y7.4000 Z-3.0000 F500.00
G2 X25.4000 Y7.0000 Z-3.0000 I-0.0000 J-0.4000 F500.00
G1 X25.4000 Y0.0000 Z-3.0000 F500.00
G2 X25.0000 Y-0.4000 Z-3.0000 I-0.4000 J0.0000 F500.00
G1 X0.0000 Y-0.4000 Z-3.0000 F500.00
G2 X-0.4000 Y0.0000 Z-3.0000 I0.0000 J0.4000 F500.00
G1 X-0.4000 Y7.0000 Z-3.0000 F500.00
G2 X0.0000 Y7.4000 Z-3.0000 I0.4000 J-0.0000 F500.00
G1 X7.1000 Y7.4000 Z-3.0000 F500.00
G1 X7.1000 Y9.1000 Z-3.0000 F500.00
G1 X0.0000 Y9.1000 Z-3.0000 F500.00
G2 X-0.4000 Y9.5000 Z-3.0000 I0.0000 J0.4000 F500.00
G1 X-0.4000 Y16.5000 Z-3.0000 F500.00
G2 X0.0000 Y16.9000 Z-3.0000 I0.4000 J-0.0000 F500.00
G1 X43.0000 Y16.9000 Z-3.0000 F500.00
G2 X43.2828 Y16.7828 Z-3.0000 I-0.0000 J-0.4000 F500.00
G0 Z5.0000
(finish operation: Profile_Edges026)
(begin postamble)
M5
G17 G90
; M2
