(Exported by FreeCAD)
(Post Processor: grbl_post)
(Output Time:2019-09-20 12:37:33.164507)
(begin preamble)
G17 G90
G21
(begin operation: T5: end mill 0.8)
(Path: T5: end mill 0.8)
(T5: end mill 0.8)
(begin toolchange)
; M6 T5
M3 S10000.0000
(finish operation: T5: end mill 0.8)
(begin operation: Profile_Edges018)
(Path: Profile_Edges018)
(Profile_Edges018)
(Compensated Tool Path. Diameter: 0.8)
G0 Z5.0000
G0 X45.5990 Y46.0990
G0 Z3.0000
G1 X45.5990 Y46.0990 Z-0.2500 F100.00
G2 X45.4812 Y44.8029 Z-0.2500 I-0.5990 J-0.5990 F500.00
G2 X44.5188 Y46.1971 Z-0.2500 I-0.4812 J0.6971 F500.00
G2 X45.5990 Y46.0990 Z-0.2500 I0.4812 J-0.6971 F500.00
G1 X45.5990 Y46.0990 Z-0.5000 F100.00
G2 X45.4812 Y44.8029 Z-0.5000 I-0.5990 J-0.5990 F500.00
G2 X44.5188 Y46.1971 Z-0.5000 I-0.4812 J0.6971 F500.00
G2 X45.5990 Y46.0990 Z-0.5000 I0.4812 J-0.6971 F500.00
G1 X45.5990 Y46.0990 Z-0.7500 F100.00
G2 X45.4812 Y44.8029 Z-0.7500 I-0.5990 J-0.5990 F500.00
G2 X44.5188 Y46.1971 Z-0.7500 I-0.4812 J0.6971 F500.00
G2 X45.5990 Y46.0990 Z-0.7500 I0.4812 J-0.6971 F500.00
G1 X45.5990 Y46.0990 Z-1.0000 F100.00
G2 X45.4812 Y44.8029 Z-1.0000 I-0.5990 J-0.5990 F500.00
G2 X44.5188 Y46.1971 Z-1.0000 I-0.4812 J0.6971 F500.00
G2 X45.5990 Y46.0990 Z-1.0000 I0.4812 J-0.6971 F500.00
G1 X45.5990 Y46.0990 Z-1.2500 F100.00
G2 X45.4812 Y44.8029 Z-1.2500 I-0.5990 J-0.5990 F500.00
G2 X44.5188 Y46.1971 Z-1.2500 I-0.4812 J0.6971 F500.00
G2 X45.5990 Y46.0990 Z-1.2500 I0.4812 J-0.6971 F500.00
G1 X45.5990 Y46.0990 Z-1.5000 F100.00
G2 X45.4812 Y44.8029 Z-1.5000 I-0.5990 J-0.5990 F500.00
G2 X44.5188 Y46.1971 Z-1.5000 I-0.4812 J0.6971 F500.00
G2 X45.5990 Y46.0990 Z-1.5000 I0.4812 J-0.6971 F500.00
G1 X45.5990 Y46.0990 Z-1.7500 F100.00
G2 X45.4812 Y44.8029 Z-1.7500 I-0.5990 J-0.5990 F500.00
G2 X44.5188 Y46.1971 Z-1.7500 I-0.4812 J0.6971 F500.00
G2 X45.5990 Y46.0990 Z-1.7500 I0.4812 J-0.6971 F500.00
G1 X45.5990 Y46.0990 Z-2.0000 F100.00
G2 X45.4812 Y44.8029 Z-2.0000 I-0.5990 J-0.5990 F500.00
G2 X44.5188 Y46.1971 Z-2.0000 I-0.4812 J0.6971 F500.00
G2 X45.5990 Y46.0990 Z-2.0000 I0.4812 J-0.6971 F500.00
G1 X45.5990 Y46.0990 Z-2.2500 F100.00
G2 X45.4812 Y44.8029 Z-2.2500 I-0.5990 J-0.5990 F500.00
G2 X44.5188 Y46.1971 Z-2.2500 I-0.4812 J0.6971 F500.00
G2 X45.5990 Y46.0990 Z-2.2500 I0.4812 J-0.6971 F500.00
G1 X45.5990 Y46.0990 Z-2.5000 F100.00
G2 X45.4812 Y44.8029 Z-2.5000 I-0.5990 J-0.5990 F500.00
G2 X44.5188 Y46.1971 Z-2.5000 I-0.4812 J0.6971 F500.00
G2 X45.5990 Y46.0990 Z-2.5000 I0.4812 J-0.6971 F500.00
G1 X45.5990 Y46.0990 Z-2.6000 F100.00
G2 X45.4812 Y44.8029 Z-2.6000 I-0.5990 J-0.5990 F500.00
G2 X44.5188 Y46.1971 Z-2.6000 I-0.4812 J0.6971 F500.00
G2 X45.5990 Y46.0990 Z-2.6000 I0.4812 J-0.6971 F500.00
G0 Z5.0000
G0 X66.0760 Y61.0760
G0 Z3.0000
G1 X66.0760 Y61.0760 Z-0.2500 F100.00
G2 X66.2888 Y60.7762 Z-0.2500 I-0.7760 J-0.7760 F500.00
G2 X64.3112 Y59.8238 Z-0.2500 I-0.9888 J-0.4762 F500.00
G2 X66.0760 Y61.0760 Z-0.2500 I0.9888 J0.4762 F500.00
G1 X66.0760 Y61.0760 Z-0.5000 F100.00
G2 X66.2888 Y60.7762 Z-0.5000 I-0.7760 J-0.7760 F500.00
G2 X64.3112 Y59.8238 Z-0.5000 I-0.9888 J-0.4762 F500.00
G2 X66.0760 Y61.0760 Z-0.5000 I0.9888 J0.4762 F500.00
G1 X66.0760 Y61.0760 Z-0.7500 F100.00
G2 X66.2888 Y60.7762 Z-0.7500 I-0.7760 J-0.7760 F500.00
G2 X64.3112 Y59.8238 Z-0.7500 I-0.9888 J-0.4762 F500.00
G2 X66.0760 Y61.0760 Z-0.7500 I0.9888 J0.4762 F500.00
G1 X66.0760 Y61.0760 Z-1.0000 F100.00
G2 X66.2888 Y60.7762 Z-1.0000 I-0.7760 J-0.7760 F500.00
G2 X64.3112 Y59.8238 Z-1.0000 I-0.9888 J-0.4762 F500.00
G2 X66.0760 Y61.0760 Z-1.0000 I0.9888 J0.4762 F500.00
G1 X66.0760 Y61.0760 Z-1.2500 F100.00
G2 X66.2888 Y60.7762 Z-1.2500 I-0.7760 J-0.7760 F500.00
G2 X64.3112 Y59.8238 Z-1.2500 I-0.9888 J-0.4762 F500.00
G2 X66.0760 Y61.0760 Z-1.2500 I0.9888 J0.4762 F500.00
G1 X66.0760 Y61.0760 Z-1.5000 F100.00
G2 X66.2888 Y60.7762 Z-1.5000 I-0.7760 J-0.7760 F500.00
G2 X64.3112 Y59.8238 Z-1.5000 I-0.9888 J-0.4762 F500.00
G2 X66.0760 Y61.0760 Z-1.5000 I0.9888 J0.4762 F500.00
G1 X66.0760 Y61.0760 Z-1.7500 F100.00
G2 X66.2888 Y60.7762 Z-1.7500 I-0.7760 J-0.7760 F500.00
G2 X64.3112 Y59.8238 Z-1.7500 I-0.9888 J-0.4762 F500.00
G2 X66.0760 Y61.0760 Z-1.7500 I0.9888 J0.4762 F500.00
G1 X66.0760 Y61.0760 Z-2.0000 F100.00
G2 X66.2888 Y60.7762 Z-2.0000 I-0.7760 J-0.7760 F500.00
G2 X64.3112 Y59.8238 Z-2.0000 I-0.9888 J-0.4762 F500.00
G2 X66.0760 Y61.0760 Z-2.0000 I0.9888 J0.4762 F500.00
G1 X66.0760 Y61.0760 Z-2.2500 F100.00
G2 X66.2888 Y60.7762 Z-2.2500 I-0.7760 J-0.7760 F500.00
G2 X64.3112 Y59.8238 Z-2.2500 I-0.9888 J-0.4762 F500.00
G2 X66.0760 Y61.0760 Z-2.2500 I0.9888 J0.4762 F500.00
G1 X66.0760 Y61.0760 Z-2.5000 F100.00
G2 X66.2888 Y60.7762 Z-2.5000 I-0.7760 J-0.7760 F500.00
G2 X64.3112 Y59.8238 Z-2.5000 I-0.9888 J-0.4762 F500.00
G2 X66.0760 Y61.0760 Z-2.5000 I0.9888 J0.4762 F500.00
G1 X66.0760 Y61.0760 Z-2.6000 F100.00
G2 X66.2888 Y60.7762 Z-2.6000 I-0.7760 J-0.7760 F500.00
G2 X64.3112 Y59.8238 Z-2.6000 I-0.9888 J-0.4762 F500.00
G2 X66.0760 Y61.0760 Z-2.6000 I0.9888 J0.4762 F500.00
G0 Z5.0000
G0 X62.1446 Y45.0546
G0 Z3.0000
G1 X62.1446 Y45.0546 Z-0.2500 F100.00
G2 X60.2398 Y37.9456 Z-0.2500 I-3.0046 J-3.0046 F500.00
G2 X58.0402 Y46.1544 Z-0.2500 I-1.0998 J4.1044 F500.00
G2 X62.1446 Y45.0546 Z-0.2500 I1.0998 J-4.1044 F500.00
G1 X62.1446 Y45.0546 Z-0.5000 F100.00
G2 X60.2398 Y37.9456 Z-0.5000 I-3.0046 J-3.0046 F500.00
G2 X58.0402 Y46.1544 Z-0.5000 I-1.0998 J4.1044 F500.00
G2 X62.1446 Y45.0546 Z-0.5000 I1.0998 J-4.1044 F500.00
G1 X62.1446 Y45.0546 Z-0.7500 F100.00
G2 X60.2398 Y37.9456 Z-0.7500 I-3.0046 J-3.0046 F500.00
G2 X58.0402 Y46.1544 Z-0.7500 I-1.0998 J4.1044 F500.00
G2 X62.1446 Y45.0546 Z-0.7500 I1.0998 J-4.1044 F500.00
G1 X62.1446 Y45.0546 Z-1.0000 F100.00
G2 X60.2398 Y37.9456 Z-1.0000 I-3.0046 J-3.0046 F500.00
G2 X58.0402 Y46.1544 Z-1.0000 I-1.0998 J4.1044 F500.00
G2 X62.1446 Y45.0546 Z-1.0000 I1.0998 J-4.1044 F500.00
G1 X62.1446 Y45.0546 Z-1.2500 F100.00
G2 X60.2398 Y37.9456 Z-1.2500 I-3.0046 J-3.0046 F500.00
G2 X58.0402 Y46.1544 Z-1.2500 I-1.0998 J4.1044 F500.00
G2 X62.1446 Y45.0546 Z-1.2500 I1.0998 J-4.1044 F500.00
G1 X62.1446 Y45.0546 Z-1.5000 F100.00
G2 X60.2398 Y37.9456 Z-1.5000 I-3.0046 J-3.0046 F500.00
G2 X58.0402 Y46.1544 Z-1.5000 I-1.0998 J4.1044 F500.00
G2 X62.1446 Y45.0546 Z-1.5000 I1.0998 J-4.1044 F500.00
G1 X62.1446 Y45.0546 Z-1.7500 F100.00
G2 X60.2398 Y37.9456 Z-1.7500 I-3.0046 J-3.0046 F500.00
G2 X58.0402 Y46.1544 Z-1.7500 I-1.0998 J4.1044 F500.00
G2 X62.1446 Y45.0546 Z-1.7500 I1.0998 J-4.1044 F500.00
G1 X62.1446 Y45.0546 Z-2.0000 F100.00
G2 X60.2398 Y37.9456 Z-2.0000 I-3.0046 J-3.0046 F500.00
G2 X58.0402 Y46.1544 Z-2.0000 I-1.0998 J4.1044 F500.00
G2 X62.1446 Y45.0546 Z-2.0000 I1.0998 J-4.1044 F500.00
G1 X62.1446 Y45.0546 Z-2.2500 F100.00
G2 X60.2398 Y37.9456 Z-2.2500 I-3.0046 J-3.0046 F500.00
G2 X58.0402 Y46.1544 Z-2.2500 I-1.0998 J4.1044 F500.00
G2 X62.1446 Y45.0546 Z-2.2500 I1.0998 J-4.1044 F500.00
G1 X62.1446 Y45.0546 Z-2.5000 F100.00
G2 X60.2398 Y37.9456 Z-2.5000 I-3.0046 J-3.0046 F500.00
G2 X58.0402 Y46.1544 Z-2.5000 I-1.0998 J4.1044 F500.00
G2 X62.1446 Y45.0546 Z-2.5000 I1.0998 J-4.1044 F500.00
G1 X62.1446 Y45.0546 Z-2.6000 F100.00
G2 X60.2398 Y37.9456 Z-2.6000 I-3.0046 J-3.0046 F500.00
G2 X58.0402 Y46.1544 Z-2.6000 I-1.0998 J4.1044 F500.00
G2 X62.1446 Y45.0546 Z-2.6000 I1.0998 J-4.1044 F500.00
G0 Z5.0000
G0 X46.8376 Y36.8376
G0 Z3.0000
G1 X46.8376 Y36.8376 Z-0.2500 F100.00
G2 X45.8031 Y32.5284 Z-0.2500 I-1.8376 J-1.8376 F500.00
G2 X44.1969 Y37.4716 Z-0.2500 I-0.8031 J2.4716 F500.00
G2 X46.8376 Y36.8376 Z-0.2500 I0.8031 J-2.4716 F500.00
G1 X46.8376 Y36.8376 Z-0.5000 F100.00
G2 X45.8031 Y32.5284 Z-0.5000 I-1.8376 J-1.8376 F500.00
G2 X44.1969 Y37.4716 Z-0.5000 I-0.8031 J2.4716 F500.00
G2 X46.8376 Y36.8376 Z-0.5000 I0.8031 J-2.4716 F500.00
G1 X46.8376 Y36.8376 Z-0.7500 F100.00
G2 X45.8031 Y32.5284 Z-0.7500 I-1.8376 J-1.8376 F500.00
G2 X44.1969 Y37.4716 Z-0.7500 I-0.8031 J2.4716 F500.00
G2 X46.8376 Y36.8376 Z-0.7500 I0.8031 J-2.4716 F500.00
G1 X46.8376 Y36.8376 Z-1.0000 F100.00
G2 X45.8031 Y32.5284 Z-1.0000 I-1.8376 J-1.8376 F500.00
G2 X44.1969 Y37.4716 Z-1.0000 I-0.8031 J2.4716 F500.00
G2 X46.8376 Y36.8376 Z-1.0000 I0.8031 J-2.4716 F500.00
G1 X46.8376 Y36.8376 Z-1.2500 F100.00
G2 X45.8031 Y32.5284 Z-1.2500 I-1.8376 J-1.8376 F500.00
G2 X44.1969 Y37.4716 Z-1.2500 I-0.8031 J2.4716 F500.00
G2 X46.8376 Y36.8376 Z-1.2500 I0.8031 J-2.4716 F500.00
G1 X46.8376 Y36.8376 Z-1.5000 F100.00
G2 X45.8031 Y32.5284 Z-1.5000 I-1.8376 J-1.8376 F500.00
G2 X44.1969 Y37.4716 Z-1.5000 I-0.8031 J2.4716 F500.00
G2 X46.8376 Y36.8376 Z-1.5000 I0.8031 J-2.4716 F500.00
G1 X46.8376 Y36.8376 Z-1.7500 F100.00
G2 X45.8031 Y32.5284 Z-1.7500 I-1.8376 J-1.8376 F500.00
G2 X44.1969 Y37.4716 Z-1.7500 I-0.8031 J2.4716 F500.00
G2 X46.8376 Y36.8376 Z-1.7500 I0.8031 J-2.4716 F500.00
G1 X46.8376 Y36.8376 Z-2.0000 F100.00
G2 X45.8031 Y32.5284 Z-2.0000 I-1.8376 J-1.8376 F500.00
G2 X44.1969 Y37.4716 Z-2.0000 I-0.8031 J2.4716 F500.00
G2 X46.8376 Y36.8376 Z-2.0000 I0.8031 J-2.4716 F500.00
G1 X46.8376 Y36.8376 Z-2.2500 F100.00
G2 X45.8031 Y32.5284 Z-2.2500 I-1.8376 J-1.8376 F500.00
G2 X44.1969 Y37.4716 Z-2.2500 I-0.8031 J2.4716 F500.00
G2 X46.8376 Y36.8376 Z-2.2500 I0.8031 J-2.4716 F500.00
G1 X46.8376 Y36.8376 Z-2.5000 F100.00
G2 X45.8031 Y32.5284 Z-2.5000 I-1.8376 J-1.8376 F500.00
G2 X44.1969 Y37.4716 Z-2.5000 I-0.8031 J2.4716 F500.00
G2 X46.8376 Y36.8376 Z-2.5000 I0.8031 J-2.4716 F500.00
G1 X46.8376 Y36.8376 Z-2.6000 F100.00
G2 X45.8031 Y32.5284 Z-2.6000 I-1.8376 J-1.8376 F500.00
G2 X44.1969 Y37.4716 Z-2.6000 I-0.8031 J2.4716 F500.00
G2 X46.8376 Y36.8376 Z-2.6000 I0.8031 J-2.4716 F500.00
G0 Z5.0000
G0 X45.5990 Y25.0990
G0 Z3.0000
G1 X45.5990 Y25.0990 Z-0.2500 F100.00
G2 X45.4812 Y23.8029 Z-0.2500 I-0.5990 J-0.5990 F500.00
G2 X44.5188 Y25.1971 Z-0.2500 I-0.4812 J0.6971 F500.00
G2 X45.5990 Y25.0990 Z-0.2500 I0.4812 J-0.6971 F500.00
G1 X45.5990 Y25.0990 Z-0.5000 F100.00
G2 X45.4812 Y23.8029 Z-0.5000 I-0.5990 J-0.5990 F500.00
G2 X44.5188 Y25.1971 Z-0.5000 I-0.4812 J0.6971 F500.00
G2 X45.5990 Y25.0990 Z-0.5000 I0.4812 J-0.6971 F500.00
G1 X45.5990 Y25.0990 Z-0.7500 F100.00
G2 X45.4812 Y23.8029 Z-0.7500 I-0.5990 J-0.5990 F500.00
G2 X44.5188 Y25.1971 Z-0.7500 I-0.4812 J0.6971 F500.00
G2 X45.5990 Y25.0990 Z-0.7500 I0.4812 J-0.6971 F500.00
G1 X45.5990 Y25.0990 Z-1.0000 F100.00
G2 X45.4812 Y23.8029 Z-1.0000 I-0.5990 J-0.5990 F500.00
G2 X44.5188 Y25.1971 Z-1.0000 I-0.4812 J0.6971 F500.00
G2 X45.5990 Y25.0990 Z-1.0000 I0.4812 J-0.6971 F500.00
G1 X45.5990 Y25.0990 Z-1.2500 F100.00
G2 X45.4812 Y23.8029 Z-1.2500 I-0.5990 J-0.5990 F500.00
G2 X44.5188 Y25.1971 Z-1.2500 I-0.4812 J0.6971 F500.00
G2 X45.5990 Y25.0990 Z-1.2500 I0.4812 J-0.6971 F500.00
G1 X45.5990 Y25.0990 Z-1.5000 F100.00
G2 X45.4812 Y23.8029 Z-1.5000 I-0.5990 J-0.5990 F500.00
G2 X44.5188 Y25.1971 Z-1.5000 I-0.4812 J0.6971 F500.00
G2 X45.5990 Y25.0990 Z-1.5000 I0.4812 J-0.6971 F500.00
G1 X45.5990 Y25.0990 Z-1.7500 F100.00
G2 X45.4812 Y23.8029 Z-1.7500 I-0.5990 J-0.5990 F500.00
G2 X44.5188 Y25.1971 Z-1.7500 I-0.4812 J0.6971 F500.00
G2 X45.5990 Y25.0990 Z-1.7500 I0.4812 J-0.6971 F500.00
G1 X45.5990 Y25.0990 Z-2.0000 F100.00
G2 X45.4812 Y23.8029 Z-2.0000 I-0.5990 J-0.5990 F500.00
G2 X44.5188 Y25.1971 Z-2.0000 I-0.4812 J0.6971 F500.00
G2 X45.5990 Y25.0990 Z-2.0000 I0.4812 J-0.6971 F500.00
G1 X45.5990 Y25.0990 Z-2.2500 F100.00
G2 X45.4812 Y23.8029 Z-2.2500 I-0.5990 J-0.5990 F500.00
G2 X44.5188 Y25.1971 Z-2.2500 I-0.4812 J0.6971 F500.00
G2 X45.5990 Y25.0990 Z-2.2500 I0.4812 J-0.6971 F500.00
G1 X45.5990 Y25.0990 Z-2.5000 F100.00
G2 X45.4812 Y23.8029 Z-2.5000 I-0.5990 J-0.5990 F500.00
G2 X44.5188 Y25.1971 Z-2.5000 I-0.4812 J0.6971 F500.00
G2 X45.5990 Y25.0990 Z-2.5000 I0.4812 J-0.6971 F500.00
G1 X45.5990 Y25.0990 Z-2.6000 F100.00
G2 X45.4812 Y23.8029 Z-2.6000 I-0.5990 J-0.5990 F500.00
G2 X44.5188 Y25.1971 Z-2.6000 I-0.4812 J0.6971 F500.00
G2 X45.5990 Y25.0990 Z-2.6000 I0.4812 J-0.6971 F500.00
G0 Z5.0000
G0 X69.6760 Y26.2760
G0 Z3.0000
G1 X69.6760 Y26.2760 Z-0.2500 F100.00
G2 X69.3762 Y24.5112 Z-0.2500 I-0.7760 J-0.7760 F500.00
G2 X68.4238 Y26.4888 Z-0.2500 I-0.4762 J0.9888 F500.00
G2 X69.6760 Y26.2760 Z-0.2500 I0.4762 J-0.9888 F500.00
G1 X69.6760 Y26.2760 Z-0.5000 F100.00
G2 X69.3762 Y24.5112 Z-0.5000 I-0.7760 J-0.7760 F500.00
G2 X68.4238 Y26.4888 Z-0.5000 I-0.4762 J0.9888 F500.00
G2 X69.6760 Y26.2760 Z-0.5000 I0.4762 J-0.9888 F500.00
G1 X69.6760 Y26.2760 Z-0.7500 F100.00
G2 X69.3762 Y24.5112 Z-0.7500 I-0.7760 J-0.7760 F500.00
G2 X68.4238 Y26.4888 Z-0.7500 I-0.4762 J0.9888 F500.00
G2 X69.6760 Y26.2760 Z-0.7500 I0.4762 J-0.9888 F500.00
G1 X69.6760 Y26.2760 Z-1.0000 F100.00
G2 X69.3762 Y24.5112 Z-1.0000 I-0.7760 J-0.7760 F500.00
G2 X68.4238 Y26.4888 Z-1.0000 I-0.4762 J0.9888 F500.00
G2 X69.6760 Y26.2760 Z-1.0000 I0.4762 J-0.9888 F500.00
G1 X69.6760 Y26.2760 Z-1.2500 F100.00
G2 X69.3762 Y24.5112 Z-1.2500 I-0.7760 J-0.7760 F500.00
G2 X68.4238 Y26.4888 Z-1.2500 I-0.4762 J0.9888 F500.00
G2 X69.6760 Y26.2760 Z-1.2500 I0.4762 J-0.9888 F500.00
G1 X69.6760 Y26.2760 Z-1.5000 F100.00
G2 X69.3762 Y24.5112 Z-1.5000 I-0.7760 J-0.7760 F500.00
G2 X68.4238 Y26.4888 Z-1.5000 I-0.4762 J0.9888 F500.00
G2 X69.6760 Y26.2760 Z-1.5000 I0.4762 J-0.9888 F500.00
G1 X69.6760 Y26.2760 Z-1.7500 F100.00
G2 X69.3762 Y24.5112 Z-1.7500 I-0.7760 J-0.7760 F500.00
G2 X68.4238 Y26.4888 Z-1.7500 I-0.4762 J0.9888 F500.00
G2 X69.6760 Y26.2760 Z-1.7500 I0.4762 J-0.9888 F500.00
G1 X69.6760 Y26.2760 Z-2.0000 F100.00
G2 X69.3762 Y24.5112 Z-2.0000 I-0.7760 J-0.7760 F500.00
G2 X68.4238 Y26.4888 Z-2.0000 I-0.4762 J0.9888 F500.00
G2 X69.6760 Y26.2760 Z-2.0000 I0.4762 J-0.9888 F500.00
G1 X69.6760 Y26.2760 Z-2.2500 F100.00
G2 X69.3762 Y24.5112 Z-2.2500 I-0.7760 J-0.7760 F500.00
G2 X68.4238 Y26.4888 Z-2.2500 I-0.4762 J0.9888 F500.00
G2 X69.6760 Y26.2760 Z-2.2500 I0.4762 J-0.9888 F500.00
G1 X69.6760 Y26.2760 Z-2.5000 F100.00
G2 X69.3762 Y24.5112 Z-2.5000 I-0.7760 J-0.7760 F500.00
G2 X68.4238 Y26.4888 Z-2.5000 I-0.4762 J0.9888 F500.00
G2 X69.6760 Y26.2760 Z-2.5000 I0.4762 J-0.9888 F500.00
G1 X69.6760 Y26.2760 Z-2.6000 F100.00
G2 X69.3762 Y24.5112 Z-2.6000 I-0.7760 J-0.7760 F500.00
G2 X68.4238 Y26.4888 Z-2.6000 I-0.4762 J0.9888 F500.00
G2 X69.6760 Y26.2760 Z-2.6000 I0.4762 J-0.9888 F500.00
G0 Z5.0000
(finish operation: Profile_Edges018)
(begin operation: Profile_Edges020)
(Path: Profile_Edges020)
(Profile_Edges020)
(Compensated Tool Path. Diameter: 0.8)
G0 Z5.0000
G0 X82.7740 Y64.4538
G0 Z3.0000
G1 X82.7740 Y64.4538 Z-0.2500 F100.00
G2 X90.3764 Y50.3423 Z-0.2500 I-37.7740 J-29.4538 F500.00
G1 X90.4000 Y50.2069 Z-0.2500 F500.00
G1 X90.4000 Y41.0000 Z-0.2500 F500.00
G2 X90.0000 Y40.6000 Z-0.2500 I-0.4000 J0.0000 F500.00
G1 X84.4000 Y40.6000 Z-0.2500 F500.00
G1 X84.4000 Y29.4000 Z-0.2500 F500.00
G1 X90.0000 Y29.4000 Z-0.2500 F500.00
G2 X90.4000 Y29.0000 Z-0.2500 I-0.0000 J-0.4000 F500.00
G1 X90.4000 Y19.7931 Z-0.2500 F500.00
G2 X77.3892 Y-0.2895 Z-0.2500 I-45.1280 J14.9811 F500.00
G2 X77.1131 Y-0.4000 Z-0.2500 I-0.2761 J0.2895 F500.00
G1 X12.8869 Y-0.4000 Z-0.2500 F500.00
G2 X12.6108 Y-0.2895 Z-0.2500 I0.0000 J0.4000 F500.00
G2 X-0.3764 Y19.6577 Z-0.2500 I32.3892 J35.2895 F500.00
G1 X-0.4000 Y19.7931 Z-0.2500 F500.00
G1 X-0.4000 Y29.0000 Z-0.2500 F500.00
G2 X0.0000 Y29.4000 Z-0.2500 I0.4000 J-0.0000 F500.00
G1 X5.2000 Y29.4000 Z-0.2500 F500.00
G2 X5.6000 Y29.0000 Z-0.2500 I-0.0000 J-0.4000 F500.00
G1 X5.6000 Y27.6500 Z-0.2500 F500.00
G1 X12.8000 Y27.6500 Z-0.2500 F500.00
G1 X12.8000 Y31.0000 Z-0.2500 F500.00
G2 X13.2000 Y31.4000 Z-0.2500 I0.4000 J-0.0000 F500.00
G1 X14.7000 Y31.4000 Z-0.2500 F500.00
G2 X15.1000 Y31.0000 Z-0.2500 I-0.0000 J-0.4000 F500.00
G1 X15.1000 Y29.9000 Z-0.2500 F500.00
G1 X17.8000 Y29.9000 Z-0.2500 F500.00
G2 X18.2000 Y29.5000 Z-0.2500 I-0.0000 J-0.4000 F500.00
G1 X18.2000 Y12.5262 Z-0.2500 F500.00
G3 X18.8262 Y11.9000 Z-0.2500 I0.6089 J-0.0173 F500.00
G1 X35.9738 Y11.9000 Z-0.2500 F500.00
G3 X36.6000 Y12.5262 Z-0.2500 I0.0173 J0.6089 F500.00
G1 X36.6000 Y39.6738 Z-0.2500 F500.00
G3 X35.9738 Y40.3000 Z-0.2500 I-0.6089 J0.0173 F500.00
G1 X18.1363 Y40.3000 Z-0.2500 F500.00
G2 X17.8000 Y40.1000 Z-0.2500 I-0.3058 J0.1315 F500.00
G1 X15.1000 Y40.1000 Z-0.2500 F500.00
G1 X15.1000 Y39.0000 Z-0.2500 F500.00
G2 X14.7000 Y38.6000 Z-0.2500 I-0.4000 J0.0000 F500.00
G1 X13.2000 Y38.6000 Z-0.2500 F500.00
G2 X12.8000 Y39.0000 Z-0.2500 I0.0000 J0.4000 F500.00
G1 X12.8000 Y42.3500 Z-0.2500 F500.00
G1 X5.6000 Y42.3500 Z-0.2500 F500.00
G1 X5.6000 Y41.0000 Z-0.2500 F500.00
G2 X5.2000 Y40.6000 Z-0.2500 I-0.4000 J0.0000 F500.00
G1 X0.0000 Y40.6000 Z-0.2500 F500.00
G2 X-0.4000 Y41.0000 Z-0.2500 I0.0000 J0.4000 F500.00
G1 X-0.4000 Y50.2069 Z-0.2500 F500.00
G2 X12.6108 Y70.2895 Z-0.2500 I45.1280 J-14.9811 F500.00
G2 X12.8869 Y70.4000 Z-0.2500 I0.2761 J-0.2895 F500.00
G1 X77.1131 Y70.4000 Z-0.2500 F500.00
G2 X77.3892 Y70.2895 Z-0.2500 I-0.0000 J-0.4000 F500.00
G2 X82.7740 Y64.4538 Z-0.2500 I-32.3892 J-35.2895 F500.00
G1 X82.7740 Y64.4538 Z-0.5000 F100.00
G2 X90.3764 Y50.3423 Z-0.5000 I-37.7740 J-29.4538 F500.00
G1 X90.4000 Y50.2069 Z-0.5000 F500.00
G1 X90.4000 Y41.0000 Z-0.5000 F500.00
G2 X90.0000 Y40.6000 Z-0.5000 I-0.4000 J0.0000 F500.00
G1 X84.4000 Y40.6000 Z-0.5000 F500.00
G1 X84.4000 Y29.4000 Z-0.5000 F500.00
G1 X90.0000 Y29.4000 Z-0.5000 F500.00
G2 X90.4000 Y29.0000 Z-0.5000 I-0.0000 J-0.4000 F500.00
G1 X90.4000 Y19.7931 Z-0.5000 F500.00
G2 X77.3892 Y-0.2895 Z-0.5000 I-45.1280 J14.9811 F500.00
G2 X77.1131 Y-0.4000 Z-0.5000 I-0.2761 J0.2895 F500.00
G1 X12.8869 Y-0.4000 Z-0.5000 F500.00
G2 X12.6108 Y-0.2895 Z-0.5000 I0.0000 J0.4000 F500.00
G2 X-0.3764 Y19.6577 Z-0.5000 I32.3892 J35.2895 F500.00
G1 X-0.4000 Y19.7931 Z-0.5000 F500.00
G1 X-0.4000 Y29.0000 Z-0.5000 F500.00
G2 X0.0000 Y29.4000 Z-0.5000 I0.4000 J-0.0000 F500.00
G1 X5.2000 Y29.4000 Z-0.5000 F500.00
G2 X5.6000 Y29.0000 Z-0.5000 I-0.0000 J-0.4000 F500.00
G1 X5.6000 Y27.6500 Z-0.5000 F500.00
G1 X12.8000 Y27.6500 Z-0.5000 F500.00
G1 X12.8000 Y31.0000 Z-0.5000 F500.00
G2 X13.2000 Y31.4000 Z-0.5000 I0.4000 J-0.0000 F500.00
G1 X14.7000 Y31.4000 Z-0.5000 F500.00
G2 X15.1000 Y31.0000 Z-0.5000 I-0.0000 J-0.4000 F500.00
G1 X15.1000 Y29.9000 Z-0.5000 F500.00
G1 X17.8000 Y29.9000 Z-0.5000 F500.00
G2 X18.2000 Y29.5000 Z-0.5000 I-0.0000 J-0.4000 F500.00
G1 X18.2000 Y12.5262 Z-0.5000 F500.00
G3 X18.8262 Y11.9000 Z-0.5000 I0.6089 J-0.0173 F500.00
G1 X35.9738 Y11.9000 Z-0.5000 F500.00
G3 X36.6000 Y12.5262 Z-0.5000 I0.0173 J0.6089 F500.00
G1 X36.6000 Y39.6738 Z-0.5000 F500.00
G3 X35.9738 Y40.3000 Z-0.5000 I-0.6089 J0.0173 F500.00
G1 X18.1363 Y40.3000 Z-0.5000 F500.00
G2 X17.8000 Y40.1000 Z-0.5000 I-0.3058 J0.1315 F500.00
G1 X15.1000 Y40.1000 Z-0.5000 F500.00
G1 X15.1000 Y39.0000 Z-0.5000 F500.00
G2 X14.7000 Y38.6000 Z-0.5000 I-0.4000 J0.0000 F500.00
G1 X13.2000 Y38.6000 Z-0.5000 F500.00
G2 X12.8000 Y39.0000 Z-0.5000 I0.0000 J0.4000 F500.00
G1 X12.8000 Y42.3500 Z-0.5000 F500.00
G1 X5.6000 Y42.3500 Z-0.5000 F500.00
G1 X5.6000 Y41.0000 Z-0.5000 F500.00
G2 X5.2000 Y40.6000 Z-0.5000 I-0.4000 J0.0000 F500.00
G1 X0.0000 Y40.6000 Z-0.5000 F500.00
G2 X-0.4000 Y41.0000 Z-0.5000 I0.0000 J0.4000 F500.00
G1 X-0.4000 Y50.2069 Z-0.5000 F500.00
G2 X12.6108 Y70.2895 Z-0.5000 I45.1280 J-14.9811 F500.00
G2 X12.8869 Y70.4000 Z-0.5000 I0.2761 J-0.2895 F500.00
G1 X77.1131 Y70.4000 Z-0.5000 F500.00
G2 X77.3892 Y70.2895 Z-0.5000 I-0.0000 J-0.4000 F500.00
G2 X82.7740 Y64.4538 Z-0.5000 I-32.3892 J-35.2895 F500.00
G1 X82.7740 Y64.4538 Z-0.7500 F100.00
G2 X90.3764 Y50.3423 Z-0.7500 I-37.7740 J-29.4538 F500.00
G1 X90.4000 Y50.2069 Z-0.7500 F500.00
G1 X90.4000 Y41.0000 Z-0.7500 F500.00
G2 X90.0000 Y40.6000 Z-0.7500 I-0.4000 J0.0000 F500.00
G1 X84.4000 Y40.6000 Z-0.7500 F500.00
G1 X84.4000 Y29.4000 Z-0.7500 F500.00
G1 X90.0000 Y29.4000 Z-0.7500 F500.00
G2 X90.4000 Y29.0000 Z-0.7500 I-0.0000 J-0.4000 F500.00
G1 X90.4000 Y19.7931 Z-0.7500 F500.00
G2 X77.3892 Y-0.2895 Z-0.7500 I-45.1280 J14.9811 F500.00
G2 X77.1131 Y-0.4000 Z-0.7500 I-0.2761 J0.2895 F500.00
G1 X12.8869 Y-0.4000 Z-0.7500 F500.00
G2 X12.6108 Y-0.2895 Z-0.7500 I0.0000 J0.4000 F500.00
G2 X-0.3764 Y19.6577 Z-0.7500 I32.3892 J35.2895 F500.00
G1 X-0.4000 Y19.7931 Z-0.7500 F500.00
G1 X-0.4000 Y29.0000 Z-0.7500 F500.00
G2 X0.0000 Y29.4000 Z-0.7500 I0.4000 J-0.0000 F500.00
G1 X5.2000 Y29.4000 Z-0.7500 F500.00
G2 X5.6000 Y29.0000 Z-0.7500 I-0.0000 J-0.4000 F500.00
G1 X5.6000 Y27.6500 Z-0.7500 F500.00
G1 X12.8000 Y27.6500 Z-0.7500 F500.00
G1 X12.8000 Y31.0000 Z-0.7500 F500.00
G2 X13.2000 Y31.4000 Z-0.7500 I0.4000 J-0.0000 F500.00
G1 X14.7000 Y31.4000 Z-0.7500 F500.00
G2 X15.1000 Y31.0000 Z-0.7500 I-0.0000 J-0.4000 F500.00
G1 X15.1000 Y29.9000 Z-0.7500 F500.00
G1 X17.8000 Y29.9000 Z-0.7500 F500.00
G2 X18.2000 Y29.5000 Z-0.7500 I-0.0000 J-0.4000 F500.00
G1 X18.2000 Y12.5262 Z-0.7500 F500.00
G3 X18.8262 Y11.9000 Z-0.7500 I0.6089 J-0.0173 F500.00
G1 X35.9738 Y11.9000 Z-0.7500 F500.00
G3 X36.6000 Y12.5262 Z-0.7500 I0.0173 J0.6089 F500.00
G1 X36.6000 Y39.6738 Z-0.7500 F500.00
G3 X35.9738 Y40.3000 Z-0.7500 I-0.6089 J0.0173 F500.00
G1 X18.1363 Y40.3000 Z-0.7500 F500.00
G2 X17.8000 Y40.1000 Z-0.7500 I-0.3058 J0.1315 F500.00
G1 X15.1000 Y40.1000 Z-0.7500 F500.00
G1 X15.1000 Y39.0000 Z-0.7500 F500.00
G2 X14.7000 Y38.6000 Z-0.7500 I-0.4000 J0.0000 F500.00
G1 X13.2000 Y38.6000 Z-0.7500 F500.00
G2 X12.8000 Y39.0000 Z-0.7500 I0.0000 J0.4000 F500.00
G1 X12.8000 Y42.3500 Z-0.7500 F500.00
G1 X5.6000 Y42.3500 Z-0.7500 F500.00
G1 X5.6000 Y41.0000 Z-0.7500 F500.00
G2 X5.2000 Y40.6000 Z-0.7500 I-0.4000 J0.0000 F500.00
G1 X0.0000 Y40.6000 Z-0.7500 F500.00
G2 X-0.4000 Y41.0000 Z-0.7500 I0.0000 J0.4000 F500.00
G1 X-0.4000 Y50.2069 Z-0.7500 F500.00
G2 X12.6108 Y70.2895 Z-0.7500 I45.1280 J-14.9811 F500.00
G2 X12.8869 Y70.4000 Z-0.7500 I0.2761 J-0.2895 F500.00
G1 X77.1131 Y70.4000 Z-0.7500 F500.00
G2 X77.3892 Y70.2895 Z-0.7500 I-0.0000 J-0.4000 F500.00
G2 X82.7740 Y64.4538 Z-0.7500 I-32.3892 J-35.2895 F500.00
G1 X82.7740 Y64.4538 Z-1.0000 F100.00
G2 X90.3764 Y50.3423 Z-1.0000 I-37.7740 J-29.4538 F500.00
G1 X90.4000 Y50.2069 Z-1.0000 F500.00
G1 X90.4000 Y41.0000 Z-1.0000 F500.00
G2 X90.0000 Y40.6000 Z-1.0000 I-0.4000 J0.0000 F500.00
G1 X84.4000 Y40.6000 Z-1.0000 F500.00
G1 X84.4000 Y29.4000 Z-1.0000 F500.00
G1 X90.0000 Y29.4000 Z-1.0000 F500.00
G2 X90.4000 Y29.0000 Z-1.0000 I-0.0000 J-0.4000 F500.00
G1 X90.4000 Y19.7931 Z-1.0000 F500.00
G2 X77.3892 Y-0.2895 Z-1.0000 I-45.1280 J14.9811 F500.00
G2 X77.1131 Y-0.4000 Z-1.0000 I-0.2761 J0.2895 F500.00
G1 X12.8869 Y-0.4000 Z-1.0000 F500.00
G2 X12.6108 Y-0.2895 Z-1.0000 I0.0000 J0.4000 F500.00
G2 X-0.3764 Y19.6577 Z-1.0000 I32.3892 J35.2895 F500.00
G1 X-0.4000 Y19.7931 Z-1.0000 F500.00
G1 X-0.4000 Y29.0000 Z-1.0000 F500.00
G2 X0.0000 Y29.4000 Z-1.0000 I0.4000 J-0.0000 F500.00
G1 X5.2000 Y29.4000 Z-1.0000 F500.00
G2 X5.6000 Y29.0000 Z-1.0000 I-0.0000 J-0.4000 F500.00
G1 X5.6000 Y27.6500 Z-1.0000 F500.00
G1 X12.8000 Y27.6500 Z-1.0000 F500.00
G1 X12.8000 Y31.0000 Z-1.0000 F500.00
G2 X13.2000 Y31.4000 Z-1.0000 I0.4000 J-0.0000 F500.00
G1 X14.7000 Y31.4000 Z-1.0000 F500.00
G2 X15.1000 Y31.0000 Z-1.0000 I-0.0000 J-0.4000 F500.00
G1 X15.1000 Y29.9000 Z-1.0000 F500.00
G1 X17.8000 Y29.9000 Z-1.0000 F500.00
G2 X18.2000 Y29.5000 Z-1.0000 I-0.0000 J-0.4000 F500.00
G1 X18.2000 Y12.5262 Z-1.0000 F500.00
G3 X18.8262 Y11.9000 Z-1.0000 I0.6089 J-0.0173 F500.00
G1 X35.9738 Y11.9000 Z-1.0000 F500.00
G3 X36.6000 Y12.5262 Z-1.0000 I0.0173 J0.6089 F500.00
G1 X36.6000 Y39.6738 Z-1.0000 F500.00
G3 X35.9738 Y40.3000 Z-1.0000 I-0.6089 J0.0173 F500.00
G1 X18.1363 Y40.3000 Z-1.0000 F500.00
G2 X17.8000 Y40.1000 Z-1.0000 I-0.3058 J0.1315 F500.00
G1 X15.1000 Y40.1000 Z-1.0000 F500.00
G1 X15.1000 Y39.0000 Z-1.0000 F500.00
G2 X14.7000 Y38.6000 Z-1.0000 I-0.4000 J0.0000 F500.00
G1 X13.2000 Y38.6000 Z-1.0000 F500.00
G2 X12.8000 Y39.0000 Z-1.0000 I0.0000 J0.4000 F500.00
G1 X12.8000 Y42.3500 Z-1.0000 F500.00
G1 X5.6000 Y42.3500 Z-1.0000 F500.00
G1 X5.6000 Y41.0000 Z-1.0000 F500.00
G2 X5.2000 Y40.6000 Z-1.0000 I-0.4000 J0.0000 F500.00
G1 X0.0000 Y40.6000 Z-1.0000 F500.00
G2 X-0.4000 Y41.0000 Z-1.0000 I0.0000 J0.4000 F500.00
G1 X-0.4000 Y50.2069 Z-1.0000 F500.00
G2 X12.6108 Y70.2895 Z-1.0000 I45.1280 J-14.9811 F500.00
G2 X12.8869 Y70.4000 Z-1.0000 I0.2761 J-0.2895 F500.00
G1 X77.1131 Y70.4000 Z-1.0000 F500.00
G2 X77.3892 Y70.2895 Z-1.0000 I-0.0000 J-0.4000 F500.00
G2 X82.7740 Y64.4538 Z-1.0000 I-32.3892 J-35.2895 F500.00
G1 X82.7740 Y64.4538 Z-1.2500 F100.00
G2 X90.3764 Y50.3423 Z-1.2500 I-37.7740 J-29.4538 F500.00
G1 X90.4000 Y50.2069 Z-1.2500 F500.00
G1 X90.4000 Y41.0000 Z-1.2500 F500.00
G2 X90.0000 Y40.6000 Z-1.2500 I-0.4000 J0.0000 F500.00
G1 X84.4000 Y40.6000 Z-1.2500 F500.00
G1 X84.4000 Y29.4000 Z-1.2500 F500.00
G1 X90.0000 Y29.4000 Z-1.2500 F500.00
G2 X90.4000 Y29.0000 Z-1.2500 I-0.0000 J-0.4000 F500.00
G1 X90.4000 Y19.7931 Z-1.2500 F500.00
G2 X77.3892 Y-0.2895 Z-1.2500 I-45.1280 J14.9811 F500.00
G2 X77.1131 Y-0.4000 Z-1.2500 I-0.2761 J0.2895 F500.00
G1 X12.8869 Y-0.4000 Z-1.2500 F500.00
G2 X12.6108 Y-0.2895 Z-1.2500 I0.0000 J0.4000 F500.00
G2 X-0.3764 Y19.6577 Z-1.2500 I32.3892 J35.2895 F500.00
G1 X-0.4000 Y19.7931 Z-1.2500 F500.00
G1 X-0.4000 Y29.0000 Z-1.2500 F500.00
G2 X0.0000 Y29.4000 Z-1.2500 I0.4000 J-0.0000 F500.00
G1 X5.2000 Y29.4000 Z-1.2500 F500.00
G2 X5.6000 Y29.0000 Z-1.2500 I-0.0000 J-0.4000 F500.00
G1 X5.6000 Y27.6500 Z-1.2500 F500.00
G1 X12.8000 Y27.6500 Z-1.2500 F500.00
G1 X12.8000 Y31.0000 Z-1.2500 F500.00
G2 X13.2000 Y31.4000 Z-1.2500 I0.4000 J-0.0000 F500.00
G1 X14.7000 Y31.4000 Z-1.2500 F500.00
G2 X15.1000 Y31.0000 Z-1.2500 I-0.0000 J-0.4000 F500.00
G1 X15.1000 Y29.9000 Z-1.2500 F500.00
G1 X17.8000 Y29.9000 Z-1.2500 F500.00
G2 X18.2000 Y29.5000 Z-1.2500 I-0.0000 J-0.4000 F500.00
G1 X18.2000 Y12.5262 Z-1.2500 F500.00
G3 X18.8262 Y11.9000 Z-1.2500 I0.6089 J-0.0173 F500.00
G1 X35.9738 Y11.9000 Z-1.2500 F500.00
G3 X36.6000 Y12.5262 Z-1.2500 I0.0173 J0.6089 F500.00
G1 X36.6000 Y39.6738 Z-1.2500 F500.00
G3 X35.9738 Y40.3000 Z-1.2500 I-0.6089 J0.0173 F500.00
G1 X18.1363 Y40.3000 Z-1.2500 F500.00
G2 X17.8000 Y40.1000 Z-1.2500 I-0.3058 J0.1315 F500.00
G1 X15.1000 Y40.1000 Z-1.2500 F500.00
G1 X15.1000 Y39.0000 Z-1.2500 F500.00
G2 X14.7000 Y38.6000 Z-1.2500 I-0.4000 J0.0000 F500.00
G1 X13.2000 Y38.6000 Z-1.2500 F500.00
G2 X12.8000 Y39.0000 Z-1.2500 I0.0000 J0.4000 F500.00
G1 X12.8000 Y42.3500 Z-1.2500 F500.00
G1 X5.6000 Y42.3500 Z-1.2500 F500.00
G1 X5.6000 Y41.0000 Z-1.2500 F500.00
G2 X5.2000 Y40.6000 Z-1.2500 I-0.4000 J0.0000 F500.00
G1 X0.0000 Y40.6000 Z-1.2500 F500.00
G2 X-0.4000 Y41.0000 Z-1.2500 I0.0000 J0.4000 F500.00
G1 X-0.4000 Y50.2069 Z-1.2500 F500.00
G2 X12.6108 Y70.2895 Z-1.2500 I45.1280 J-14.9811 F500.00
G2 X12.8869 Y70.4000 Z-1.2500 I0.2761 J-0.2895 F500.00
G1 X77.1131 Y70.4000 Z-1.2500 F500.00
G2 X77.3892 Y70.2895 Z-1.2500 I-0.0000 J-0.4000 F500.00
G2 X82.7740 Y64.4538 Z-1.2500 I-32.3892 J-35.2895 F500.00
G1 X82.7740 Y64.4538 Z-1.5000 F100.00
G2 X90.3764 Y50.3423 Z-1.5000 I-37.7740 J-29.4538 F500.00
G1 X90.4000 Y50.2069 Z-1.5000 F500.00
G1 X90.4000 Y41.0000 Z-1.5000 F500.00
G2 X90.0000 Y40.6000 Z-1.5000 I-0.4000 J0.0000 F500.00
G1 X84.4000 Y40.6000 Z-1.5000 F500.00
G1 X84.4000 Y29.4000 Z-1.5000 F500.00
G1 X90.0000 Y29.4000 Z-1.5000 F500.00
G2 X90.4000 Y29.0000 Z-1.5000 I-0.0000 J-0.4000 F500.00
G1 X90.4000 Y19.7931 Z-1.5000 F500.00
G2 X77.3892 Y-0.2895 Z-1.5000 I-45.1280 J14.9811 F500.00
G2 X77.1131 Y-0.4000 Z-1.5000 I-0.2761 J0.2895 F500.00
G1 X12.8869 Y-0.4000 Z-1.5000 F500.00
G2 X12.6108 Y-0.2895 Z-1.5000 I0.0000 J0.4000 F500.00
G2 X-0.3764 Y19.6577 Z-1.5000 I32.3892 J35.2895 F500.00
G1 X-0.4000 Y19.7931 Z-1.5000 F500.00
G1 X-0.4000 Y29.0000 Z-1.5000 F500.00
G2 X0.0000 Y29.4000 Z-1.5000 I0.4000 J-0.0000 F500.00
G1 X5.2000 Y29.4000 Z-1.5000 F500.00
G2 X5.6000 Y29.0000 Z-1.5000 I-0.0000 J-0.4000 F500.00
G1 X5.6000 Y27.6500 Z-1.5000 F500.00
G1 X12.8000 Y27.6500 Z-1.5000 F500.00
G1 X12.8000 Y31.0000 Z-1.5000 F500.00
G2 X13.2000 Y31.4000 Z-1.5000 I0.4000 J-0.0000 F500.00
G1 X14.7000 Y31.4000 Z-1.5000 F500.00
G2 X15.1000 Y31.0000 Z-1.5000 I-0.0000 J-0.4000 F500.00
G1 X15.1000 Y29.9000 Z-1.5000 F500.00
G1 X17.8000 Y29.9000 Z-1.5000 F500.00
G2 X18.2000 Y29.5000 Z-1.5000 I-0.0000 J-0.4000 F500.00
G1 X18.2000 Y12.5262 Z-1.5000 F500.00
G3 X18.8262 Y11.9000 Z-1.5000 I0.6089 J-0.0173 F500.00
G1 X35.9738 Y11.9000 Z-1.5000 F500.00
G3 X36.6000 Y12.5262 Z-1.5000 I0.0173 J0.6089 F500.00
G1 X36.6000 Y39.6738 Z-1.5000 F500.00
G3 X35.9738 Y40.3000 Z-1.5000 I-0.6089 J0.0173 F500.00
G1 X18.1363 Y40.3000 Z-1.5000 F500.00
G2 X17.8000 Y40.1000 Z-1.5000 I-0.3058 J0.1315 F500.00
G1 X15.1000 Y40.1000 Z-1.5000 F500.00
G1 X15.1000 Y39.0000 Z-1.5000 F500.00
G2 X14.7000 Y38.6000 Z-1.5000 I-0.4000 J0.0000 F500.00
G1 X13.2000 Y38.6000 Z-1.5000 F500.00
G2 X12.8000 Y39.0000 Z-1.5000 I0.0000 J0.4000 F500.00
G1 X12.8000 Y42.3500 Z-1.5000 F500.00
G1 X5.6000 Y42.3500 Z-1.5000 F500.00
G1 X5.6000 Y41.0000 Z-1.5000 F500.00
G2 X5.2000 Y40.6000 Z-1.5000 I-0.4000 J0.0000 F500.00
G1 X0.0000 Y40.6000 Z-1.5000 F500.00
G2 X-0.4000 Y41.0000 Z-1.5000 I0.0000 J0.4000 F500.00
G1 X-0.4000 Y50.2069 Z-1.5000 F500.00
G2 X12.6108 Y70.2895 Z-1.5000 I45.1280 J-14.9811 F500.00
G2 X12.8869 Y70.4000 Z-1.5000 I0.2761 J-0.2895 F500.00
G1 X77.1131 Y70.4000 Z-1.5000 F500.00
G2 X77.3892 Y70.2895 Z-1.5000 I-0.0000 J-0.4000 F500.00
G2 X82.7740 Y64.4538 Z-1.5000 I-32.3892 J-35.2895 F500.00
G1 X82.7740 Y64.4538 Z-1.7500 F100.00
G2 X90.3764 Y50.3423 Z-1.7500 I-37.7740 J-29.4538 F500.00
G1 X90.4000 Y50.2069 Z-1.7500 F500.00
G1 X90.4000 Y41.0000 Z-1.7500 F500.00
G2 X90.0000 Y40.6000 Z-1.7500 I-0.4000 J0.0000 F500.00
G1 X84.4000 Y40.6000 Z-1.7500 F500.00
G1 X84.4000 Y29.4000 Z-1.7500 F500.00
G1 X90.0000 Y29.4000 Z-1.7500 F500.00
G2 X90.4000 Y29.0000 Z-1.7500 I-0.0000 J-0.4000 F500.00
G1 X90.4000 Y19.7931 Z-1.7500 F500.00
G2 X77.3892 Y-0.2895 Z-1.7500 I-45.1280 J14.9811 F500.00
G2 X77.1131 Y-0.4000 Z-1.7500 I-0.2761 J0.2895 F500.00
G1 X12.8869 Y-0.4000 Z-1.7500 F500.00
G2 X12.6108 Y-0.2895 Z-1.7500 I0.0000 J0.4000 F500.00
G2 X-0.3764 Y19.6577 Z-1.7500 I32.3892 J35.2895 F500.00
G1 X-0.4000 Y19.7931 Z-1.7500 F500.00
G1 X-0.4000 Y29.0000 Z-1.7500 F500.00
G2 X0.0000 Y29.4000 Z-1.7500 I0.4000 J-0.0000 F500.00
G1 X5.2000 Y29.4000 Z-1.7500 F500.00
G2 X5.6000 Y29.0000 Z-1.7500 I-0.0000 J-0.4000 F500.00
G1 X5.6000 Y27.6500 Z-1.7500 F500.00
G1 X12.8000 Y27.6500 Z-1.7500 F500.00
G1 X12.8000 Y31.0000 Z-1.7500 F500.00
G2 X13.2000 Y31.4000 Z-1.7500 I0.4000 J-0.0000 F500.00
G1 X14.7000 Y31.4000 Z-1.7500 F500.00
G2 X15.1000 Y31.0000 Z-1.7500 I-0.0000 J-0.4000 F500.00
G1 X15.1000 Y29.9000 Z-1.7500 F500.00
G1 X17.8000 Y29.9000 Z-1.7500 F500.00
G2 X18.2000 Y29.5000 Z-1.7500 I-0.0000 J-0.4000 F500.00
G1 X18.2000 Y12.5262 Z-1.7500 F500.00
G3 X18.8262 Y11.9000 Z-1.7500 I0.6089 J-0.0173 F500.00
G1 X35.9738 Y11.9000 Z-1.7500 F500.00
G3 X36.6000 Y12.5262 Z-1.7500 I0.0173 J0.6089 F500.00
G1 X36.6000 Y39.6738 Z-1.7500 F500.00
G3 X35.9738 Y40.3000 Z-1.7500 I-0.6089 J0.0173 F500.00
G1 X18.1363 Y40.3000 Z-1.7500 F500.00
G2 X17.8000 Y40.1000 Z-1.7500 I-0.3058 J0.1315 F500.00
G1 X15.1000 Y40.1000 Z-1.7500 F500.00
G1 X15.1000 Y39.0000 Z-1.7500 F500.00
G2 X14.7000 Y38.6000 Z-1.7500 I-0.4000 J0.0000 F500.00
G1 X13.2000 Y38.6000 Z-1.7500 F500.00
G2 X12.8000 Y39.0000 Z-1.7500 I0.0000 J0.4000 F500.00
G1 X12.8000 Y42.3500 Z-1.7500 F500.00
G1 X5.6000 Y42.3500 Z-1.7500 F500.00
G1 X5.6000 Y41.0000 Z-1.7500 F500.00
G2 X5.2000 Y40.6000 Z-1.7500 I-0.4000 J0.0000 F500.00
G1 X0.0000 Y40.6000 Z-1.7500 F500.00
G2 X-0.4000 Y41.0000 Z-1.7500 I0.0000 J0.4000 F500.00
G1 X-0.4000 Y50.2069 Z-1.7500 F500.00
G2 X12.6108 Y70.2895 Z-1.7500 I45.1280 J-14.9811 F500.00
G2 X12.8869 Y70.4000 Z-1.7500 I0.2761 J-0.2895 F500.00
G1 X77.1131 Y70.4000 Z-1.7500 F500.00
G2 X77.3892 Y70.2895 Z-1.7500 I-0.0000 J-0.4000 F500.00
G2 X82.7740 Y64.4538 Z-1.7500 I-32.3892 J-35.2895 F500.00
G1 X82.7740 Y64.4538 Z-2.0000 F100.00
G2 X90.3764 Y50.3423 Z-2.0000 I-37.7740 J-29.4538 F500.00
G1 X90.4000 Y50.2069 Z-2.0000 F500.00
G1 X90.4000 Y41.0000 Z-2.0000 F500.00
G2 X90.0000 Y40.6000 Z-2.0000 I-0.4000 J0.0000 F500.00
G1 X84.4000 Y40.6000 Z-2.0000 F500.00
G1 X84.4000 Y29.4000 Z-2.0000 F500.00
G1 X90.0000 Y29.4000 Z-2.0000 F500.00
G2 X90.4000 Y29.0000 Z-2.0000 I-0.0000 J-0.4000 F500.00
G1 X90.4000 Y19.7931 Z-2.0000 F500.00
G2 X77.3892 Y-0.2895 Z-2.0000 I-45.1280 J14.9811 F500.00
G2 X77.1131 Y-0.4000 Z-2.0000 I-0.2761 J0.2895 F500.00
G1 X12.8869 Y-0.4000 Z-2.0000 F500.00
G2 X12.6108 Y-0.2895 Z-2.0000 I0.0000 J0.4000 F500.00
G2 X-0.3764 Y19.6577 Z-2.0000 I32.3892 J35.2895 F500.00
G1 X-0.4000 Y19.7931 Z-2.0000 F500.00
G1 X-0.4000 Y29.0000 Z-2.0000 F500.00
G2 X0.0000 Y29.4000 Z-2.0000 I0.4000 J-0.0000 F500.00
G1 X5.2000 Y29.4000 Z-2.0000 F500.00
G2 X5.6000 Y29.0000 Z-2.0000 I-0.0000 J-0.4000 F500.00
G1 X5.6000 Y27.6500 Z-2.0000 F500.00
G1 X12.8000 Y27.6500 Z-2.0000 F500.00
G1 X12.8000 Y31.0000 Z-2.0000 F500.00
G2 X13.2000 Y31.4000 Z-2.0000 I0.4000 J-0.0000 F500.00
G1 X14.7000 Y31.4000 Z-2.0000 F500.00
G2 X15.1000 Y31.0000 Z-2.0000 I-0.0000 J-0.4000 F500.00
G1 X15.1000 Y29.9000 Z-2.0000 F500.00
G1 X17.8000 Y29.9000 Z-2.0000 F500.00
G2 X18.2000 Y29.5000 Z-2.0000 I-0.0000 J-0.4000 F500.00
G1 X18.2000 Y12.5262 Z-2.0000 F500.00
G3 X18.8262 Y11.9000 Z-2.0000 I0.6089 J-0.0173 F500.00
G1 X35.9738 Y11.9000 Z-2.0000 F500.00
G3 X36.6000 Y12.5262 Z-2.0000 I0.0173 J0.6089 F500.00
G1 X36.6000 Y39.6738 Z-2.0000 F500.00
G3 X35.9738 Y40.3000 Z-2.0000 I-0.6089 J0.0173 F500.00
G1 X18.1363 Y40.3000 Z-2.0000 F500.00
G2 X17.8000 Y40.1000 Z-2.0000 I-0.3058 J0.1315 F500.00
G1 X15.1000 Y40.1000 Z-2.0000 F500.00
G1 X15.1000 Y39.0000 Z-2.0000 F500.00
G2 X14.7000 Y38.6000 Z-2.0000 I-0.4000 J0.0000 F500.00
G1 X13.2000 Y38.6000 Z-2.0000 F500.00
G2 X12.8000 Y39.0000 Z-2.0000 I0.0000 J0.4000 F500.00
G1 X12.8000 Y42.3500 Z-2.0000 F500.00
G1 X5.6000 Y42.3500 Z-2.0000 F500.00
G1 X5.6000 Y41.0000 Z-2.0000 F500.00
G2 X5.2000 Y40.6000 Z-2.0000 I-0.4000 J0.0000 F500.00
G1 X0.0000 Y40.6000 Z-2.0000 F500.00
G2 X-0.4000 Y41.0000 Z-2.0000 I0.0000 J0.4000 F500.00
G1 X-0.4000 Y50.2069 Z-2.0000 F500.00
G2 X12.6108 Y70.2895 Z-2.0000 I45.1280 J-14.9811 F500.00
G2 X12.8869 Y70.4000 Z-2.0000 I0.2761 J-0.2895 F500.00
G1 X77.1131 Y70.4000 Z-2.0000 F500.00
G2 X77.3892 Y70.2895 Z-2.0000 I-0.0000 J-0.4000 F500.00
G2 X82.7740 Y64.4538 Z-2.0000 I-32.3892 J-35.2895 F500.00
G1 X82.7740 Y64.4538 Z-2.2500 F100.00
G2 X90.3764 Y50.3423 Z-2.2500 I-37.7740 J-29.4538 F500.00
G1 X90.4000 Y50.2069 Z-2.2500 F500.00
G1 X90.4000 Y41.0000 Z-2.2500 F500.00
G2 X90.0000 Y40.6000 Z-2.2500 I-0.4000 J0.0000 F500.00
G1 X84.4000 Y40.6000 Z-2.2500 F500.00
G1 X84.4000 Y29.4000 Z-2.2500 F500.00
G1 X90.0000 Y29.4000 Z-2.2500 F500.00
G2 X90.4000 Y29.0000 Z-2.2500 I-0.0000 J-0.4000 F500.00
G1 X90.4000 Y19.7931 Z-2.2500 F500.00
G2 X77.3892 Y-0.2895 Z-2.2500 I-45.1280 J14.9811 F500.00
G2 X77.1131 Y-0.4000 Z-2.2500 I-0.2761 J0.2895 F500.00
G1 X12.8869 Y-0.4000 Z-2.2500 F500.00
G2 X12.6108 Y-0.2895 Z-2.2500 I0.0000 J0.4000 F500.00
G2 X-0.3764 Y19.6577 Z-2.2500 I32.3892 J35.2895 F500.00
G1 X-0.4000 Y19.7931 Z-2.2500 F500.00
G1 X-0.4000 Y29.0000 Z-2.2500 F500.00
G2 X0.0000 Y29.4000 Z-2.2500 I0.4000 J-0.0000 F500.00
G1 X5.2000 Y29.4000 Z-2.2500 F500.00
G2 X5.6000 Y29.0000 Z-2.2500 I-0.0000 J-0.4000 F500.00
G1 X5.6000 Y27.6500 Z-2.2500 F500.00
G1 X12.8000 Y27.6500 Z-2.2500 F500.00
G1 X12.8000 Y31.0000 Z-2.2500 F500.00
G2 X13.2000 Y31.4000 Z-2.2500 I0.4000 J-0.0000 F500.00
G1 X14.7000 Y31.4000 Z-2.2500 F500.00
G2 X15.1000 Y31.0000 Z-2.2500 I-0.0000 J-0.4000 F500.00
G1 X15.1000 Y29.9000 Z-2.2500 F500.00
G1 X17.8000 Y29.9000 Z-2.2500 F500.00
G2 X18.2000 Y29.5000 Z-2.2500 I-0.0000 J-0.4000 F500.00
G1 X18.2000 Y12.5262 Z-2.2500 F500.00
G3 X18.8262 Y11.9000 Z-2.2500 I0.6089 J-0.0173 F500.00
G1 X35.9738 Y11.9000 Z-2.2500 F500.00
G3 X36.6000 Y12.5262 Z-2.2500 I0.0173 J0.6089 F500.00
G1 X36.6000 Y39.6738 Z-2.2500 F500.00
G3 X35.9738 Y40.3000 Z-2.2500 I-0.6089 J0.0173 F500.00
G1 X18.1363 Y40.3000 Z-2.2500 F500.00
G2 X17.8000 Y40.1000 Z-2.2500 I-0.3058 J0.1315 F500.00
G1 X15.1000 Y40.1000 Z-2.2500 F500.00
G1 X15.1000 Y39.0000 Z-2.2500 F500.00
G2 X14.7000 Y38.6000 Z-2.2500 I-0.4000 J0.0000 F500.00
G1 X13.2000 Y38.6000 Z-2.2500 F500.00
G2 X12.8000 Y39.0000 Z-2.2500 I0.0000 J0.4000 F500.00
G1 X12.8000 Y42.3500 Z-2.2500 F500.00
G1 X5.6000 Y42.3500 Z-2.2500 F500.00
G1 X5.6000 Y41.0000 Z-2.2500 F500.00
G2 X5.2000 Y40.6000 Z-2.2500 I-0.4000 J0.0000 F500.00
G1 X0.0000 Y40.6000 Z-2.2500 F500.00
G2 X-0.4000 Y41.0000 Z-2.2500 I0.0000 J0.4000 F500.00
G1 X-0.4000 Y50.2069 Z-2.2500 F500.00
G2 X12.6108 Y70.2895 Z-2.2500 I45.1280 J-14.9811 F500.00
G2 X12.8869 Y70.4000 Z-2.2500 I0.2761 J-0.2895 F500.00
G1 X77.1131 Y70.4000 Z-2.2500 F500.00
G2 X77.3892 Y70.2895 Z-2.2500 I-0.0000 J-0.4000 F500.00
G2 X82.7740 Y64.4538 Z-2.2500 I-32.3892 J-35.2895 F500.00
G1 X82.7740 Y64.4538 Z-2.5000 F100.00
G2 X90.3764 Y50.3423 Z-2.5000 I-37.7740 J-29.4538 F500.00
G1 X90.4000 Y50.2069 Z-2.5000 F500.00
G1 X90.4000 Y41.0000 Z-2.5000 F500.00
G2 X90.0000 Y40.6000 Z-2.5000 I-0.4000 J0.0000 F500.00
G1 X84.4000 Y40.6000 Z-2.5000 F500.00
G1 X84.4000 Y29.4000 Z-2.5000 F500.00
G1 X90.0000 Y29.4000 Z-2.5000 F500.00
G2 X90.4000 Y29.0000 Z-2.5000 I-0.0000 J-0.4000 F500.00
G1 X90.4000 Y19.7931 Z-2.5000 F500.00
G2 X77.3892 Y-0.2895 Z-2.5000 I-45.1280 J14.9811 F500.00
G2 X77.1131 Y-0.4000 Z-2.5000 I-0.2761 J0.2895 F500.00
G1 X12.8869 Y-0.4000 Z-2.5000 F500.00
G2 X12.6108 Y-0.2895 Z-2.5000 I0.0000 J0.4000 F500.00
G2 X-0.3764 Y19.6577 Z-2.5000 I32.3892 J35.2895 F500.00
G1 X-0.4000 Y19.7931 Z-2.5000 F500.00
G1 X-0.4000 Y29.0000 Z-2.5000 F500.00
G2 X0.0000 Y29.4000 Z-2.5000 I0.4000 J-0.0000 F500.00
G1 X5.2000 Y29.4000 Z-2.5000 F500.00
G2 X5.6000 Y29.0000 Z-2.5000 I-0.0000 J-0.4000 F500.00
G1 X5.6000 Y27.6500 Z-2.5000 F500.00
G1 X12.8000 Y27.6500 Z-2.5000 F500.00
G1 X12.8000 Y31.0000 Z-2.5000 F500.00
G2 X13.2000 Y31.4000 Z-2.5000 I0.4000 J-0.0000 F500.00
G1 X14.7000 Y31.4000 Z-2.5000 F500.00
G2 X15.1000 Y31.0000 Z-2.5000 I-0.0000 J-0.4000 F500.00
G1 X15.1000 Y29.9000 Z-2.5000 F500.00
G1 X17.8000 Y29.9000 Z-2.5000 F500.00
G2 X18.2000 Y29.5000 Z-2.5000 I-0.0000 J-0.4000 F500.00
G1 X18.2000 Y12.5262 Z-2.5000 F500.00
G3 X18.8262 Y11.9000 Z-2.5000 I0.6089 J-0.0173 F500.00
G1 X35.9738 Y11.9000 Z-2.5000 F500.00
G3 X36.6000 Y12.5262 Z-2.5000 I0.0173 J0.6089 F500.00
G1 X36.6000 Y39.6738 Z-2.5000 F500.00
G3 X35.9738 Y40.3000 Z-2.5000 I-0.6089 J0.0173 F500.00
G1 X18.1363 Y40.3000 Z-2.5000 F500.00
G2 X17.8000 Y40.1000 Z-2.5000 I-0.3058 J0.1315 F500.00
G1 X15.1000 Y40.1000 Z-2.5000 F500.00
G1 X15.1000 Y39.0000 Z-2.5000 F500.00
G2 X14.7000 Y38.6000 Z-2.5000 I-0.4000 J0.0000 F500.00
G1 X13.2000 Y38.6000 Z-2.5000 F500.00
G2 X12.8000 Y39.0000 Z-2.5000 I0.0000 J0.4000 F500.00
G1 X12.8000 Y42.3500 Z-2.5000 F500.00
G1 X5.6000 Y42.3500 Z-2.5000 F500.00
G1 X5.6000 Y41.0000 Z-2.5000 F500.00
G2 X5.2000 Y40.6000 Z-2.5000 I-0.4000 J0.0000 F500.00
G1 X0.0000 Y40.6000 Z-2.5000 F500.00
G2 X-0.4000 Y41.0000 Z-2.5000 I0.0000 J0.4000 F500.00
G1 X-0.4000 Y50.2069 Z-2.5000 F500.00
G2 X12.6108 Y70.2895 Z-2.5000 I45.1280 J-14.9811 F500.00
G2 X12.8869 Y70.4000 Z-2.5000 I0.2761 J-0.2895 F500.00
G1 X77.1131 Y70.4000 Z-2.5000 F500.00
G2 X77.3892 Y70.2895 Z-2.5000 I-0.0000 J-0.4000 F500.00
G2 X82.7740 Y64.4538 Z-2.5000 I-32.3892 J-35.2895 F500.00
G1 X82.7740 Y64.4538 Z-2.6000 F100.00
G2 X90.3764 Y50.3423 Z-2.6000 I-37.7740 J-29.4538 F500.00
G1 X90.4000 Y50.2069 Z-2.6000 F500.00
G1 X90.4000 Y41.0000 Z-2.6000 F500.00
G2 X90.0000 Y40.6000 Z-2.6000 I-0.4000 J0.0000 F500.00
G1 X84.4000 Y40.6000 Z-2.6000 F500.00
G1 X84.4000 Y29.4000 Z-2.6000 F500.00
G1 X90.0000 Y29.4000 Z-2.6000 F500.00
G2 X90.4000 Y29.0000 Z-2.6000 I-0.0000 J-0.4000 F500.00
G1 X90.4000 Y19.7931 Z-2.6000 F500.00
G2 X77.3892 Y-0.2895 Z-2.6000 I-45.1280 J14.9811 F500.00
G2 X77.1131 Y-0.4000 Z-2.6000 I-0.2761 J0.2895 F500.00
G1 X12.8869 Y-0.4000 Z-2.6000 F500.00
G2 X12.6108 Y-0.2895 Z-2.6000 I0.0000 J0.4000 F500.00
G2 X-0.3764 Y19.6577 Z-2.6000 I32.3892 J35.2895 F500.00
G1 X-0.4000 Y19.7931 Z-2.6000 F500.00
G1 X-0.4000 Y29.0000 Z-2.6000 F500.00
G2 X0.0000 Y29.4000 Z-2.6000 I0.4000 J-0.0000 F500.00
G1 X5.2000 Y29.4000 Z-2.6000 F500.00
G2 X5.6000 Y29.0000 Z-2.6000 I-0.0000 J-0.4000 F500.00
G1 X5.6000 Y27.6500 Z-2.6000 F500.00
G1 X12.8000 Y27.6500 Z-2.6000 F500.00
G1 X12.8000 Y31.0000 Z-2.6000 F500.00
G2 X13.2000 Y31.4000 Z-2.6000 I0.4000 J-0.0000 F500.00
G1 X14.7000 Y31.4000 Z-2.6000 F500.00
G2 X15.1000 Y31.0000 Z-2.6000 I-0.0000 J-0.4000 F500.00
G1 X15.1000 Y29.9000 Z-2.6000 F500.00
G1 X17.8000 Y29.9000 Z-2.6000 F500.00
G2 X18.2000 Y29.5000 Z-2.6000 I-0.0000 J-0.4000 F500.00
G1 X18.2000 Y12.5262 Z-2.6000 F500.00
G3 X18.8262 Y11.9000 Z-2.6000 I0.6089 J-0.0173 F500.00
G1 X35.9738 Y11.9000 Z-2.6000 F500.00
G3 X36.6000 Y12.5262 Z-2.6000 I0.0173 J0.6089 F500.00
G1 X36.6000 Y39.6738 Z-2.6000 F500.00
G3 X35.9738 Y40.3000 Z-2.6000 I-0.6089 J0.0173 F500.00
G1 X18.1363 Y40.3000 Z-2.6000 F500.00
G2 X17.8000 Y40.1000 Z-2.6000 I-0.3058 J0.1315 F500.00
G1 X15.1000 Y40.1000 Z-2.6000 F500.00
G1 X15.1000 Y39.0000 Z-2.6000 F500.00
G2 X14.7000 Y38.6000 Z-2.6000 I-0.4000 J0.0000 F500.00
G1 X13.2000 Y38.6000 Z-2.6000 F500.00
G2 X12.8000 Y39.0000 Z-2.6000 I0.0000 J0.4000 F500.00
G1 X12.8000 Y42.3500 Z-2.6000 F500.00
G1 X5.6000 Y42.3500 Z-2.6000 F500.00
G1 X5.6000 Y41.0000 Z-2.6000 F500.00
G2 X5.2000 Y40.6000 Z-2.6000 I-0.4000 J0.0000 F500.00
G1 X0.0000 Y40.6000 Z-2.6000 F500.00
G2 X-0.4000 Y41.0000 Z-2.6000 I0.0000 J0.4000 F500.00
G1 X-0.4000 Y50.2069 Z-2.6000 F500.00
G2 X12.6108 Y70.2895 Z-2.6000 I45.1280 J-14.9811 F500.00
G2 X12.8869 Y70.4000 Z-2.6000 I0.2761 J-0.2895 F500.00
G1 X77.1131 Y70.4000 Z-2.6000 F500.00
G2 X77.3892 Y70.2895 Z-2.6000 I-0.0000 J-0.4000 F500.00
G2 X82.7740 Y64.4538 Z-2.6000 I-32.3892 J-35.2895 F500.00
G0 Z5.0000
(finish operation: Profile_Edges020)
(begin postamble)
M5
G17 G90
; M2
