(Exported by FreeCAD)
(Post Processor: grbl_post)
(Output Time:2019-08-19 21:12:57.181661)
(begin preamble)
G17 G90
G21
(begin operation: T2: end mill 3mm002)
(Path: T2: end mill 3mm002)
(T2: end mill 3mm002)
(begin toolchange)
; M6 T2
M3 S10000.0000
(finish operation: T2: end mill 3mm002)
(begin operation: Profile_Faces003)
(Path: Profile_Faces003)
(Profile_Faces003)
(Compensated Tool Path. Diameter: 3.0)
G0 Z5.0000
G0 X9.5691 Y9.5688
G0 Z3.0000
G1 X9.5691 Y9.5688 Z-0.0000 F100.00
G2 X6.9849 Y1.0497 Z0.0000 I-3.5689 J-3.5689 F500.00
G2 X4.9865 Y10.9442 Z-0.0000 I-0.9848 J4.9502 F500.00
G2 X9.5691 Y9.5688 Z-0.0000 I1.0137 J-4.9443 F500.00
G1 X9.5691 Y9.5688 Z-0.5000 F100.00
G2 X6.9849 Y1.0497 Z-0.5000 I-3.5689 J-3.5689 F500.00
G2 X4.9865 Y10.9442 Z-0.5000 I-0.9848 J4.9502 F500.00
G2 X9.5691 Y9.5688 Z-0.5000 I1.0137 J-4.9443 F500.00
G1 X9.5691 Y9.5688 Z-1.0000 F100.00
G2 X6.9849 Y1.0497 Z-1.0000 I-3.5689 J-3.5689 F500.00
G2 X4.9865 Y10.9442 Z-1.0000 I-0.9848 J4.9502 F500.00
G2 X9.5691 Y9.5688 Z-1.0000 I1.0137 J-4.9443 F500.00
G1 X9.5691 Y9.5688 Z-1.5000 F100.00
G2 X6.9849 Y1.0497 Z-1.5000 I-3.5689 J-3.5689 F500.00
G2 X4.9865 Y10.9442 Z-1.5000 I-0.9848 J4.9502 F500.00
G2 X9.5691 Y9.5688 Z-1.5000 I1.0137 J-4.9443 F500.00
G1 X9.5691 Y9.5688 Z-2.0000 F100.00
G2 X6.9849 Y1.0497 Z-2.0000 I-3.5689 J-3.5689 F500.00
G2 X4.9865 Y10.9442 Z-2.0000 I-0.9848 J4.9502 F500.00
G2 X9.5691 Y9.5688 Z-2.0000 I1.0137 J-4.9443 F500.00
G1 X9.5691 Y9.5688 Z-2.5000 F100.00
G2 X6.9849 Y1.0497 Z-2.5000 I-3.5689 J-3.5689 F500.00
G2 X4.9865 Y10.9442 Z-2.5000 I-0.9848 J4.9502 F500.00
G2 X9.5691 Y9.5688 Z-2.5000 I1.0137 J-4.9443 F500.00
G1 X9.5691 Y9.5688 Z-3.0000 F100.00
G2 X6.9849 Y1.0497 Z-3.0000 I-3.5689 J-3.5689 F500.00
G2 X4.9865 Y10.9442 Z-3.0000 I-0.9848 J4.9502 F500.00
G2 X9.5691 Y9.5688 Z-3.0000 I1.0137 J-4.9443 F500.00
G1 X9.5691 Y9.5688 Z-3.5000 F100.00
G2 X6.9849 Y1.0497 Z-3.5000 I-3.5689 J-3.5689 F500.00
G2 X4.9865 Y10.9442 Z-3.5000 I-0.9848 J4.9502 F500.00
G2 X9.5691 Y9.5688 Z-3.5000 I1.0137 J-4.9443 F500.00
G1 X9.5691 Y9.5688 Z-4.0000 F100.00
G2 X6.9849 Y1.0497 Z-4.0000 I-3.5689 J-3.5689 F500.00
G2 X4.9865 Y10.9442 Z-4.0000 I-0.9848 J4.9502 F500.00
G2 X9.5691 Y9.5688 Z-4.0000 I1.0137 J-4.9443 F500.00
G1 X9.5691 Y9.5688 Z-4.5000 F100.00
G2 X6.9849 Y1.0497 Z-4.5000 I-3.5689 J-3.5689 F500.00
G2 X4.9865 Y10.9442 Z-4.5000 I-0.9848 J4.9502 F500.00
G2 X9.5691 Y9.5688 Z-4.5000 I1.0137 J-4.9443 F500.00
G1 X9.5691 Y9.5688 Z-5.0000 F100.00
G2 X6.9849 Y1.0497 Z-5.0000 I-3.5689 J-3.5689 F500.00
G2 X4.9865 Y10.9442 Z-5.0000 I-0.9848 J4.9502 F500.00
G2 X9.5691 Y9.5688 Z-5.0000 I1.0137 J-4.9443 F500.00
G1 X9.5691 Y9.5688 Z-5.5000 F100.00
G2 X6.9849 Y1.0497 Z-5.5000 I-3.5689 J-3.5689 F500.00
G2 X4.9865 Y10.9442 Z-5.5000 I-0.9848 J4.9502 F500.00
G2 X9.5691 Y9.5688 Z-5.5000 I1.0137 J-4.9443 F500.00
G1 X9.5691 Y9.5688 Z-6.0000 F100.00
G2 X6.9849 Y1.0497 Z-6.0000 I-3.5689 J-3.5689 F500.00
G2 X4.9865 Y10.9442 Z-6.0000 I-0.9848 J4.9502 F500.00
G2 X9.5691 Y9.5688 Z-6.0000 I1.0137 J-4.9443 F500.00
G1 X9.5691 Y9.5688 Z-6.5000 F100.00
G2 X6.9849 Y1.0497 Z-6.5000 I-3.5689 J-3.5689 F500.00
G2 X4.9865 Y10.9442 Z-6.5000 I-0.9848 J4.9502 F500.00
G2 X9.5691 Y9.5688 Z-6.5000 I1.0137 J-4.9443 F500.00
G1 X9.5691 Y9.5688 Z-7.0000 F100.00
G2 X6.9849 Y1.0497 Z-7.0000 I-3.5689 J-3.5689 F500.00
G2 X4.9865 Y10.9442 Z-7.0000 I-0.9848 J4.9502 F500.00
G2 X9.5691 Y9.5688 Z-7.0000 I1.0137 J-4.9443 F500.00
G1 X9.5691 Y9.5688 Z-7.5000 F100.00
G2 X6.9849 Y1.0497 Z-7.5000 I-3.5689 J-3.5689 F500.00
G2 X4.9865 Y10.9442 Z-7.5000 I-0.9848 J4.9502 F500.00
G2 X9.5691 Y9.5688 Z-7.5000 I1.0137 J-4.9443 F500.00
G1 X9.5691 Y9.5688 Z-8.0000 F100.00
G2 X6.9849 Y1.0497 Z-8.0000 I-3.5689 J-3.5689 F500.00
G2 X4.9865 Y10.9442 Z-8.0000 I-0.9848 J4.9502 F500.00
G2 X9.5691 Y9.5688 Z-8.0000 I1.0137 J-4.9443 F500.00
G1 X9.5691 Y9.5688 Z-8.5000 F100.00
G2 X6.9849 Y1.0497 Z-8.5000 I-3.5689 J-3.5689 F500.00
G2 X4.9865 Y10.9442 Z-8.5000 I-0.9848 J4.9502 F500.00
G2 X9.5691 Y9.5688 Z-8.5000 I1.0137 J-4.9443 F500.00
G1 X9.5691 Y9.5688 Z-9.0000 F100.00
G2 X6.9849 Y1.0497 Z-9.0000 I-3.5689 J-3.5689 F500.00
G2 X4.9865 Y10.9442 Z-9.0000 I-0.9848 J4.9502 F500.00
G2 X9.5691 Y9.5688 Z-9.0000 I1.0137 J-4.9443 F500.00
G1 X9.5691 Y9.5688 Z-9.5000 F100.00
G2 X6.9849 Y1.0497 Z-9.5000 I-3.5689 J-3.5689 F500.00
G2 X4.9865 Y10.9442 Z-9.5000 I-0.9848 J4.9502 F500.00
G2 X9.5691 Y9.5688 Z-9.5000 I1.0137 J-4.9443 F500.00
G1 X9.5691 Y9.5688 Z-10.0000 F100.00
G2 X6.9849 Y1.0497 Z-10.0000 I-3.5689 J-3.5689 F500.00
G2 X4.9865 Y10.9442 Z-10.0000 I-0.9848 J4.9502 F500.00
G2 X9.5691 Y9.5688 Z-10.0000 I1.0137 J-4.9443 F500.00
G1 X9.5691 Y9.5688 Z-10.5000 F100.00
G2 X6.9849 Y1.0497 Z-10.5000 I-3.5689 J-3.5689 F500.00
G2 X4.9865 Y10.9442 Z-10.5000 I-0.9848 J4.9502 F500.00
G2 X9.5691 Y9.5688 Z-10.5000 I1.0137 J-4.9443 F500.00
G1 X9.5691 Y9.5688 Z-11.0000 F100.00
G2 X6.9849 Y1.0497 Z-11.0000 I-3.5689 J-3.5689 F500.00
G2 X4.9865 Y10.9442 Z-11.0000 I-0.9848 J4.9502 F500.00
G2 X9.5691 Y9.5688 Z-11.0000 I1.0137 J-4.9443 F500.00
G1 X9.5691 Y9.5688 Z-11.5000 F100.00
G2 X6.9849 Y1.0497 Z-11.5000 I-3.5689 J-3.5689 F500.00
G2 X4.9865 Y10.9442 Z-11.5000 I-0.9848 J4.9502 F500.00
G2 X9.5691 Y9.5688 Z-11.5000 I1.0137 J-4.9443 F500.00
G1 X9.5691 Y9.5688 Z-12.0000 F100.00
G2 X6.9849 Y1.0497 Z-12.0000 I-3.5689 J-3.5689 F500.00
G2 X4.9865 Y10.9442 Z-12.0000 I-0.9848 J4.9502 F500.00
G2 X9.5691 Y9.5688 Z-12.0000 I1.0137 J-4.9443 F500.00
G1 X9.5691 Y9.5688 Z-12.5000 F100.00
G2 X6.9849 Y1.0497 Z-12.5000 I-3.5689 J-3.5689 F500.00
G2 X4.9865 Y10.9442 Z-12.5000 I-0.9848 J4.9502 F500.00
G2 X9.5691 Y9.5688 Z-12.5000 I1.0137 J-4.9443 F500.00
G1 X9.5691 Y9.5688 Z-13.0000 F100.00
G2 X6.9849 Y1.0497 Z-13.0000 I-3.5689 J-3.5689 F500.00
G2 X4.9865 Y10.9442 Z-13.0000 I-0.9848 J4.9502 F500.00
G2 X9.5691 Y9.5688 Z-13.0000 I1.0137 J-4.9443 F500.00
G1 X9.5691 Y9.5688 Z-13.5000 F100.00
G2 X6.9849 Y1.0497 Z-13.5000 I-3.5689 J-3.5689 F500.00
G2 X4.9865 Y10.9442 Z-13.5000 I-0.9848 J4.9502 F500.00
G2 X9.5691 Y9.5688 Z-13.5000 I1.0137 J-4.9443 F500.00
G1 X9.5691 Y9.5688 Z-14.0000 F100.00
G2 X6.9849 Y1.0497 Z-14.0000 I-3.5689 J-3.5689 F500.00
G2 X4.9865 Y10.9442 Z-14.0000 I-0.9848 J4.9502 F500.00
G2 X9.5691 Y9.5688 Z-14.0000 I1.0137 J-4.9443 F500.00
G1 X9.5691 Y9.5688 Z-14.5000 F100.00
G2 X6.9849 Y1.0497 Z-14.5000 I-3.5689 J-3.5689 F500.00
G2 X4.9865 Y10.9442 Z-14.5000 I-0.9848 J4.9502 F500.00
G2 X9.5691 Y9.5688 Z-14.5000 I1.0137 J-4.9443 F500.00
G1 X9.5691 Y9.5688 Z-15.0000 F100.00
G2 X6.9849 Y1.0497 Z-15.0000 I-3.5689 J-3.5689 F500.00
G2 X4.9865 Y10.9442 Z-15.0000 I-0.9848 J4.9502 F500.00
G2 X9.5691 Y9.5688 Z-15.0000 I1.0137 J-4.9443 F500.00
G1 X9.5691 Y9.5688 Z-15.5000 F100.00
G2 X6.9849 Y1.0497 Z-15.5000 I-3.5689 J-3.5689 F500.00
G2 X4.9865 Y10.9442 Z-15.5000 I-0.9848 J4.9502 F500.00
G2 X9.5691 Y9.5688 Z-15.5000 I1.0137 J-4.9443 F500.00
G1 X9.5691 Y9.5688 Z-16.0000 F100.00
G2 X6.9849 Y1.0497 Z-16.0000 I-3.5689 J-3.5689 F500.00
G2 X4.9865 Y10.9442 Z-16.0000 I-0.9848 J4.9502 F500.00
G2 X9.5691 Y9.5688 Z-16.0000 I1.0137 J-4.9443 F500.00
G1 X9.5691 Y9.5688 Z-16.5000 F100.00
G2 X6.9849 Y1.0497 Z-16.5000 I-3.5689 J-3.5689 F500.00
G2 X4.9865 Y10.9442 Z-16.5000 I-0.9848 J4.9502 F500.00
G2 X9.5691 Y9.5688 Z-16.5000 I1.0137 J-4.9443 F500.00
G1 X9.5691 Y9.5688 Z-17.0000 F100.00
G2 X6.9849 Y1.0497 Z-17.0000 I-3.5689 J-3.5689 F500.00
G2 X4.9865 Y10.9442 Z-17.0000 I-0.9848 J4.9502 F500.00
G2 X9.5691 Y9.5688 Z-17.0000 I1.0137 J-4.9443 F500.00
G0 Z5.0000
(finish operation: Profile_Faces003)
(begin operation: TagDressup002)
(Path: TagDressup002)
G0 Z5.0000
G0 X12.0607 Y12.0607 Z5.0000
G0 X12.0607 Y12.0607 Z3.0000
G1 X12.0607 Y12.0607 Z0.0000 F100.00
G2 X12.5000 Y11.0000 Z-0.0000 I-1.0607 J-1.0607 F500.00
G1 X12.5000 Y7.5000 Z-0.0000 F500.00
G2 X11.0847 Y6.0000 Z0.0000 I-1.5045 J0.0019 F500.00
G2 X12.5000 Y4.5000 Z0.0000 I-0.0899 J-1.5025 F500.00
G1 X12.5000 Y1.0000 Z0.0000 F500.00
G2 X11.0000 Y-0.5000 Z0.0000 I-1.5000 J0.0000 F500.00
G1 X1.0000 Y-0.5000 Z0.0000 F500.00
G2 X-0.5000 Y1.0000 Z0.0000 I0.0000 J1.5000 F500.00
G1 X-0.5000 Y11.0000 Z-0.0000 F500.00
G2 X1.0000 Y12.5000 Z-0.0000 I1.5000 J-0.0000 F500.00
G1 X11.0000 Y12.5000 Z-0.0000 F500.00
G2 X12.0607 Y12.0607 Z-0.0000 I-0.0000 J-1.5000 F500.00
G1 X12.0607 Y12.0607 Z-0.5000 F100.00
G2 X12.5000 Y11.0000 Z-0.5000 I-1.0607 J-1.0607 F500.00
G1 X12.5000 Y7.5000 Z-0.5000 F500.00
G2 X11.0847 Y6.0000 Z-0.5000 I-1.5045 J0.0019 F500.00
G2 X12.5000 Y4.5000 Z-0.5000 I-0.0899 J-1.5025 F500.00
G1 X12.5000 Y1.0000 Z-0.5000 F500.00
G2 X11.0000 Y-0.5000 Z-0.5000 I-1.5000 J0.0000 F500.00
G1 X1.0000 Y-0.5000 Z-0.5000 F500.00
G2 X-0.5000 Y1.0000 Z-0.5000 I0.0000 J1.5000 F500.00
G1 X-0.5000 Y11.0000 Z-0.5000 F500.00
G2 X1.0000 Y12.5000 Z-0.5000 I1.5000 J-0.0000 F500.00
G1 X11.0000 Y12.5000 Z-0.5000 F500.00
G2 X12.0607 Y12.0607 Z-0.5000 I-0.0000 J-1.5000 F500.00
G1 X12.0607 Y12.0607 Z-1.0000 F100.00
G2 X12.5000 Y11.0000 Z-1.0000 I-1.0607 J-1.0607 F500.00
G1 X12.5000 Y7.5000 Z-1.0000 F500.00
G2 X11.0847 Y6.0000 Z-1.0000 I-1.5045 J0.0019 F500.00
G2 X12.5000 Y4.5000 Z-1.0000 I-0.0899 J-1.5025 F500.00
G1 X12.5000 Y1.0000 Z-1.0000 F500.00
G2 X11.0000 Y-0.5000 Z-1.0000 I-1.5000 J0.0000 F500.00
G1 X1.0000 Y-0.5000 Z-1.0000 F500.00
G2 X-0.5000 Y1.0000 Z-1.0000 I0.0000 J1.5000 F500.00
G1 X-0.5000 Y11.0000 Z-1.0000 F500.00
G2 X1.0000 Y12.5000 Z-1.0000 I1.5000 J-0.0000 F500.00
G1 X11.0000 Y12.5000 Z-1.0000 F500.00
G2 X12.0607 Y12.0607 Z-1.0000 I-0.0000 J-1.5000 F500.00
G1 X12.0607 Y12.0607 Z-1.5000 F100.00
G2 X12.5000 Y11.0000 Z-1.5000 I-1.0607 J-1.0607 F500.00
G1 X12.5000 Y7.5000 Z-1.5000 F500.00
G2 X11.0847 Y6.0000 Z-1.5000 I-1.5045 J0.0019 F500.00
G2 X12.5000 Y4.5000 Z-1.5000 I-0.0899 J-1.5025 F500.00
G1 X12.5000 Y1.0000 Z-1.5000 F500.00
G2 X11.0000 Y-0.5000 Z-1.5000 I-1.5000 J0.0000 F500.00
G1 X1.0000 Y-0.5000 Z-1.5000 F500.00
G2 X-0.5000 Y1.0000 Z-1.5000 I0.0000 J1.5000 F500.00
G1 X-0.5000 Y11.0000 Z-1.5000 F500.00
G2 X1.0000 Y12.5000 Z-1.5000 I1.5000 J-0.0000 F500.00
G1 X11.0000 Y12.5000 Z-1.5000 F500.00
G2 X12.0607 Y12.0607 Z-1.5000 I-0.0000 J-1.5000 F500.00
G1 X12.0607 Y12.0607 Z-2.0000 F100.00
G2 X12.5000 Y11.0000 Z-2.0000 I-1.0607 J-1.0607 F500.00
G1 X12.5000 Y7.5000 Z-2.0000 F500.00
G2 X11.0847 Y6.0000 Z-2.0000 I-1.5045 J0.0019 F500.00
G2 X12.5000 Y4.5000 Z-2.0000 I-0.0899 J-1.5025 F500.00
G1 X12.5000 Y1.0000 Z-2.0000 F500.00
G2 X11.0000 Y-0.5000 Z-2.0000 I-1.5000 J0.0000 F500.00
G1 X1.0000 Y-0.5000 Z-2.0000 F500.00
G2 X-0.5000 Y1.0000 Z-2.0000 I0.0000 J1.5000 F500.00
G1 X-0.5000 Y11.0000 Z-2.0000 F500.00
G2 X1.0000 Y12.5000 Z-2.0000 I1.5000 J-0.0000 F500.00
G1 X11.0000 Y12.5000 Z-2.0000 F500.00
G2 X12.0607 Y12.0607 Z-2.0000 I-0.0000 J-1.5000 F500.00
G1 X12.0607 Y12.0607 Z-2.5000 F100.00
G2 X12.5000 Y11.0000 Z-2.5000 I-1.0607 J-1.0607 F500.00
G1 X12.5000 Y7.5000 Z-2.5000 F500.00
G2 X11.0847 Y6.0000 Z-2.5000 I-1.5045 J0.0019 F500.00
G2 X12.5000 Y4.5000 Z-2.5000 I-0.0899 J-1.5025 F500.00
G1 X12.5000 Y1.0000 Z-2.5000 F500.00
G2 X11.0000 Y-0.5000 Z-2.5000 I-1.5000 J0.0000 F500.00
G1 X1.0000 Y-0.5000 Z-2.5000 F500.00
G2 X-0.5000 Y1.0000 Z-2.5000 I0.0000 J1.5000 F500.00
G1 X-0.5000 Y11.0000 Z-2.5000 F500.00
G2 X1.0000 Y12.5000 Z-2.5000 I1.5000 J-0.0000 F500.00
G1 X11.0000 Y12.5000 Z-2.5000 F500.00
G2 X12.0607 Y12.0607 Z-2.5000 I-0.0000 J-1.5000 F500.00
G1 X12.0607 Y12.0607 Z-3.0000 F100.00
G2 X12.5000 Y11.0000 Z-3.0000 I-1.0607 J-1.0607 F500.00
G1 X12.5000 Y7.5000 Z-3.0000 F500.00
G2 X11.0847 Y6.0000 Z-3.0000 I-1.5045 J0.0019 F500.00
G2 X12.5000 Y4.5000 Z-3.0000 I-0.0899 J-1.5025 F500.00
G1 X12.5000 Y1.0000 Z-3.0000 F500.00
G2 X11.0000 Y-0.5000 Z-3.0000 I-1.5000 J0.0000 F500.00
G1 X1.0000 Y-0.5000 Z-3.0000 F500.00
G2 X-0.5000 Y1.0000 Z-3.0000 I0.0000 J1.5000 F500.00
G1 X-0.5000 Y11.0000 Z-3.0000 F500.00
G2 X1.0000 Y12.5000 Z-3.0000 I1.5000 J-0.0000 F500.00
G1 X11.0000 Y12.5000 Z-3.0000 F500.00
G2 X12.0607 Y12.0607 Z-3.0000 I-0.0000 J-1.5000 F500.00
G1 X12.0607 Y12.0607 Z-3.5000 F100.00
G2 X12.5000 Y11.0000 Z-3.5000 I-1.0607 J-1.0607 F500.00
G1 X12.5000 Y7.5000 Z-3.5000 F500.00
G2 X11.0847 Y6.0000 Z-3.5000 I-1.5045 J0.0019 F500.00
G2 X12.5000 Y4.5000 Z-3.5000 I-0.0899 J-1.5025 F500.00
G1 X12.5000 Y1.0000 Z-3.5000 F500.00
G2 X11.0000 Y-0.5000 Z-3.5000 I-1.5000 J0.0000 F500.00
G1 X1.0000 Y-0.5000 Z-3.5000 F500.00
G2 X-0.5000 Y1.0000 Z-3.5000 I0.0000 J1.5000 F500.00
G1 X-0.5000 Y11.0000 Z-3.5000 F500.00
G2 X1.0000 Y12.5000 Z-3.5000 I1.5000 J-0.0000 F500.00
G1 X11.0000 Y12.5000 Z-3.5000 F500.00
G2 X12.0607 Y12.0607 Z-3.5000 I-0.0000 J-1.5000 F500.00
G1 X12.0607 Y12.0607 Z-4.0000 F100.00
G2 X12.5000 Y11.0000 Z-4.0000 I-1.0607 J-1.0607 F500.00
G1 X12.5000 Y7.5000 Z-4.0000 F500.00
G2 X11.0847 Y6.0000 Z-4.0000 I-1.5045 J0.0019 F500.00
G2 X12.5000 Y4.5000 Z-4.0000 I-0.0899 J-1.5025 F500.00
G1 X12.5000 Y1.0000 Z-4.0000 F500.00
G2 X11.0000 Y-0.5000 Z-4.0000 I-1.5000 J0.0000 F500.00
G1 X1.0000 Y-0.5000 Z-4.0000 F500.00
G2 X-0.5000 Y1.0000 Z-4.0000 I0.0000 J1.5000 F500.00
G1 X-0.5000 Y11.0000 Z-4.0000 F500.00
G2 X1.0000 Y12.5000 Z-4.0000 I1.5000 J-0.0000 F500.00
G1 X11.0000 Y12.5000 Z-4.0000 F500.00
G2 X12.0607 Y12.0607 Z-4.0000 I-0.0000 J-1.5000 F500.00
G1 X12.0607 Y12.0607 Z-4.5000 F100.00
G2 X12.5000 Y11.0000 Z-4.5000 I-1.0607 J-1.0607 F500.00
G1 X12.5000 Y7.5000 Z-4.5000 F500.00
G2 X11.0847 Y6.0000 Z-4.5000 I-1.5045 J0.0019 F500.00
G2 X12.5000 Y4.5000 Z-4.5000 I-0.0899 J-1.5025 F500.00
G1 X12.5000 Y1.0000 Z-4.5000 F500.00
G2 X11.0000 Y-0.5000 Z-4.5000 I-1.5000 J0.0000 F500.00
G1 X1.0000 Y-0.5000 Z-4.5000 F500.00
G2 X-0.5000 Y1.0000 Z-4.5000 I0.0000 J1.5000 F500.00
G1 X-0.5000 Y11.0000 Z-4.5000 F500.00
G2 X1.0000 Y12.5000 Z-4.5000 I1.5000 J-0.0000 F500.00
G1 X11.0000 Y12.5000 Z-4.5000 F500.00
G2 X12.0607 Y12.0607 Z-4.5000 I-0.0000 J-1.5000 F500.00
G1 X12.0607 Y12.0607 Z-5.0000 F100.00
G2 X12.5000 Y11.0000 Z-5.0000 I-1.0607 J-1.0607 F500.00
G1 X12.5000 Y7.5000 Z-5.0000 F500.00
G2 X11.0847 Y6.0000 Z-5.0000 I-1.5045 J0.0019 F500.00
G2 X12.5000 Y4.5000 Z-5.0000 I-0.0899 J-1.5025 F500.00
G1 X12.5000 Y1.0000 Z-5.0000 F500.00
G2 X11.0000 Y-0.5000 Z-5.0000 I-1.5000 J0.0000 F500.00
G1 X1.0000 Y-0.5000 Z-5.0000 F500.00
G2 X-0.5000 Y1.0000 Z-5.0000 I0.0000 J1.5000 F500.00
G1 X-0.5000 Y11.0000 Z-5.0000 F500.00
G2 X1.0000 Y12.5000 Z-5.0000 I1.5000 J-0.0000 F500.00
G1 X11.0000 Y12.5000 Z-5.0000 F500.00
G2 X12.0607 Y12.0607 Z-5.0000 I-0.0000 J-1.5000 F500.00
G1 X12.0607 Y12.0607 Z-5.5000 F100.00
G2 X12.5000 Y11.0000 Z-5.5000 I-1.0607 J-1.0607 F500.00
G1 X12.5000 Y7.5000 Z-5.5000 F500.00
G2 X11.0847 Y6.0000 Z-5.5000 I-1.5045 J0.0019 F500.00
G2 X12.5000 Y4.5000 Z-5.5000 I-0.0899 J-1.5025 F500.00
G1 X12.5000 Y1.0000 Z-5.5000 F500.00
G2 X11.0000 Y-0.5000 Z-5.5000 I-1.5000 J0.0000 F500.00
G1 X1.0000 Y-0.5000 Z-5.5000 F500.00
G2 X-0.5000 Y1.0000 Z-5.5000 I0.0000 J1.5000 F500.00
G1 X-0.5000 Y11.0000 Z-5.5000 F500.00
G2 X1.0000 Y12.5000 Z-5.5000 I1.5000 J-0.0000 F500.00
G1 X11.0000 Y12.5000 Z-5.5000 F500.00
G2 X12.0607 Y12.0607 Z-5.5000 I-0.0000 J-1.5000 F500.00
G1 X12.0607 Y12.0607 Z-6.0000 F100.00
G2 X12.5000 Y11.0000 Z-6.0000 I-1.0607 J-1.0607 F500.00
G1 X12.5000 Y7.5000 Z-6.0000 F500.00
G2 X11.0847 Y6.0000 Z-6.0000 I-1.5045 J0.0019 F500.00
G2 X12.5000 Y4.5000 Z-6.0000 I-0.0899 J-1.5025 F500.00
G1 X12.5000 Y1.0000 Z-6.0000 F500.00
G2 X11.0000 Y-0.5000 Z-6.0000 I-1.5000 J0.0000 F500.00
G1 X1.0000 Y-0.5000 Z-6.0000 F500.00
G2 X-0.5000 Y1.0000 Z-6.0000 I0.0000 J1.5000 F500.00
G1 X-0.5000 Y11.0000 Z-6.0000 F500.00
G2 X1.0000 Y12.5000 Z-6.0000 I1.5000 J-0.0000 F500.00
G1 X11.0000 Y12.5000 Z-6.0000 F500.00
G2 X12.0607 Y12.0607 Z-6.0000 I-0.0000 J-1.5000 F500.00
G1 X12.0607 Y12.0607 Z-6.5000 F100.00
G2 X12.5000 Y11.0000 Z-6.5000 I-1.0607 J-1.0607 F500.00
G1 X12.5000 Y7.5000 Z-6.5000 F500.00
G2 X11.0847 Y6.0000 Z-6.5000 I-1.5045 J0.0019 F500.00
G2 X12.5000 Y4.5000 Z-6.5000 I-0.0899 J-1.5025 F500.00
G1 X12.5000 Y1.0000 Z-6.5000 F500.00
G2 X11.0000 Y-0.5000 Z-6.5000 I-1.5000 J0.0000 F500.00
G1 X1.0000 Y-0.5000 Z-6.5000 F500.00
G2 X-0.5000 Y1.0000 Z-6.5000 I0.0000 J1.5000 F500.00
G1 X-0.5000 Y11.0000 Z-6.5000 F500.00
G2 X1.0000 Y12.5000 Z-6.5000 I1.5000 J-0.0000 F500.00
G1 X11.0000 Y12.5000 Z-6.5000 F500.00
G2 X12.0607 Y12.0607 Z-6.5000 I-0.0000 J-1.5000 F500.00
G1 X12.0607 Y12.0607 Z-7.0000 F100.00
G2 X12.5000 Y11.0000 Z-7.0000 I-1.0607 J-1.0607 F500.00
G1 X12.5000 Y7.5000 Z-7.0000 F500.00
G2 X11.0847 Y6.0000 Z-7.0000 I-1.5045 J0.0019 F500.00
G2 X12.5000 Y4.5000 Z-7.0000 I-0.0899 J-1.5025 F500.00
G1 X12.5000 Y1.0000 Z-7.0000 F500.00
G2 X11.0000 Y-0.5000 Z-7.0000 I-1.5000 J0.0000 F500.00
G1 X1.0000 Y-0.5000 Z-7.0000 F500.00
G2 X-0.5000 Y1.0000 Z-7.0000 I0.0000 J1.5000 F500.00
G1 X-0.5000 Y11.0000 Z-7.0000 F500.00
G2 X1.0000 Y12.5000 Z-7.0000 I1.5000 J-0.0000 F500.00
G1 X11.0000 Y12.5000 Z-7.0000 F500.00
G2 X12.0607 Y12.0607 Z-7.0000 I-0.0000 J-1.5000 F500.00
G1 X12.0607 Y12.0607 Z-7.5000 F100.00
G2 X12.5000 Y11.0000 Z-7.5000 I-1.0607 J-1.0607 F500.00
G1 X12.5000 Y7.5000 Z-7.5000 F500.00
G2 X11.0847 Y6.0000 Z-7.5000 I-1.5045 J0.0019 F500.00
G2 X12.5000 Y4.5000 Z-7.5000 I-0.0899 J-1.5025 F500.00
G1 X12.5000 Y1.0000 Z-7.5000 F500.00
G2 X11.0000 Y-0.5000 Z-7.5000 I-1.5000 J0.0000 F500.00
G1 X1.0000 Y-0.5000 Z-7.5000 F500.00
G2 X-0.5000 Y1.0000 Z-7.5000 I0.0000 J1.5000 F500.00
G1 X-0.5000 Y11.0000 Z-7.5000 F500.00
G2 X1.0000 Y12.5000 Z-7.5000 I1.5000 J-0.0000 F500.00
G1 X11.0000 Y12.5000 Z-7.5000 F500.00
G2 X12.0607 Y12.0607 Z-7.5000 I-0.0000 J-1.5000 F500.00
G1 X12.0607 Y12.0607 Z-8.0000 F100.00
G2 X12.5000 Y11.0000 Z-8.0000 I-1.0607 J-1.0607 F500.00
G1 X12.5000 Y7.5000 Z-8.0000 F500.00
G2 X11.0847 Y6.0000 Z-8.0000 I-1.5045 J0.0019 F500.00
G2 X12.5000 Y4.5000 Z-8.0000 I-0.0899 J-1.5025 F500.00
G1 X12.5000 Y1.0000 Z-8.0000 F500.00
G2 X11.0000 Y-0.5000 Z-8.0000 I-1.5000 J0.0000 F500.00
G1 X1.0000 Y-0.5000 Z-8.0000 F500.00
G2 X-0.5000 Y1.0000 Z-8.0000 I0.0000 J1.5000 F500.00
G1 X-0.5000 Y11.0000 Z-8.0000 F500.00
G2 X1.0000 Y12.5000 Z-8.0000 I1.5000 J-0.0000 F500.00
G1 X11.0000 Y12.5000 Z-8.0000 F500.00
G2 X12.0607 Y12.0607 Z-8.0000 I-0.0000 J-1.5000 F500.00
G1 X12.0607 Y12.0607 Z-8.5000 F100.00
G2 X12.5000 Y11.0000 Z-8.5000 I-1.0607 J-1.0607 F500.00
G1 X12.5000 Y7.5000 Z-8.5000 F500.00
G2 X11.0847 Y6.0000 Z-8.5000 I-1.5045 J0.0019 F500.00
G2 X12.5000 Y4.5000 Z-8.5000 I-0.0899 J-1.5025 F500.00
G1 X12.5000 Y1.0000 Z-8.5000 F500.00
G2 X11.0000 Y-0.5000 Z-8.5000 I-1.5000 J0.0000 F500.00
G1 X1.0000 Y-0.5000 Z-8.5000 F500.00
G2 X-0.5000 Y1.0000 Z-8.5000 I0.0000 J1.5000 F500.00
G1 X-0.5000 Y11.0000 Z-8.5000 F500.00
G2 X1.0000 Y12.5000 Z-8.5000 I1.5000 J-0.0000 F500.00
G1 X11.0000 Y12.5000 Z-8.5000 F500.00
G2 X12.0607 Y12.0607 Z-8.5000 I-0.0000 J-1.5000 F500.00
G1 X12.0607 Y12.0607 Z-9.0000 F100.00
G2 X12.5000 Y11.0000 Z-9.0000 I-1.0607 J-1.0607 F500.00
G1 X12.5000 Y7.5000 Z-9.0000 F500.00
G2 X11.0847 Y6.0000 Z-9.0000 I-1.5045 J0.0019 F500.00
G2 X12.5000 Y4.5000 Z-9.0000 I-0.0899 J-1.5025 F500.00
G1 X12.5000 Y1.0000 Z-9.0000 F500.00
G2 X11.0000 Y-0.5000 Z-9.0000 I-1.5000 J0.0000 F500.00
G1 X1.0000 Y-0.5000 Z-9.0000 F500.00
G2 X-0.5000 Y1.0000 Z-9.0000 I0.0000 J1.5000 F500.00
G1 X-0.5000 Y11.0000 Z-9.0000 F500.00
G2 X1.0000 Y12.5000 Z-9.0000 I1.5000 J-0.0000 F500.00
G1 X11.0000 Y12.5000 Z-9.0000 F500.00
G2 X12.0607 Y12.0607 Z-9.0000 I-0.0000 J-1.5000 F500.00
G1 X12.0607 Y12.0607 Z-9.5000 F100.00
G2 X12.5000 Y11.0000 Z-9.5000 I-1.0607 J-1.0607 F500.00
G1 X12.5000 Y7.5000 Z-9.5000 F500.00
G2 X11.0847 Y6.0000 Z-9.5000 I-1.5045 J0.0019 F500.00
G2 X12.5000 Y4.5000 Z-9.5000 I-0.0899 J-1.5025 F500.00
G1 X12.5000 Y1.0000 Z-9.5000 F500.00
G2 X11.0000 Y-0.5000 Z-9.5000 I-1.5000 J0.0000 F500.00
G1 X1.0000 Y-0.5000 Z-9.5000 F500.00
G2 X-0.5000 Y1.0000 Z-9.5000 I0.0000 J1.5000 F500.00
G1 X-0.5000 Y11.0000 Z-9.5000 F500.00
G2 X1.0000 Y12.5000 Z-9.5000 I1.5000 J-0.0000 F500.00
G1 X11.0000 Y12.5000 Z-9.5000 F500.00
G2 X12.0607 Y12.0607 Z-9.5000 I-0.0000 J-1.5000 F500.00
G1 X12.0607 Y12.0607 Z-10.0000 F100.00
G2 X12.5000 Y11.0000 Z-10.0000 I-1.0607 J-1.0607 F500.00
G1 X12.5000 Y7.5000 Z-10.0000 F500.00
G2 X11.0847 Y6.0000 Z-10.0000 I-1.5045 J0.0019 F500.00
G2 X12.5000 Y4.5000 Z-10.0000 I-0.0899 J-1.5025 F500.00
G1 X12.5000 Y1.0000 Z-10.0000 F500.00
G2 X11.0000 Y-0.5000 Z-10.0000 I-1.5000 J0.0000 F500.00
G1 X1.0000 Y-0.5000 Z-10.0000 F500.00
G2 X-0.5000 Y1.0000 Z-10.0000 I0.0000 J1.5000 F500.00
G1 X-0.5000 Y11.0000 Z-10.0000 F500.00
G2 X1.0000 Y12.5000 Z-10.0000 I1.5000 J-0.0000 F500.00
G1 X11.0000 Y12.5000 Z-10.0000 F500.00
G2 X12.0607 Y12.0607 Z-10.0000 I-0.0000 J-1.5000 F500.00
G1 X12.0607 Y12.0607 Z-10.5000 F100.00
G2 X12.5000 Y11.0000 Z-10.5000 I-1.0607 J-1.0607 F500.00
G1 X12.5000 Y7.5000 Z-10.5000 F500.00
G2 X11.0847 Y6.0000 Z-10.5000 I-1.5045 J0.0019 F500.00
G2 X12.5000 Y4.5000 Z-10.5000 I-0.0899 J-1.5025 F500.00
G1 X12.5000 Y1.0000 Z-10.5000 F500.00
G2 X11.0000 Y-0.5000 Z-10.5000 I-1.5000 J0.0000 F500.00
G1 X1.0000 Y-0.5000 Z-10.5000 F500.00
G2 X-0.5000 Y1.0000 Z-10.5000 I0.0000 J1.5000 F500.00
G1 X-0.5000 Y11.0000 Z-10.5000 F500.00
G2 X1.0000 Y12.5000 Z-10.5000 I1.5000 J-0.0000 F500.00
G1 X11.0000 Y12.5000 Z-10.5000 F500.00
G2 X12.0607 Y12.0607 Z-10.5000 I-0.0000 J-1.5000 F500.00
G1 X12.0607 Y12.0607 Z-11.0000 F100.00
G2 X12.5000 Y11.0000 Z-11.0000 I-1.0607 J-1.0607 F500.00
G1 X12.5000 Y7.5000 Z-11.0000 F500.00
G2 X11.0847 Y6.0000 Z-11.0000 I-1.5045 J0.0019 F500.00
G2 X12.5000 Y4.5000 Z-11.0000 I-0.0899 J-1.5025 F500.00
G1 X12.5000 Y1.0000 Z-11.0000 F500.00
G2 X11.0000 Y-0.5000 Z-11.0000 I-1.5000 J0.0000 F500.00
G1 X1.0000 Y-0.5000 Z-11.0000 F500.00
G2 X-0.5000 Y1.0000 Z-11.0000 I0.0000 J1.5000 F500.00
G1 X-0.5000 Y11.0000 Z-11.0000 F500.00
G2 X1.0000 Y12.5000 Z-11.0000 I1.5000 J-0.0000 F500.00
G1 X11.0000 Y12.5000 Z-11.0000 F500.00
G2 X12.0607 Y12.0607 Z-11.0000 I-0.0000 J-1.5000 F500.00
G1 X12.0607 Y12.0607 Z-11.5000 F100.00
G2 X12.5000 Y11.0000 Z-11.5000 I-1.0607 J-1.0607 F500.00
G1 X12.5000 Y7.5000 Z-11.5000 F500.00
G2 X11.0847 Y6.0000 Z-11.5000 I-1.5045 J0.0019 F500.00
G2 X12.5000 Y4.5000 Z-11.5000 I-0.0899 J-1.5025 F500.00
G1 X12.5000 Y1.0000 Z-11.5000 F500.00
G2 X11.0000 Y-0.5000 Z-11.5000 I-1.5000 J0.0000 F500.00
G1 X1.0000 Y-0.5000 Z-11.5000 F500.00
G2 X-0.5000 Y1.0000 Z-11.5000 I0.0000 J1.5000 F500.00
G1 X-0.5000 Y11.0000 Z-11.5000 F500.00
G2 X1.0000 Y12.5000 Z-11.5000 I1.5000 J-0.0000 F500.00
G1 X11.0000 Y12.5000 Z-11.5000 F500.00
G2 X12.0607 Y12.0607 Z-11.5000 I-0.0000 J-1.5000 F500.00
G1 X12.0607 Y12.0607 Z-12.0000 F100.00
G2 X12.5000 Y11.0000 Z-12.0000 I-1.0607 J-1.0607 F500.00
G1 X12.5000 Y7.5000 Z-12.0000 F500.00
G2 X11.0847 Y6.0000 Z-12.0000 I-1.5045 J0.0019 F500.00
G2 X12.5000 Y4.5000 Z-12.0000 I-0.0899 J-1.5025 F500.00
G1 X12.5000 Y1.0000 Z-12.0000 F500.00
G2 X11.0000 Y-0.5000 Z-12.0000 I-1.5000 J0.0000 F500.00
G1 X1.0000 Y-0.5000 Z-12.0000 F500.00
G2 X-0.5000 Y1.0000 Z-12.0000 I0.0000 J1.5000 F500.00
G1 X-0.5000 Y11.0000 Z-12.0000 F500.00
G2 X1.0000 Y12.5000 Z-12.0000 I1.5000 J-0.0000 F500.00
G1 X11.0000 Y12.5000 Z-12.0000 F500.00
G2 X12.0607 Y12.0607 Z-12.0000 I-0.0000 J-1.5000 F500.00
G1 X12.0607 Y12.0607 Z-12.5000 F100.00
G2 X12.5000 Y11.0000 Z-12.5000 I-1.0607 J-1.0607 F500.00
G1 X12.5000 Y7.5000 Z-12.5000 F500.00
G2 X11.0847 Y6.0000 Z-12.5000 I-1.5045 J0.0019 F500.00
G2 X12.5000 Y4.5000 Z-12.5000 I-0.0899 J-1.5025 F500.00
G1 X12.5000 Y1.0000 Z-12.5000 F500.00
G2 X11.0000 Y-0.5000 Z-12.5000 I-1.5000 J0.0000 F500.00
G1 X1.0000 Y-0.5000 Z-12.5000 F500.00
G2 X-0.5000 Y1.0000 Z-12.5000 I0.0000 J1.5000 F500.00
G1 X-0.5000 Y11.0000 Z-12.5000 F500.00
G2 X1.0000 Y12.5000 Z-12.5000 I1.5000 J-0.0000 F500.00
G1 X11.0000 Y12.5000 Z-12.5000 F500.00
G2 X12.0607 Y12.0607 Z-12.5000 I-0.0000 J-1.5000 F500.00
G1 X12.0607 Y12.0607 Z-13.0000 F100.00
G2 X12.5000 Y11.0000 Z-13.0000 I-1.0607 J-1.0607 F500.00
G1 X12.5000 Y7.5000 Z-13.0000 F500.00
G2 X11.0847 Y6.0000 Z-13.0000 I-1.5045 J0.0019 F500.00
G2 X12.5000 Y4.5000 Z-13.0000 I-0.0899 J-1.5025 F500.00
G1 X12.5000 Y1.0000 Z-13.0000 F500.00
G2 X11.0000 Y-0.5000 Z-13.0000 I-1.5000 J0.0000 F500.00
G1 X1.0000 Y-0.5000 Z-13.0000 F500.00
G2 X-0.5000 Y1.0000 Z-13.0000 I0.0000 J1.5000 F500.00
G1 X-0.5000 Y11.0000 Z-13.0000 F500.00
G2 X1.0000 Y12.5000 Z-13.0000 I1.5000 J-0.0000 F500.00
G1 X11.0000 Y12.5000 Z-13.0000 F500.00
G2 X12.0607 Y12.0607 Z-13.0000 I-0.0000 J-1.5000 F500.00
G1 X12.0607 Y12.0607 Z-13.5000 F100.00
G2 X12.5000 Y11.0000 Z-13.5000 I-1.0607 J-1.0607 F500.00
G1 X12.5000 Y7.5000 Z-13.5000 F500.00
G2 X11.0847 Y6.0000 Z-13.5000 I-1.5045 J0.0019 F500.00
G2 X12.5000 Y4.5000 Z-13.5000 I-0.0899 J-1.5025 F500.00
G1 X12.5000 Y1.0000 Z-13.5000 F500.00
G2 X11.0000 Y-0.5000 Z-13.5000 I-1.5000 J0.0000 F500.00
G1 X1.0000 Y-0.5000 Z-13.5000 F500.00
G2 X-0.5000 Y1.0000 Z-13.5000 I0.0000 J1.5000 F500.00
G1 X-0.5000 Y11.0000 Z-13.5000 F500.00
G2 X1.0000 Y12.5000 Z-13.5000 I1.5000 J-0.0000 F500.00
G1 X11.0000 Y12.5000 Z-13.5000 F500.00
G2 X12.0607 Y12.0607 Z-13.5000 I-0.0000 J-1.5000 F500.00
G1 X12.0607 Y12.0607 Z-14.0000 F100.00
G2 X12.5000 Y11.0000 Z-14.0000 I-1.0607 J-1.0607 F500.00
G1 X12.5000 Y7.5000 Z-14.0000 F500.00
G2 X11.0847 Y6.0000 Z-14.0000 I-1.5045 J0.0019 F500.00
G2 X12.5000 Y4.5000 Z-14.0000 I-0.0899 J-1.5025 F500.00
G1 X12.5000 Y1.0000 Z-14.0000 F500.00
G2 X11.0000 Y-0.5000 Z-14.0000 I-1.5000 J0.0000 F500.00
G1 X1.0000 Y-0.5000 Z-14.0000 F500.00
G2 X-0.5000 Y1.0000 Z-14.0000 I0.0000 J1.5000 F500.00
G1 X-0.5000 Y11.0000 Z-14.0000 F500.00
G2 X1.0000 Y12.5000 Z-14.0000 I1.5000 J-0.0000 F500.00
G1 X11.0000 Y12.5000 Z-14.0000 F500.00
G2 X12.0607 Y12.0607 Z-14.0000 I-0.0000 J-1.5000 F500.00
G1 X12.0607 Y12.0607 Z-14.5000 F100.00
G2 X12.5000 Y11.0000 Z-14.5000 I-1.0607 J-1.0607 F500.00
G1 X12.5000 Y7.5000 Z-14.5000 F500.00
G2 X11.0847 Y6.0000 Z-14.5000 I-1.5045 J0.0019 F500.00
G2 X12.5000 Y4.5000 Z-14.5000 I-0.0899 J-1.5025 F500.00
G1 X12.5000 Y1.0000 Z-14.5000 F500.00
G2 X11.0000 Y-0.5000 Z-14.5000 I-1.5000 J0.0000 F500.00
G1 X1.0000 Y-0.5000 Z-14.5000 F500.00
G2 X-0.5000 Y1.0000 Z-14.5000 I0.0000 J1.5000 F500.00
G1 X-0.5000 Y11.0000 Z-14.5000 F500.00
G2 X1.0000 Y12.5000 Z-14.5000 I1.5000 J-0.0000 F500.00
G1 X11.0000 Y12.5000 Z-14.5000 F500.00
G2 X12.0607 Y12.0607 Z-14.5000 I-0.0000 J-1.5000 F500.00
G1 X12.0607 Y12.0607 Z-15.0000 F100.00
G2 X12.5000 Y11.0000 Z-15.0000 I-1.0607 J-1.0607 F500.00
G1 X12.5000 Y7.5000 Z-15.0000 F500.00
G2 X11.0847 Y6.0000 Z-15.0000 I-1.5045 J0.0019 F500.00
G2 X12.5000 Y4.5000 Z-15.0000 I-0.0899 J-1.5025 F500.00
G1 X12.5000 Y1.0000 Z-15.0000 F500.00
G2 X11.0000 Y-0.5000 Z-15.0000 I-1.5000 J0.0000 F500.00
G1 X1.0000 Y-0.5000 Z-15.0000 F500.00
G2 X-0.5000 Y1.0000 Z-15.0000 I0.0000 J1.5000 F500.00
G1 X-0.5000 Y11.0000 Z-15.0000 F500.00
G2 X1.0000 Y12.5000 Z-15.0000 I1.5000 J-0.0000 F500.00
G1 X11.0000 Y12.5000 Z-15.0000 F500.00
G2 X12.0607 Y12.0607 Z-15.0000 I-0.0000 J-1.5000 F500.00
G1 X12.0607 Y12.0607 Z-15.5000 F100.00
G2 X12.5000 Y11.0000 Z-15.5000 I-1.0607 J-1.0607 F500.00
G1 X12.5000 Y7.5000 Z-15.5000 F500.00
G2 X11.0847 Y6.0000 Z-15.5000 I-1.5045 J0.0019 F500.00
G2 X12.5000 Y4.5000 Z-15.5000 I-0.0899 J-1.5025 F500.00
G1 X12.5000 Y1.0000 Z-15.5000 F500.00
G2 X11.0000 Y-0.5000 Z-15.5000 I-1.5000 J0.0000 F500.00
G1 X1.0000 Y-0.5000 Z-15.5000 F500.00
G2 X-0.5000 Y1.0000 Z-15.5000 I0.0000 J1.5000 F500.00
G1 X-0.5000 Y11.0000 Z-15.5000 F500.00
G2 X1.0000 Y12.5000 Z-15.5000 I1.5000 J-0.0000 F500.00
G1 X11.0000 Y12.5000 Z-15.5000 F500.00
G2 X12.0607 Y12.0607 Z-15.5000 I-0.0000 J-1.5000 F500.00
G1 X12.0607 Y12.0607 Z-16.0000 F100.00
G2 X12.5000 Y11.0000 Z-16.0000 I-1.0607 J-1.0607 F500.00
G1 X12.5000 Y7.5000 Z-16.0000 F500.00
G2 X11.0847 Y6.0000 Z-16.0000 I-1.5045 J0.0019 F500.00
G2 X12.5000 Y4.5000 Z-16.0000 I-0.0899 J-1.5025 F500.00
G1 X12.5000 Y1.0000 Z-16.0000 F500.00
G2 X11.0000 Y-0.5000 Z-16.0000 I-1.5000 J0.0000 F500.00
G1 X1.0000 Y-0.5000 Z-16.0000 F500.00
G2 X-0.5000 Y1.0000 Z-16.0000 I0.0000 J1.5000 F500.00
G1 X-0.5000 Y11.0000 Z-16.0000 F500.00
G2 X1.0000 Y12.5000 Z-16.0000 I1.5000 J-0.0000 F500.00
G1 X11.0000 Y12.5000 Z-16.0000 F500.00
G2 X12.0607 Y12.0607 Z-16.0000 I-0.0000 J-1.5000 F500.00
G1 X12.0607 Y12.0607 Z-16.5000 F100.00
G2 X12.5000 Y11.0000 Z-16.5000 I-1.0607 J-1.0607 F500.00
G1 X12.5000 Y7.5000 Z-16.5000 F500.00
G2 X11.0847 Y6.0000 Z-16.5000 I-1.5045 J0.0019 F500.00
G2 X12.5000 Y4.5000 Z-16.5000 I-0.0899 J-1.5025 F500.00
G1 X12.5000 Y1.0000 Z-16.5000 F500.00
G2 X11.0000 Y-0.5000 Z-16.5000 I-1.5000 J0.0000 F500.00
G1 X1.0000 Y-0.5000 Z-16.5000 F500.00
G2 X-0.5000 Y1.0000 Z-16.5000 I0.0000 J1.5000 F500.00
G1 X-0.5000 Y11.0000 Z-16.5000 F500.00
G2 X1.0000 Y12.5000 Z-16.5000 I1.5000 J-0.0000 F500.00
G1 X11.0000 Y12.5000 Z-16.5000 F500.00
G2 X12.0607 Y12.0607 Z-16.5000 I-0.0000 J-1.5000 F500.00
G1 X12.0607 Y12.0607 Z-17.0000 F100.00
G2 X12.5000 Y11.0000 Z-17.0000 I-1.0607 J-1.0607 F500.00
G1 X12.5000 Y7.5000 Z-17.0000 F500.00
G2 X11.0847 Y6.0000 Z-17.0000 I-1.5045 J0.0019 F500.00
G2 X12.5000 Y4.5000 Z-17.0000 I-0.0899 J-1.5025 F500.00
G1 X12.5000 Y1.0000 Z-17.0000 F500.00
G2 X11.0000 Y-0.5000 Z-17.0000 I-1.5000 J0.0000 F500.00
G1 X1.0000 Y-0.5000 Z-17.0000 F500.00
G2 X-0.5000 Y1.0000 Z-17.0000 I0.0000 J1.5000 F500.00
G1 X-0.5000 Y11.0000 Z-17.0000 F500.00
G2 X1.0000 Y12.5000 Z-17.0000 I1.5000 J-0.0000 F500.00
G1 X11.0000 Y12.5000 Z-17.0000 F500.00
G2 X12.0607 Y12.0607 Z-17.0000 I-0.0000 J-1.5000 F500.00
G1 X12.0607 Y12.0607 Z-17.5000 F100.00
G2 X12.5000 Y11.0000 Z-17.5000 I-1.0607 J-1.0607 F500.00
G1 X12.5000 Y7.5000 Z-17.5000 F500.00
G2 X11.0847 Y6.0000 Z-17.5000 I-1.5045 J0.0019 F500.00
G2 X12.5000 Y4.5000 Z-17.5000 I-0.0899 J-1.5025 F500.00
G1 X12.5000 Y1.0000 Z-17.5000 F500.00
G2 X11.0000 Y-0.5000 Z-17.5000 I-1.5000 J0.0000 F500.00
G1 X1.0000 Y-0.5000 Z-17.5000 F500.00
G2 X-0.5000 Y1.0000 Z-17.5000 I0.0000 J1.5000 F500.00
G1 X-0.5000 Y11.0000 Z-17.5000 F500.00
G2 X1.0000 Y12.5000 Z-17.5000 I1.5000 J-0.0000 F500.00
G1 X11.0000 Y12.5000 Z-17.5000 F500.00
G2 X12.0607 Y12.0607 Z-17.5000 I-0.0000 J-1.5000 F500.00
G1 X12.0607 Y12.0607 Z-18.0000 F100.00
G2 X12.5000 Y11.0000 Z-18.0000 I-1.0607 J-1.0607 F500.00
G1 X12.5000 Y7.5000 Z-18.0000 F500.00
G2 X11.0847 Y6.0000 Z-18.0000 I-1.5045 J0.0019 F500.00
G2 X12.5000 Y4.5000 Z-18.0000 I-0.0899 J-1.5025 F500.00
G1 X12.5000 Y1.0000 Z-18.0000 F500.00
G2 X11.0000 Y-0.5000 Z-18.0000 I-1.5000 J0.0000 F500.00
G1 X1.0000 Y-0.5000 Z-18.0000 F500.00
G2 X-0.5000 Y1.0000 Z-18.0000 I0.0000 J1.5000 F500.00
G1 X-0.5000 Y11.0000 Z-18.0000 F500.00
G2 X1.0000 Y12.5000 Z-18.0000 I1.5000 J-0.0000 F500.00
G1 X11.0000 Y12.5000 Z-18.0000 F500.00
G2 X12.0607 Y12.0607 Z-18.0000 I-0.0000 J-1.5000 F500.00
G1 X12.0607 Y12.0607 Z-18.5000 F100.00
G2 X12.5000 Y11.0000 Z-18.5000 I-1.0607 J-1.0607 F500.00
G1 X12.5000 Y7.5000 Z-18.5000 F500.00
G2 X12.4088 Y6.9859 Z-18.5000 I-1.5045 J0.0019 F500.00
G1 X12.2967 Y6.7466 Z-18.2437
G1 X12.1350 Y6.5194 Z-18.0000
G2 X11.2264 Y6.0152 Z-18.0000 I-1.1395 J0.9824 F500.00
G1 X11.0847 Y6.0000 Z-18.1192
G1 X11.2112 Y5.9871 Z-18.0000
G2 X12.4944 Y4.6270 Z-18.0000 I-0.2163 J-1.4895 F500.00
G1 X12.5000 Y4.5000 Z-18.1192
G1 X12.5000 Y4.0981 Z-18.5000 F306.86
G1 X12.5000 Y1.0000 Z-18.5000 F500.00
G2 X11.0000 Y-0.5000 Z-18.5000 I-1.5000 J0.0000 F500.00
G1 X7.4900 Y-0.5000 Z-18.5000 F500.00
G1 X6.9900 Y-0.5000 Z-18.0000 F300.00
G1 X5.0100 Y-0.5000 Z-18.0000 F500.00
G1 X4.5100 Y-0.5000 Z-18.5000 F300.00
G1 X1.0000 Y-0.5000 Z-18.5000 F500.00
G2 X-0.5000 Y1.0000 Z-18.5000 I0.0000 J1.5000 F500.00
G1 X-0.5000 Y4.5100 Z-18.5000 F500.00
G1 X-0.5000 Y5.0100 Z-18.0000 F300.00
G1 X-0.5000 Y6.9900 Z-18.0000 F500.00
G1 X-0.5000 Y7.4900 Z-18.5000 F300.00
G1 X-0.5000 Y11.0000 Z-18.5000 F500.00
G2 X1.0000 Y12.5000 Z-18.5000 I1.5000 J-0.0000 F500.00
G1 X4.5100 Y12.5000 Z-18.5000 F500.00
G1 X5.0100 Y12.5000 Z-18.0000 F300.00
G1 X6.9900 Y12.5000 Z-18.0000 F500.00
G1 X7.4900 Y12.5000 Z-18.5000 F300.00
G1 X11.0000 Y12.5000 Z-18.5000 F500.00
G2 X12.0607 Y12.0607 Z-18.5000 I-0.0000 J-1.5000 F500.00
G1 X12.0607 Y12.0607 Z-19.0000 F100.00
G2 X12.5000 Y11.0000 Z-19.0000 I-1.0607 J-1.0607 F500.00
G1 X12.5000 Y7.5000 Z-19.0000 F500.00
G2 X12.4998 Y7.4777 Z-19.0000 I-1.5045 J0.0019 F500.00
G1 X12.4739 Y7.2230 Z-18.7456
G1 X12.4056 Y6.9773 Z-18.4909
G1 X12.2943 Y6.7425 Z-18.2392
G1 X12.1350 Y6.5194 Z-18.0000
G2 X11.2264 Y6.0152 Z-18.0000 I-1.1395 J0.9824 F500.00
G1 X11.0847 Y6.0000 Z-18.1192
G1 X11.2112 Y5.9871 Z-18.0000
G2 X12.4944 Y4.6270 Z-18.0000 I-0.2163 J-1.4895 F500.00
G1 X12.5000 Y4.5000 Z-18.1192
G1 X12.5000 Y3.5833 Z-19.0000 F305.09
G1 X12.5000 Y1.0000 Z-19.0000 F500.00
G2 X11.0000 Y-0.5000 Z-19.0000 I-1.5000 J0.0000 F500.00
G1 X7.9900 Y-0.5000 Z-19.0000 F500.00
G1 X6.9900 Y-0.5000 Z-18.0000 F300.00
G1 X5.0100 Y-0.5000 Z-18.0000 F500.00
G1 X4.0100 Y-0.5000 Z-19.0000 F300.00
G1 X1.0000 Y-0.5000 Z-19.0000 F500.00
G2 X-0.5000 Y1.0000 Z-19.0000 I0.0000 J1.5000 F500.00
G1 X-0.5000 Y4.0100 Z-19.0000 F500.00
G1 X-0.5000 Y5.0100 Z-18.0000 F300.00
G1 X-0.5000 Y6.9900 Z-18.0000 F500.00
G1 X-0.5000 Y7.9900 Z-19.0000 F300.00
G1 X-0.5000 Y11.0000 Z-19.0000 F500.00
G2 X1.0000 Y12.5000 Z-19.0000 I1.5000 J-0.0000 F500.00
G1 X4.0100 Y12.5000 Z-19.0000 F500.00
G1 X5.0100 Y12.5000 Z-18.0000 F300.00
G1 X6.9900 Y12.5000 Z-18.0000 F500.00
G1 X7.9900 Y12.5000 Z-19.0000 F300.00
G1 X11.0000 Y12.5000 Z-19.0000 F500.00
G2 X12.0607 Y12.0607 Z-19.0000 I-0.0000 J-1.5000 F500.00
G0 X12.0607 Y12.0607 Z5.0000
(finish operation: TagDressup002)
(begin postamble)
M5
G17 G90
; M2
