(Exported by FreeCAD)
(Post Processor: grbl_post)
(Output Time:2019-09-17 16:57:20.550225)
(begin preamble)
G17 G90
G21
(begin operation: T3: drill bit 2mm)
(Path: T3: drill bit 2mm)
(T3: drill bit 2mm)
(begin toolchange)
M6 T3
M3 S10000.0000
(finish operation: T3: drill bit 2mm)
(begin operation: Drilling002)
(Path: Drilling002)
(Drilling002)
(Begin Drilling)
G0 Z5.0000
G90
; G98
G81 X6.0000 Y6.0000 Z-19.0000 F100.00 R2.0000
; G80
G0 Z5.0000
(finish operation: Drilling002)
(begin operation: T2: end mill 3mm002)
(Path: T2: end mill 3mm002)
(T2: end mill 3mm002)
(begin toolchange)
M6 T2
M3 S10000.0000
(finish operation: T2: end mill 3mm002)
(begin operation: square_contour)
(Path: square_contour)
(Contour005)
(Compensated Tool Path. Diameter: 3.0)
G0 Z5.0000
G0 X12.0607 Y12.0607
G0 Z3.0000
G1 X12.0607 Y12.0607 Z-0.5000 F100.00
G2 X12.5000 Y11.0000 Z-0.5000 I-1.0607 J-1.0607 F500.00
G1 X12.5000 Y7.5000 Z-0.5000 F500.00
G2 X11.0847 Y6.0000 Z-0.5000 I-1.5045 J0.0019 F500.00
G2 X12.5000 Y4.5000 Z-0.5000 I-0.0899 J-1.5025 F500.00
G1 X12.5000 Y1.0000 Z-0.5000 F500.00
G2 X11.0000 Y-0.5000 Z-0.5000 I-1.5000 J0.0000 F500.00
G1 X1.0000 Y-0.5000 Z-0.5000 F500.00
G2 X-0.5000 Y1.0000 Z-0.5000 I0.0000 J1.5000 F500.00
G1 X-0.5000 Y11.0000 Z-0.5000 F500.00
G2 X1.0000 Y12.5000 Z-0.5000 I1.5000 J-0.0000 F500.00
G1 X11.0000 Y12.5000 Z-0.5000 F500.00
G2 X12.0607 Y12.0607 Z-0.5000 I-0.0000 J-1.5000 F500.00
G1 X12.0607 Y12.0607 Z-1.0000 F100.00
G2 X12.5000 Y11.0000 Z-1.0000 I-1.0607 J-1.0607 F500.00
G1 X12.5000 Y7.5000 Z-1.0000 F500.00
G2 X11.0847 Y6.0000 Z-1.0000 I-1.5045 J0.0019 F500.00
G2 X12.5000 Y4.5000 Z-1.0000 I-0.0899 J-1.5025 F500.00
G1 X12.5000 Y1.0000 Z-1.0000 F500.00
G2 X11.0000 Y-0.5000 Z-1.0000 I-1.5000 J0.0000 F500.00
G1 X1.0000 Y-0.5000 Z-1.0000 F500.00
G2 X-0.5000 Y1.0000 Z-1.0000 I0.0000 J1.5000 F500.00
G1 X-0.5000 Y11.0000 Z-1.0000 F500.00
G2 X1.0000 Y12.5000 Z-1.0000 I1.5000 J-0.0000 F500.00
G1 X11.0000 Y12.5000 Z-1.0000 F500.00
G2 X12.0607 Y12.0607 Z-1.0000 I-0.0000 J-1.5000 F500.00
G1 X12.0607 Y12.0607 Z-1.5000 F100.00
G2 X12.5000 Y11.0000 Z-1.5000 I-1.0607 J-1.0607 F500.00
G1 X12.5000 Y7.5000 Z-1.5000 F500.00
G2 X11.0847 Y6.0000 Z-1.5000 I-1.5045 J0.0019 F500.00
G2 X12.5000 Y4.5000 Z-1.5000 I-0.0899 J-1.5025 F500.00
G1 X12.5000 Y1.0000 Z-1.5000 F500.00
G2 X11.0000 Y-0.5000 Z-1.5000 I-1.5000 J0.0000 F500.00
G1 X1.0000 Y-0.5000 Z-1.5000 F500.00
G2 X-0.5000 Y1.0000 Z-1.5000 I0.0000 J1.5000 F500.00
G1 X-0.5000 Y11.0000 Z-1.5000 F500.00
G2 X1.0000 Y12.5000 Z-1.5000 I1.5000 J-0.0000 F500.00
G1 X11.0000 Y12.5000 Z-1.5000 F500.00
G2 X12.0607 Y12.0607 Z-1.5000 I-0.0000 J-1.5000 F500.00
G1 X12.0607 Y12.0607 Z-2.0000 F100.00
G2 X12.5000 Y11.0000 Z-2.0000 I-1.0607 J-1.0607 F500.00
G1 X12.5000 Y7.5000 Z-2.0000 F500.00
G2 X11.0847 Y6.0000 Z-2.0000 I-1.5045 J0.0019 F500.00
G2 X12.5000 Y4.5000 Z-2.0000 I-0.0899 J-1.5025 F500.00
G1 X12.5000 Y1.0000 Z-2.0000 F500.00
G2 X11.0000 Y-0.5000 Z-2.0000 I-1.5000 J0.0000 F500.00
G1 X1.0000 Y-0.5000 Z-2.0000 F500.00
G2 X-0.5000 Y1.0000 Z-2.0000 I0.0000 J1.5000 F500.00
G1 X-0.5000 Y11.0000 Z-2.0000 F500.00
G2 X1.0000 Y12.5000 Z-2.0000 I1.5000 J-0.0000 F500.00
G1 X11.0000 Y12.5000 Z-2.0000 F500.00
G2 X12.0607 Y12.0607 Z-2.0000 I-0.0000 J-1.5000 F500.00
G0 Z5.0000
G0 X12.0607 Y12.0607
G0 Z3.0000
G1 X12.0607 Y12.0607 Z-0.5000 F100.00
G2 X12.5000 Y11.0000 Z-0.5000 I-1.0607 J-1.0607 F500.00
G1 X12.5000 Y1.0000 Z-0.5000 F500.00
G2 X11.0000 Y-0.5000 Z-0.5000 I-1.5000 J0.0000 F500.00
G1 X1.0000 Y-0.5000 Z-0.5000 F500.00
G2 X-0.5000 Y1.0000 Z-0.5000 I0.0000 J1.5000 F500.00
G1 X-0.5000 Y11.0000 Z-0.5000 F500.00
G2 X1.0000 Y12.5000 Z-0.5000 I1.5000 J-0.0000 F500.00
G1 X11.0000 Y12.5000 Z-0.5000 F500.00
G2 X12.0607 Y12.0607 Z-0.5000 I-0.0000 J-1.5000 F500.00
G1 X12.0607 Y12.0607 Z-1.0000 F100.00
G2 X12.5000 Y11.0000 Z-1.0000 I-1.0607 J-1.0607 F500.00
G1 X12.5000 Y1.0000 Z-1.0000 F500.00
G2 X11.0000 Y-0.5000 Z-1.0000 I-1.5000 J0.0000 F500.00
G1 X1.0000 Y-0.5000 Z-1.0000 F500.00
G2 X-0.5000 Y1.0000 Z-1.0000 I0.0000 J1.5000 F500.00
G1 X-0.5000 Y11.0000 Z-1.0000 F500.00
G2 X1.0000 Y12.5000 Z-1.0000 I1.5000 J-0.0000 F500.00
G1 X11.0000 Y12.5000 Z-1.0000 F500.00
G2 X12.0607 Y12.0607 Z-1.0000 I-0.0000 J-1.5000 F500.00
G1 X12.0607 Y12.0607 Z-1.5000 F100.00
G2 X12.5000 Y11.0000 Z-1.5000 I-1.0607 J-1.0607 F500.00
G1 X12.5000 Y1.0000 Z-1.5000 F500.00
G2 X11.0000 Y-0.5000 Z-1.5000 I-1.5000 J0.0000 F500.00
G1 X1.0000 Y-0.5000 Z-1.5000 F500.00
G2 X-0.5000 Y1.0000 Z-1.5000 I0.0000 J1.5000 F500.00
G1 X-0.5000 Y11.0000 Z-1.5000 F500.00
G2 X1.0000 Y12.5000 Z-1.5000 I1.5000 J-0.0000 F500.00
G1 X11.0000 Y12.5000 Z-1.5000 F500.00
G2 X12.0607 Y12.0607 Z-1.5000 I-0.0000 J-1.5000 F500.00
G1 X12.0607 Y12.0607 Z-2.0000 F100.00
G2 X12.5000 Y11.0000 Z-2.0000 I-1.0607 J-1.0607 F500.00
G1 X12.5000 Y1.0000 Z-2.0000 F500.00
G2 X11.0000 Y-0.5000 Z-2.0000 I-1.5000 J0.0000 F500.00
G1 X1.0000 Y-0.5000 Z-2.0000 F500.00
G2 X-0.5000 Y1.0000 Z-2.0000 I0.0000 J1.5000 F500.00
G1 X-0.5000 Y11.0000 Z-2.0000 F500.00
G2 X1.0000 Y12.5000 Z-2.0000 I1.5000 J-0.0000 F500.00
G1 X11.0000 Y12.5000 Z-2.0000 F500.00
G2 X12.0607 Y12.0607 Z-2.0000 I-0.0000 J-1.5000 F500.00
G0 Z5.0000
(finish operation: square_contour)
(begin operation: round_contour)
(Path: round_contour)
(Profile_Edges005)
(Compensated Tool Path. Diameter: 3.0)
G0 Z5.0000
G0 X9.5688 Y9.5688
G0 Z3.0000
G1 X9.5688 Y9.5688 Z0.8000 F100.00
G2 X7.0135 Y1.0558 Z0.8000 I-3.5688 J-3.5688 F500.00
G2 X1.0558 Y4.9865 Z0.8000 I-1.0135 J4.9442 F500.00
G2 X4.9865 Y10.9442 Z0.8000 I4.9442 J1.0135 F500.00
G2 X9.5688 Y9.5688 Z0.8000 I1.0135 J-4.9442 F500.00
G1 X9.5688 Y9.5688 Z0.6000 F100.00
G2 X7.0135 Y1.0558 Z0.6000 I-3.5688 J-3.5688 F500.00
G2 X1.0558 Y4.9865 Z0.6000 I-1.0135 J4.9442 F500.00
G2 X4.9865 Y10.9442 Z0.6000 I4.9442 J1.0135 F500.00
G2 X9.5688 Y9.5688 Z0.6000 I1.0135 J-4.9442 F500.00
G1 X9.5688 Y9.5688 Z0.4000 F100.00
G2 X7.0135 Y1.0558 Z0.4000 I-3.5688 J-3.5688 F500.00
G2 X1.0558 Y4.9865 Z0.4000 I-1.0135 J4.9442 F500.00
G2 X4.9865 Y10.9442 Z0.4000 I4.9442 J1.0135 F500.00
G2 X9.5688 Y9.5688 Z0.4000 I1.0135 J-4.9442 F500.00
G1 X9.5688 Y9.5688 Z0.2000 F100.00
G2 X7.0135 Y1.0558 Z0.2000 I-3.5688 J-3.5688 F500.00
G2 X1.0558 Y4.9865 Z0.2000 I-1.0135 J4.9442 F500.00
G2 X4.9865 Y10.9442 Z0.2000 I4.9442 J1.0135 F500.00
G2 X9.5688 Y9.5688 Z0.2000 I1.0135 J-4.9442 F500.00
G1 X9.5688 Y9.5688 Z0.0000 F100.00
G2 X7.0135 Y1.0558 Z0.0000 I-3.5688 J-3.5688 F500.00
G2 X1.0558 Y4.9865 Z0.0000 I-1.0135 J4.9442 F500.00
G2 X4.9865 Y10.9442 Z0.0000 I4.9442 J1.0135 F500.00
G2 X9.5688 Y9.5688 Z0.0000 I1.0135 J-4.9442 F500.00
G1 X9.5688 Y9.5688 Z-0.2000 F100.00
G2 X7.0135 Y1.0558 Z-0.2000 I-3.5688 J-3.5688 F500.00
G2 X1.0558 Y4.9865 Z-0.2000 I-1.0135 J4.9442 F500.00
G2 X4.9865 Y10.9442 Z-0.2000 I4.9442 J1.0135 F500.00
G2 X9.5688 Y9.5688 Z-0.2000 I1.0135 J-4.9442 F500.00
G1 X9.5688 Y9.5688 Z-0.4000 F100.00
G2 X7.0135 Y1.0558 Z-0.4000 I-3.5688 J-3.5688 F500.00
G2 X1.0558 Y4.9865 Z-0.4000 I-1.0135 J4.9442 F500.00
G2 X4.9865 Y10.9442 Z-0.4000 I4.9442 J1.0135 F500.00
G2 X9.5688 Y9.5688 Z-0.4000 I1.0135 J-4.9442 F500.00
G1 X9.5688 Y9.5688 Z-0.6000 F100.00
G2 X7.0135 Y1.0558 Z-0.6000 I-3.5688 J-3.5688 F500.00
G2 X1.0558 Y4.9865 Z-0.6000 I-1.0135 J4.9442 F500.00
G2 X4.9865 Y10.9442 Z-0.6000 I4.9442 J1.0135 F500.00
G2 X9.5688 Y9.5688 Z-0.6000 I1.0135 J-4.9442 F500.00
G1 X9.5688 Y9.5688 Z-0.8000 F100.00
G2 X7.0135 Y1.0558 Z-0.8000 I-3.5688 J-3.5688 F500.00
G2 X1.0558 Y4.9865 Z-0.8000 I-1.0135 J4.9442 F500.00
G2 X4.9865 Y10.9442 Z-0.8000 I4.9442 J1.0135 F500.00
G2 X9.5688 Y9.5688 Z-0.8000 I1.0135 J-4.9442 F500.00
G1 X9.5688 Y9.5688 Z-1.0000 F100.00
G2 X7.0135 Y1.0558 Z-1.0000 I-3.5688 J-3.5688 F500.00
G2 X1.0558 Y4.9865 Z-1.0000 I-1.0135 J4.9442 F500.00
G2 X4.9865 Y10.9442 Z-1.0000 I4.9442 J1.0135 F500.00
G2 X9.5688 Y9.5688 Z-1.0000 I1.0135 J-4.9442 F500.00
G1 X9.5688 Y9.5688 Z-1.2000 F100.00
G2 X7.0135 Y1.0558 Z-1.2000 I-3.5688 J-3.5688 F500.00
G2 X1.0558 Y4.9865 Z-1.2000 I-1.0135 J4.9442 F500.00
G2 X4.9865 Y10.9442 Z-1.2000 I4.9442 J1.0135 F500.00
G2 X9.5688 Y9.5688 Z-1.2000 I1.0135 J-4.9442 F500.00
G1 X9.5688 Y9.5688 Z-1.4000 F100.00
G2 X7.0135 Y1.0558 Z-1.4000 I-3.5688 J-3.5688 F500.00
G2 X1.0558 Y4.9865 Z-1.4000 I-1.0135 J4.9442 F500.00
G2 X4.9865 Y10.9442 Z-1.4000 I4.9442 J1.0135 F500.00
G2 X9.5688 Y9.5688 Z-1.4000 I1.0135 J-4.9442 F500.00
G1 X9.5688 Y9.5688 Z-1.6000 F100.00
G2 X7.0135 Y1.0558 Z-1.6000 I-3.5688 J-3.5688 F500.00
G2 X1.0558 Y4.9865 Z-1.6000 I-1.0135 J4.9442 F500.00
G2 X4.9865 Y10.9442 Z-1.6000 I4.9442 J1.0135 F500.00
G2 X9.5688 Y9.5688 Z-1.6000 I1.0135 J-4.9442 F500.00
G1 X9.5688 Y9.5688 Z-1.8000 F100.00
G2 X7.0135 Y1.0558 Z-1.8000 I-3.5688 J-3.5688 F500.00
G2 X1.0558 Y4.9865 Z-1.8000 I-1.0135 J4.9442 F500.00
G2 X4.9865 Y10.9442 Z-1.8000 I4.9442 J1.0135 F500.00
G2 X9.5688 Y9.5688 Z-1.8000 I1.0135 J-4.9442 F500.00
G1 X9.5688 Y9.5688 Z-2.0000 F100.00
G2 X7.0135 Y1.0558 Z-2.0000 I-3.5688 J-3.5688 F500.00
G2 X1.0558 Y4.9865 Z-2.0000 I-1.0135 J4.9442 F500.00
G2 X4.9865 Y10.9442 Z-2.0000 I4.9442 J1.0135 F500.00
G2 X9.5688 Y9.5688 Z-2.0000 I1.0135 J-4.9442 F500.00
G0 Z5.0000
(finish operation: round_contour)
(begin operation: square_contour001)
(Path: square_contour001)
(square_contour001)
(Compensated Tool Path. Diameter: 3.0)
G0 Z5.0000
G0 X12.0607 Y12.0607
G0 Z3.0000
G1 X12.0607 Y12.0607 Z-2.5000 F100.00
G2 X12.5000 Y11.0000 Z-2.5000 I-1.0607 J-1.0607 F500.00
G1 X12.5000 Y7.5000 Z-2.5000 F500.00
G2 X11.0847 Y6.0000 Z-2.5000 I-1.5045 J0.0019 F500.00
G2 X12.5000 Y4.5000 Z-2.5000 I-0.0899 J-1.5025 F500.00
G1 X12.5000 Y1.0000 Z-2.5000 F500.00
G2 X11.0000 Y-0.5000 Z-2.5000 I-1.5000 J0.0000 F500.00
G1 X1.0000 Y-0.5000 Z-2.5000 F500.00
G2 X-0.5000 Y1.0000 Z-2.5000 I0.0000 J1.5000 F500.00
G1 X-0.5000 Y11.0000 Z-2.5000 F500.00
G2 X1.0000 Y12.5000 Z-2.5000 I1.5000 J-0.0000 F500.00
G1 X11.0000 Y12.5000 Z-2.5000 F500.00
G2 X12.0607 Y12.0607 Z-2.5000 I-0.0000 J-1.5000 F500.00
G1 X12.0607 Y12.0607 Z-3.0000 F100.00
G2 X12.5000 Y11.0000 Z-3.0000 I-1.0607 J-1.0607 F500.00
G1 X12.5000 Y7.5000 Z-3.0000 F500.00
G2 X11.0847 Y6.0000 Z-3.0000 I-1.5045 J0.0019 F500.00
G2 X12.5000 Y4.5000 Z-3.0000 I-0.0899 J-1.5025 F500.00
G1 X12.5000 Y1.0000 Z-3.0000 F500.00
G2 X11.0000 Y-0.5000 Z-3.0000 I-1.5000 J0.0000 F500.00
G1 X1.0000 Y-0.5000 Z-3.0000 F500.00
G2 X-0.5000 Y1.0000 Z-3.0000 I0.0000 J1.5000 F500.00
G1 X-0.5000 Y11.0000 Z-3.0000 F500.00
G2 X1.0000 Y12.5000 Z-3.0000 I1.5000 J-0.0000 F500.00
G1 X11.0000 Y12.5000 Z-3.0000 F500.00
G2 X12.0607 Y12.0607 Z-3.0000 I-0.0000 J-1.5000 F500.00
G1 X12.0607 Y12.0607 Z-3.5000 F100.00
G2 X12.5000 Y11.0000 Z-3.5000 I-1.0607 J-1.0607 F500.00
G1 X12.5000 Y7.5000 Z-3.5000 F500.00
G2 X11.0847 Y6.0000 Z-3.5000 I-1.5045 J0.0019 F500.00
G2 X12.5000 Y4.5000 Z-3.5000 I-0.0899 J-1.5025 F500.00
G1 X12.5000 Y1.0000 Z-3.5000 F500.00
G2 X11.0000 Y-0.5000 Z-3.5000 I-1.5000 J0.0000 F500.00
G1 X1.0000 Y-0.5000 Z-3.5000 F500.00
G2 X-0.5000 Y1.0000 Z-3.5000 I0.0000 J1.5000 F500.00
G1 X-0.5000 Y11.0000 Z-3.5000 F500.00
G2 X1.0000 Y12.5000 Z-3.5000 I1.5000 J-0.0000 F500.00
G1 X11.0000 Y12.5000 Z-3.5000 F500.00
G2 X12.0607 Y12.0607 Z-3.5000 I-0.0000 J-1.5000 F500.00
G1 X12.0607 Y12.0607 Z-4.0000 F100.00
G2 X12.5000 Y11.0000 Z-4.0000 I-1.0607 J-1.0607 F500.00
G1 X12.5000 Y7.5000 Z-4.0000 F500.00
G2 X11.0847 Y6.0000 Z-4.0000 I-1.5045 J0.0019 F500.00
G2 X12.5000 Y4.5000 Z-4.0000 I-0.0899 J-1.5025 F500.00
G1 X12.5000 Y1.0000 Z-4.0000 F500.00
G2 X11.0000 Y-0.5000 Z-4.0000 I-1.5000 J0.0000 F500.00
G1 X1.0000 Y-0.5000 Z-4.0000 F500.00
G2 X-0.5000 Y1.0000 Z-4.0000 I0.0000 J1.5000 F500.00
G1 X-0.5000 Y11.0000 Z-4.0000 F500.00
G2 X1.0000 Y12.5000 Z-4.0000 I1.5000 J-0.0000 F500.00
G1 X11.0000 Y12.5000 Z-4.0000 F500.00
G2 X12.0607 Y12.0607 Z-4.0000 I-0.0000 J-1.5000 F500.00
G1 X12.0607 Y12.0607 Z-4.5000 F100.00
G2 X12.5000 Y11.0000 Z-4.5000 I-1.0607 J-1.0607 F500.00
G1 X12.5000 Y7.5000 Z-4.5000 F500.00
G2 X11.0847 Y6.0000 Z-4.5000 I-1.5045 J0.0019 F500.00
G2 X12.5000 Y4.5000 Z-4.5000 I-0.0899 J-1.5025 F500.00
G1 X12.5000 Y1.0000 Z-4.5000 F500.00
G2 X11.0000 Y-0.5000 Z-4.5000 I-1.5000 J0.0000 F500.00
G1 X1.0000 Y-0.5000 Z-4.5000 F500.00
G2 X-0.5000 Y1.0000 Z-4.5000 I0.0000 J1.5000 F500.00
G1 X-0.5000 Y11.0000 Z-4.5000 F500.00
G2 X1.0000 Y12.5000 Z-4.5000 I1.5000 J-0.0000 F500.00
G1 X11.0000 Y12.5000 Z-4.5000 F500.00
G2 X12.0607 Y12.0607 Z-4.5000 I-0.0000 J-1.5000 F500.00
G1 X12.0607 Y12.0607 Z-5.0000 F100.00
G2 X12.5000 Y11.0000 Z-5.0000 I-1.0607 J-1.0607 F500.00
G1 X12.5000 Y7.5000 Z-5.0000 F500.00
G2 X11.0847 Y6.0000 Z-5.0000 I-1.5045 J0.0019 F500.00
G2 X12.5000 Y4.5000 Z-5.0000 I-0.0899 J-1.5025 F500.00
G1 X12.5000 Y1.0000 Z-5.0000 F500.00
G2 X11.0000 Y-0.5000 Z-5.0000 I-1.5000 J0.0000 F500.00
G1 X1.0000 Y-0.5000 Z-5.0000 F500.00
G2 X-0.5000 Y1.0000 Z-5.0000 I0.0000 J1.5000 F500.00
G1 X-0.5000 Y11.0000 Z-5.0000 F500.00
G2 X1.0000 Y12.5000 Z-5.0000 I1.5000 J-0.0000 F500.00
G1 X11.0000 Y12.5000 Z-5.0000 F500.00
G2 X12.0607 Y12.0607 Z-5.0000 I-0.0000 J-1.5000 F500.00
G1 X12.0607 Y12.0607 Z-5.5000 F100.00
G2 X12.5000 Y11.0000 Z-5.5000 I-1.0607 J-1.0607 F500.00
G1 X12.5000 Y7.5000 Z-5.5000 F500.00
G2 X11.0847 Y6.0000 Z-5.5000 I-1.5045 J0.0019 F500.00
G2 X12.5000 Y4.5000 Z-5.5000 I-0.0899 J-1.5025 F500.00
G1 X12.5000 Y1.0000 Z-5.5000 F500.00
G2 X11.0000 Y-0.5000 Z-5.5000 I-1.5000 J0.0000 F500.00
G1 X1.0000 Y-0.5000 Z-5.5000 F500.00
G2 X-0.5000 Y1.0000 Z-5.5000 I0.0000 J1.5000 F500.00
G1 X-0.5000 Y11.0000 Z-5.5000 F500.00
G2 X1.0000 Y12.5000 Z-5.5000 I1.5000 J-0.0000 F500.00
G1 X11.0000 Y12.5000 Z-5.5000 F500.00
G2 X12.0607 Y12.0607 Z-5.5000 I-0.0000 J-1.5000 F500.00
G1 X12.0607 Y12.0607 Z-6.0000 F100.00
G2 X12.5000 Y11.0000 Z-6.0000 I-1.0607 J-1.0607 F500.00
G1 X12.5000 Y7.5000 Z-6.0000 F500.00
G2 X11.0847 Y6.0000 Z-6.0000 I-1.5045 J0.0019 F500.00
G2 X12.5000 Y4.5000 Z-6.0000 I-0.0899 J-1.5025 F500.00
G1 X12.5000 Y1.0000 Z-6.0000 F500.00
G2 X11.0000 Y-0.5000 Z-6.0000 I-1.5000 J0.0000 F500.00
G1 X1.0000 Y-0.5000 Z-6.0000 F500.00
G2 X-0.5000 Y1.0000 Z-6.0000 I0.0000 J1.5000 F500.00
G1 X-0.5000 Y11.0000 Z-6.0000 F500.00
G2 X1.0000 Y12.5000 Z-6.0000 I1.5000 J-0.0000 F500.00
G1 X11.0000 Y12.5000 Z-6.0000 F500.00
G2 X12.0607 Y12.0607 Z-6.0000 I-0.0000 J-1.5000 F500.00
G1 X12.0607 Y12.0607 Z-6.5000 F100.00
G2 X12.5000 Y11.0000 Z-6.5000 I-1.0607 J-1.0607 F500.00
G1 X12.5000 Y7.5000 Z-6.5000 F500.00
G2 X11.0847 Y6.0000 Z-6.5000 I-1.5045 J0.0019 F500.00
G2 X12.5000 Y4.5000 Z-6.5000 I-0.0899 J-1.5025 F500.00
G1 X12.5000 Y1.0000 Z-6.5000 F500.00
G2 X11.0000 Y-0.5000 Z-6.5000 I-1.5000 J0.0000 F500.00
G1 X1.0000 Y-0.5000 Z-6.5000 F500.00
G2 X-0.5000 Y1.0000 Z-6.5000 I0.0000 J1.5000 F500.00
G1 X-0.5000 Y11.0000 Z-6.5000 F500.00
G2 X1.0000 Y12.5000 Z-6.5000 I1.5000 J-0.0000 F500.00
G1 X11.0000 Y12.5000 Z-6.5000 F500.00
G2 X12.0607 Y12.0607 Z-6.5000 I-0.0000 J-1.5000 F500.00
G1 X12.0607 Y12.0607 Z-7.0000 F100.00
G2 X12.5000 Y11.0000 Z-7.0000 I-1.0607 J-1.0607 F500.00
G1 X12.5000 Y7.5000 Z-7.0000 F500.00
G2 X11.0847 Y6.0000 Z-7.0000 I-1.5045 J0.0019 F500.00
G2 X12.5000 Y4.5000 Z-7.0000 I-0.0899 J-1.5025 F500.00
G1 X12.5000 Y1.0000 Z-7.0000 F500.00
G2 X11.0000 Y-0.5000 Z-7.0000 I-1.5000 J0.0000 F500.00
G1 X1.0000 Y-0.5000 Z-7.0000 F500.00
G2 X-0.5000 Y1.0000 Z-7.0000 I0.0000 J1.5000 F500.00
G1 X-0.5000 Y11.0000 Z-7.0000 F500.00
G2 X1.0000 Y12.5000 Z-7.0000 I1.5000 J-0.0000 F500.00
G1 X11.0000 Y12.5000 Z-7.0000 F500.00
G2 X12.0607 Y12.0607 Z-7.0000 I-0.0000 J-1.5000 F500.00
G1 X12.0607 Y12.0607 Z-7.5000 F100.00
G2 X12.5000 Y11.0000 Z-7.5000 I-1.0607 J-1.0607 F500.00
G1 X12.5000 Y7.5000 Z-7.5000 F500.00
G2 X11.0847 Y6.0000 Z-7.5000 I-1.5045 J0.0019 F500.00
G2 X12.5000 Y4.5000 Z-7.5000 I-0.0899 J-1.5025 F500.00
G1 X12.5000 Y1.0000 Z-7.5000 F500.00
G2 X11.0000 Y-0.5000 Z-7.5000 I-1.5000 J0.0000 F500.00
G1 X1.0000 Y-0.5000 Z-7.5000 F500.00
G2 X-0.5000 Y1.0000 Z-7.5000 I0.0000 J1.5000 F500.00
G1 X-0.5000 Y11.0000 Z-7.5000 F500.00
G2 X1.0000 Y12.5000 Z-7.5000 I1.5000 J-0.0000 F500.00
G1 X11.0000 Y12.5000 Z-7.5000 F500.00
G2 X12.0607 Y12.0607 Z-7.5000 I-0.0000 J-1.5000 F500.00
G1 X12.0607 Y12.0607 Z-8.0000 F100.00
G2 X12.5000 Y11.0000 Z-8.0000 I-1.0607 J-1.0607 F500.00
G1 X12.5000 Y7.5000 Z-8.0000 F500.00
G2 X11.0847 Y6.0000 Z-8.0000 I-1.5045 J0.0019 F500.00
G2 X12.5000 Y4.5000 Z-8.0000 I-0.0899 J-1.5025 F500.00
G1 X12.5000 Y1.0000 Z-8.0000 F500.00
G2 X11.0000 Y-0.5000 Z-8.0000 I-1.5000 J0.0000 F500.00
G1 X1.0000 Y-0.5000 Z-8.0000 F500.00
G2 X-0.5000 Y1.0000 Z-8.0000 I0.0000 J1.5000 F500.00
G1 X-0.5000 Y11.0000 Z-8.0000 F500.00
G2 X1.0000 Y12.5000 Z-8.0000 I1.5000 J-0.0000 F500.00
G1 X11.0000 Y12.5000 Z-8.0000 F500.00
G2 X12.0607 Y12.0607 Z-8.0000 I-0.0000 J-1.5000 F500.00
G0 Z5.0000
G0 X12.0607 Y12.0607
G0 Z3.0000
G1 X12.0607 Y12.0607 Z-2.5000 F100.00
G2 X12.5000 Y11.0000 Z-2.5000 I-1.0607 J-1.0607 F500.00
G1 X12.5000 Y1.0000 Z-2.5000 F500.00
G2 X11.0000 Y-0.5000 Z-2.5000 I-1.5000 J0.0000 F500.00
G1 X1.0000 Y-0.5000 Z-2.5000 F500.00
G2 X-0.5000 Y1.0000 Z-2.5000 I0.0000 J1.5000 F500.00
G1 X-0.5000 Y11.0000 Z-2.5000 F500.00
G2 X1.0000 Y12.5000 Z-2.5000 I1.5000 J-0.0000 F500.00
G1 X11.0000 Y12.5000 Z-2.5000 F500.00
G2 X12.0607 Y12.0607 Z-2.5000 I-0.0000 J-1.5000 F500.00
G1 X12.0607 Y12.0607 Z-3.0000 F100.00
G2 X12.5000 Y11.0000 Z-3.0000 I-1.0607 J-1.0607 F500.00
G1 X12.5000 Y1.0000 Z-3.0000 F500.00
G2 X11.0000 Y-0.5000 Z-3.0000 I-1.5000 J0.0000 F500.00
G1 X1.0000 Y-0.5000 Z-3.0000 F500.00
G2 X-0.5000 Y1.0000 Z-3.0000 I0.0000 J1.5000 F500.00
G1 X-0.5000 Y11.0000 Z-3.0000 F500.00
G2 X1.0000 Y12.5000 Z-3.0000 I1.5000 J-0.0000 F500.00
G1 X11.0000 Y12.5000 Z-3.0000 F500.00
G2 X12.0607 Y12.0607 Z-3.0000 I-0.0000 J-1.5000 F500.00
G1 X12.0607 Y12.0607 Z-3.5000 F100.00
G2 X12.5000 Y11.0000 Z-3.5000 I-1.0607 J-1.0607 F500.00
G1 X12.5000 Y1.0000 Z-3.5000 F500.00
G2 X11.0000 Y-0.5000 Z-3.5000 I-1.5000 J0.0000 F500.00
G1 X1.0000 Y-0.5000 Z-3.5000 F500.00
G2 X-0.5000 Y1.0000 Z-3.5000 I0.0000 J1.5000 F500.00
G1 X-0.5000 Y11.0000 Z-3.5000 F500.00
G2 X1.0000 Y12.5000 Z-3.5000 I1.5000 J-0.0000 F500.00
G1 X11.0000 Y12.5000 Z-3.5000 F500.00
G2 X12.0607 Y12.0607 Z-3.5000 I-0.0000 J-1.5000 F500.00
G1 X12.0607 Y12.0607 Z-4.0000 F100.00
G2 X12.5000 Y11.0000 Z-4.0000 I-1.0607 J-1.0607 F500.00
G1 X12.5000 Y1.0000 Z-4.0000 F500.00
G2 X11.0000 Y-0.5000 Z-4.0000 I-1.5000 J0.0000 F500.00
G1 X1.0000 Y-0.5000 Z-4.0000 F500.00
G2 X-0.5000 Y1.0000 Z-4.0000 I0.0000 J1.5000 F500.00
G1 X-0.5000 Y11.0000 Z-4.0000 F500.00
G2 X1.0000 Y12.5000 Z-4.0000 I1.5000 J-0.0000 F500.00
G1 X11.0000 Y12.5000 Z-4.0000 F500.00
G2 X12.0607 Y12.0607 Z-4.0000 I-0.0000 J-1.5000 F500.00
G1 X12.0607 Y12.0607 Z-4.5000 F100.00
G2 X12.5000 Y11.0000 Z-4.5000 I-1.0607 J-1.0607 F500.00
G1 X12.5000 Y1.0000 Z-4.5000 F500.00
G2 X11.0000 Y-0.5000 Z-4.5000 I-1.5000 J0.0000 F500.00
G1 X1.0000 Y-0.5000 Z-4.5000 F500.00
G2 X-0.5000 Y1.0000 Z-4.5000 I0.0000 J1.5000 F500.00
G1 X-0.5000 Y11.0000 Z-4.5000 F500.00
G2 X1.0000 Y12.5000 Z-4.5000 I1.5000 J-0.0000 F500.00
G1 X11.0000 Y12.5000 Z-4.5000 F500.00
G2 X12.0607 Y12.0607 Z-4.5000 I-0.0000 J-1.5000 F500.00
G1 X12.0607 Y12.0607 Z-5.0000 F100.00
G2 X12.5000 Y11.0000 Z-5.0000 I-1.0607 J-1.0607 F500.00
G1 X12.5000 Y1.0000 Z-5.0000 F500.00
G2 X11.0000 Y-0.5000 Z-5.0000 I-1.5000 J0.0000 F500.00
G1 X1.0000 Y-0.5000 Z-5.0000 F500.00
G2 X-0.5000 Y1.0000 Z-5.0000 I0.0000 J1.5000 F500.00
G1 X-0.5000 Y11.0000 Z-5.0000 F500.00
G2 X1.0000 Y12.5000 Z-5.0000 I1.5000 J-0.0000 F500.00
G1 X11.0000 Y12.5000 Z-5.0000 F500.00
G2 X12.0607 Y12.0607 Z-5.0000 I-0.0000 J-1.5000 F500.00
G1 X12.0607 Y12.0607 Z-5.5000 F100.00
G2 X12.5000 Y11.0000 Z-5.5000 I-1.0607 J-1.0607 F500.00
G1 X12.5000 Y1.0000 Z-5.5000 F500.00
G2 X11.0000 Y-0.5000 Z-5.5000 I-1.5000 J0.0000 F500.00
G1 X1.0000 Y-0.5000 Z-5.5000 F500.00
G2 X-0.5000 Y1.0000 Z-5.5000 I0.0000 J1.5000 F500.00
G1 X-0.5000 Y11.0000 Z-5.5000 F500.00
G2 X1.0000 Y12.5000 Z-5.5000 I1.5000 J-0.0000 F500.00
G1 X11.0000 Y12.5000 Z-5.5000 F500.00
G2 X12.0607 Y12.0607 Z-5.5000 I-0.0000 J-1.5000 F500.00
G1 X12.0607 Y12.0607 Z-6.0000 F100.00
G2 X12.5000 Y11.0000 Z-6.0000 I-1.0607 J-1.0607 F500.00
G1 X12.5000 Y1.0000 Z-6.0000 F500.00
G2 X11.0000 Y-0.5000 Z-6.0000 I-1.5000 J0.0000 F500.00
G1 X1.0000 Y-0.5000 Z-6.0000 F500.00
G2 X-0.5000 Y1.0000 Z-6.0000 I0.0000 J1.5000 F500.00
G1 X-0.5000 Y11.0000 Z-6.0000 F500.00
G2 X1.0000 Y12.5000 Z-6.0000 I1.5000 J-0.0000 F500.00
G1 X11.0000 Y12.5000 Z-6.0000 F500.00
G2 X12.0607 Y12.0607 Z-6.0000 I-0.0000 J-1.5000 F500.00
G1 X12.0607 Y12.0607 Z-6.5000 F100.00
G2 X12.5000 Y11.0000 Z-6.5000 I-1.0607 J-1.0607 F500.00
G1 X12.5000 Y1.0000 Z-6.5000 F500.00
G2 X11.0000 Y-0.5000 Z-6.5000 I-1.5000 J0.0000 F500.00
G1 X1.0000 Y-0.5000 Z-6.5000 F500.00
G2 X-0.5000 Y1.0000 Z-6.5000 I0.0000 J1.5000 F500.00
G1 X-0.5000 Y11.0000 Z-6.5000 F500.00
G2 X1.0000 Y12.5000 Z-6.5000 I1.5000 J-0.0000 F500.00
G1 X11.0000 Y12.5000 Z-6.5000 F500.00
G2 X12.0607 Y12.0607 Z-6.5000 I-0.0000 J-1.5000 F500.00
G1 X12.0607 Y12.0607 Z-7.0000 F100.00
G2 X12.5000 Y11.0000 Z-7.0000 I-1.0607 J-1.0607 F500.00
G1 X12.5000 Y1.0000 Z-7.0000 F500.00
G2 X11.0000 Y-0.5000 Z-7.0000 I-1.5000 J0.0000 F500.00
G1 X1.0000 Y-0.5000 Z-7.0000 F500.00
G2 X-0.5000 Y1.0000 Z-7.0000 I0.0000 J1.5000 F500.00
G1 X-0.5000 Y11.0000 Z-7.0000 F500.00
G2 X1.0000 Y12.5000 Z-7.0000 I1.5000 J-0.0000 F500.00
G1 X11.0000 Y12.5000 Z-7.0000 F500.00
G2 X12.0607 Y12.0607 Z-7.0000 I-0.0000 J-1.5000 F500.00
G1 X12.0607 Y12.0607 Z-7.5000 F100.00
G2 X12.5000 Y11.0000 Z-7.5000 I-1.0607 J-1.0607 F500.00
G1 X12.5000 Y1.0000 Z-7.5000 F500.00
G2 X11.0000 Y-0.5000 Z-7.5000 I-1.5000 J0.0000 F500.00
G1 X1.0000 Y-0.5000 Z-7.5000 F500.00
G2 X-0.5000 Y1.0000 Z-7.5000 I0.0000 J1.5000 F500.00
G1 X-0.5000 Y11.0000 Z-7.5000 F500.00
G2 X1.0000 Y12.5000 Z-7.5000 I1.5000 J-0.0000 F500.00
G1 X11.0000 Y12.5000 Z-7.5000 F500.00
G2 X12.0607 Y12.0607 Z-7.5000 I-0.0000 J-1.5000 F500.00
G1 X12.0607 Y12.0607 Z-8.0000 F100.00
G2 X12.5000 Y11.0000 Z-8.0000 I-1.0607 J-1.0607 F500.00
G1 X12.5000 Y1.0000 Z-8.0000 F500.00
G2 X11.0000 Y-0.5000 Z-8.0000 I-1.5000 J0.0000 F500.00
G1 X1.0000 Y-0.5000 Z-8.0000 F500.00
G2 X-0.5000 Y1.0000 Z-8.0000 I0.0000 J1.5000 F500.00
G1 X-0.5000 Y11.0000 Z-8.0000 F500.00
G2 X1.0000 Y12.5000 Z-8.0000 I1.5000 J-0.0000 F500.00
G1 X11.0000 Y12.5000 Z-8.0000 F500.00
G2 X12.0607 Y12.0607 Z-8.0000 I-0.0000 J-1.5000 F500.00
G0 Z5.0000
(finish operation: square_contour001)
(begin operation: round_contour001)
(Path: round_contour001)
(round_contour001)
(Compensated Tool Path. Diameter: 3.0)
G0 Z5.0000
G0 X9.5688 Y9.5688
G0 Z3.0000
G1 X9.5688 Y9.5688 Z-2.2000 F100.00
G2 X7.0135 Y1.0558 Z-2.2000 I-3.5688 J-3.5688 F500.00
G2 X1.0558 Y4.9865 Z-2.2000 I-1.0135 J4.9442 F500.00
G2 X4.9865 Y10.9442 Z-2.2000 I4.9442 J1.0135 F500.00
G2 X9.5688 Y9.5688 Z-2.2000 I1.0135 J-4.9442 F500.00
G1 X9.5688 Y9.5688 Z-2.4000 F100.00
G2 X7.0135 Y1.0558 Z-2.4000 I-3.5688 J-3.5688 F500.00
G2 X1.0558 Y4.9865 Z-2.4000 I-1.0135 J4.9442 F500.00
G2 X4.9865 Y10.9442 Z-2.4000 I4.9442 J1.0135 F500.00
G2 X9.5688 Y9.5688 Z-2.4000 I1.0135 J-4.9442 F500.00
G1 X9.5688 Y9.5688 Z-2.6000 F100.00
G2 X7.0135 Y1.0558 Z-2.6000 I-3.5688 J-3.5688 F500.00
G2 X1.0558 Y4.9865 Z-2.6000 I-1.0135 J4.9442 F500.00
G2 X4.9865 Y10.9442 Z-2.6000 I4.9442 J1.0135 F500.00
G2 X9.5688 Y9.5688 Z-2.6000 I1.0135 J-4.9442 F500.00
G1 X9.5688 Y9.5688 Z-2.8000 F100.00
G2 X7.0135 Y1.0558 Z-2.8000 I-3.5688 J-3.5688 F500.00
G2 X1.0558 Y4.9865 Z-2.8000 I-1.0135 J4.9442 F500.00
G2 X4.9865 Y10.9442 Z-2.8000 I4.9442 J1.0135 F500.00
G2 X9.5688 Y9.5688 Z-2.8000 I1.0135 J-4.9442 F500.00
G1 X9.5688 Y9.5688 Z-3.0000 F100.00
G2 X7.0135 Y1.0558 Z-3.0000 I-3.5688 J-3.5688 F500.00
G2 X1.0558 Y4.9865 Z-3.0000 I-1.0135 J4.9442 F500.00
G2 X4.9865 Y10.9442 Z-3.0000 I4.9442 J1.0135 F500.00
G2 X9.5688 Y9.5688 Z-3.0000 I1.0135 J-4.9442 F500.00
G1 X9.5688 Y9.5688 Z-3.2000 F100.00
G2 X7.0135 Y1.0558 Z-3.2000 I-3.5688 J-3.5688 F500.00
G2 X1.0558 Y4.9865 Z-3.2000 I-1.0135 J4.9442 F500.00
G2 X4.9865 Y10.9442 Z-3.2000 I4.9442 J1.0135 F500.00
G2 X9.5688 Y9.5688 Z-3.2000 I1.0135 J-4.9442 F500.00
G1 X9.5688 Y9.5688 Z-3.4000 F100.00
G2 X7.0135 Y1.0558 Z-3.4000 I-3.5688 J-3.5688 F500.00
G2 X1.0558 Y4.9865 Z-3.4000 I-1.0135 J4.9442 F500.00
G2 X4.9865 Y10.9442 Z-3.4000 I4.9442 J1.0135 F500.00
G2 X9.5688 Y9.5688 Z-3.4000 I1.0135 J-4.9442 F500.00
G1 X9.5688 Y9.5688 Z-3.6000 F100.00
G2 X7.0135 Y1.0558 Z-3.6000 I-3.5688 J-3.5688 F500.00
G2 X1.0558 Y4.9865 Z-3.6000 I-1.0135 J4.9442 F500.00
G2 X4.9865 Y10.9442 Z-3.6000 I4.9442 J1.0135 F500.00
G2 X9.5688 Y9.5688 Z-3.6000 I1.0135 J-4.9442 F500.00
G1 X9.5688 Y9.5688 Z-3.8000 F100.00
G2 X7.0135 Y1.0558 Z-3.8000 I-3.5688 J-3.5688 F500.00
G2 X1.0558 Y4.9865 Z-3.8000 I-1.0135 J4.9442 F500.00
G2 X4.9865 Y10.9442 Z-3.8000 I4.9442 J1.0135 F500.00
G2 X9.5688 Y9.5688 Z-3.8000 I1.0135 J-4.9442 F500.00
G1 X9.5688 Y9.5688 Z-4.0000 F100.00
G2 X7.0135 Y1.0558 Z-4.0000 I-3.5688 J-3.5688 F500.00
G2 X1.0558 Y4.9865 Z-4.0000 I-1.0135 J4.9442 F500.00
G2 X4.9865 Y10.9442 Z-4.0000 I4.9442 J1.0135 F500.00
G2 X9.5688 Y9.5688 Z-4.0000 I1.0135 J-4.9442 F500.00
G1 X9.5688 Y9.5688 Z-4.2000 F100.00
G2 X7.0135 Y1.0558 Z-4.2000 I-3.5688 J-3.5688 F500.00
G2 X1.0558 Y4.9865 Z-4.2000 I-1.0135 J4.9442 F500.00
G2 X4.9865 Y10.9442 Z-4.2000 I4.9442 J1.0135 F500.00
G2 X9.5688 Y9.5688 Z-4.2000 I1.0135 J-4.9442 F500.00
G1 X9.5688 Y9.5688 Z-4.4000 F100.00
G2 X7.0135 Y1.0558 Z-4.4000 I-3.5688 J-3.5688 F500.00
G2 X1.0558 Y4.9865 Z-4.4000 I-1.0135 J4.9442 F500.00
G2 X4.9865 Y10.9442 Z-4.4000 I4.9442 J1.0135 F500.00
G2 X9.5688 Y9.5688 Z-4.4000 I1.0135 J-4.9442 F500.00
G1 X9.5688 Y9.5688 Z-4.6000 F100.00
G2 X7.0135 Y1.0558 Z-4.6000 I-3.5688 J-3.5688 F500.00
G2 X1.0558 Y4.9865 Z-4.6000 I-1.0135 J4.9442 F500.00
G2 X4.9865 Y10.9442 Z-4.6000 I4.9442 J1.0135 F500.00
G2 X9.5688 Y9.5688 Z-4.6000 I1.0135 J-4.9442 F500.00
G1 X9.5688 Y9.5688 Z-4.8000 F100.00
G2 X7.0135 Y1.0558 Z-4.8000 I-3.5688 J-3.5688 F500.00
G2 X1.0558 Y4.9865 Z-4.8000 I-1.0135 J4.9442 F500.00
G2 X4.9865 Y10.9442 Z-4.8000 I4.9442 J1.0135 F500.00
G2 X9.5688 Y9.5688 Z-4.8000 I1.0135 J-4.9442 F500.00
G1 X9.5688 Y9.5688 Z-5.0000 F100.00
G2 X7.0135 Y1.0558 Z-5.0000 I-3.5688 J-3.5688 F500.00
G2 X1.0558 Y4.9865 Z-5.0000 I-1.0135 J4.9442 F500.00
G2 X4.9865 Y10.9442 Z-5.0000 I4.9442 J1.0135 F500.00
G2 X9.5688 Y9.5688 Z-5.0000 I1.0135 J-4.9442 F500.00
G1 X9.5688 Y9.5688 Z-5.2000 F100.00
G2 X7.0135 Y1.0558 Z-5.2000 I-3.5688 J-3.5688 F500.00
G2 X1.0558 Y4.9865 Z-5.2000 I-1.0135 J4.9442 F500.00
G2 X4.9865 Y10.9442 Z-5.2000 I4.9442 J1.0135 F500.00
G2 X9.5688 Y9.5688 Z-5.2000 I1.0135 J-4.9442 F500.00
G1 X9.5688 Y9.5688 Z-5.4000 F100.00
G2 X7.0135 Y1.0558 Z-5.4000 I-3.5688 J-3.5688 F500.00
G2 X1.0558 Y4.9865 Z-5.4000 I-1.0135 J4.9442 F500.00
G2 X4.9865 Y10.9442 Z-5.4000 I4.9442 J1.0135 F500.00
G2 X9.5688 Y9.5688 Z-5.4000 I1.0135 J-4.9442 F500.00
G1 X9.5688 Y9.5688 Z-5.6000 F100.00
G2 X7.0135 Y1.0558 Z-5.6000 I-3.5688 J-3.5688 F500.00
G2 X1.0558 Y4.9865 Z-5.6000 I-1.0135 J4.9442 F500.00
G2 X4.9865 Y10.9442 Z-5.6000 I4.9442 J1.0135 F500.00
G2 X9.5688 Y9.5688 Z-5.6000 I1.0135 J-4.9442 F500.00
G1 X9.5688 Y9.5688 Z-5.8000 F100.00
G2 X7.0135 Y1.0558 Z-5.8000 I-3.5688 J-3.5688 F500.00
G2 X1.0558 Y4.9865 Z-5.8000 I-1.0135 J4.9442 F500.00
G2 X4.9865 Y10.9442 Z-5.8000 I4.9442 J1.0135 F500.00
G2 X9.5688 Y9.5688 Z-5.8000 I1.0135 J-4.9442 F500.00
G1 X9.5688 Y9.5688 Z-6.0000 F100.00
G2 X7.0135 Y1.0558 Z-6.0000 I-3.5688 J-3.5688 F500.00
G2 X1.0558 Y4.9865 Z-6.0000 I-1.0135 J4.9442 F500.00
G2 X4.9865 Y10.9442 Z-6.0000 I4.9442 J1.0135 F500.00
G2 X9.5688 Y9.5688 Z-6.0000 I1.0135 J-4.9442 F500.00
G1 X9.5688 Y9.5688 Z-6.2000 F100.00
G2 X7.0135 Y1.0558 Z-6.2000 I-3.5688 J-3.5688 F500.00
G2 X1.0558 Y4.9865 Z-6.2000 I-1.0135 J4.9442 F500.00
G2 X4.9865 Y10.9442 Z-6.2000 I4.9442 J1.0135 F500.00
G2 X9.5688 Y9.5688 Z-6.2000 I1.0135 J-4.9442 F500.00
G1 X9.5688 Y9.5688 Z-6.4000 F100.00
G2 X7.0135 Y1.0558 Z-6.4000 I-3.5688 J-3.5688 F500.00
G2 X1.0558 Y4.9865 Z-6.4000 I-1.0135 J4.9442 F500.00
G2 X4.9865 Y10.9442 Z-6.4000 I4.9442 J1.0135 F500.00
G2 X9.5688 Y9.5688 Z-6.4000 I1.0135 J-4.9442 F500.00
G1 X9.5688 Y9.5688 Z-6.6000 F100.00
G2 X7.0135 Y1.0558 Z-6.6000 I-3.5688 J-3.5688 F500.00
G2 X1.0558 Y4.9865 Z-6.6000 I-1.0135 J4.9442 F500.00
G2 X4.9865 Y10.9442 Z-6.6000 I4.9442 J1.0135 F500.00
G2 X9.5688 Y9.5688 Z-6.6000 I1.0135 J-4.9442 F500.00
G1 X9.5688 Y9.5688 Z-6.8000 F100.00
G2 X7.0135 Y1.0558 Z-6.8000 I-3.5688 J-3.5688 F500.00
G2 X1.0558 Y4.9865 Z-6.8000 I-1.0135 J4.9442 F500.00
G2 X4.9865 Y10.9442 Z-6.8000 I4.9442 J1.0135 F500.00
G2 X9.5688 Y9.5688 Z-6.8000 I1.0135 J-4.9442 F500.00
G1 X9.5688 Y9.5688 Z-7.0000 F100.00
G2 X7.0135 Y1.0558 Z-7.0000 I-3.5688 J-3.5688 F500.00
G2 X1.0558 Y4.9865 Z-7.0000 I-1.0135 J4.9442 F500.00
G2 X4.9865 Y10.9442 Z-7.0000 I4.9442 J1.0135 F500.00
G2 X9.5688 Y9.5688 Z-7.0000 I1.0135 J-4.9442 F500.00
G1 X9.5688 Y9.5688 Z-7.2000 F100.00
G2 X7.0135 Y1.0558 Z-7.2000 I-3.5688 J-3.5688 F500.00
G2 X1.0558 Y4.9865 Z-7.2000 I-1.0135 J4.9442 F500.00
G2 X4.9865 Y10.9442 Z-7.2000 I4.9442 J1.0135 F500.00
G2 X9.5688 Y9.5688 Z-7.2000 I1.0135 J-4.9442 F500.00
G1 X9.5688 Y9.5688 Z-7.4000 F100.00
G2 X7.0135 Y1.0558 Z-7.4000 I-3.5688 J-3.5688 F500.00
G2 X1.0558 Y4.9865 Z-7.4000 I-1.0135 J4.9442 F500.00
G2 X4.9865 Y10.9442 Z-7.4000 I4.9442 J1.0135 F500.00
G2 X9.5688 Y9.5688 Z-7.4000 I1.0135 J-4.9442 F500.00
G1 X9.5688 Y9.5688 Z-7.6000 F100.00
G2 X7.0135 Y1.0558 Z-7.6000 I-3.5688 J-3.5688 F500.00
G2 X1.0558 Y4.9865 Z-7.6000 I-1.0135 J4.9442 F500.00
G2 X4.9865 Y10.9442 Z-7.6000 I4.9442 J1.0135 F500.00
G2 X9.5688 Y9.5688 Z-7.6000 I1.0135 J-4.9442 F500.00
G1 X9.5688 Y9.5688 Z-7.8000 F100.00
G2 X7.0135 Y1.0558 Z-7.8000 I-3.5688 J-3.5688 F500.00
G2 X1.0558 Y4.9865 Z-7.8000 I-1.0135 J4.9442 F500.00
G2 X4.9865 Y10.9442 Z-7.8000 I4.9442 J1.0135 F500.00
G2 X9.5688 Y9.5688 Z-7.8000 I1.0135 J-4.9442 F500.00
G1 X9.5688 Y9.5688 Z-8.0000 F100.00
G2 X7.0135 Y1.0558 Z-8.0000 I-3.5688 J-3.5688 F500.00
G2 X1.0558 Y4.9865 Z-8.0000 I-1.0135 J4.9442 F500.00
G2 X4.9865 Y10.9442 Z-8.0000 I4.9442 J1.0135 F500.00
G2 X9.5688 Y9.5688 Z-8.0000 I1.0135 J-4.9442 F500.00
G0 Z5.0000
(finish operation: round_contour001)
(begin operation: square_contour002)
(Path: square_contour002)
(square_contour002)
(Compensated Tool Path. Diameter: 3.0)
G0 Z5.0000
G0 X12.0607 Y12.0607
G0 Z3.0000
G1 X12.0607 Y12.0607 Z-8.5000 F100.00
G2 X12.5000 Y11.0000 Z-8.5000 I-1.0607 J-1.0607 F500.00
G1 X12.5000 Y7.5000 Z-8.5000 F500.00
G2 X11.0847 Y6.0000 Z-8.5000 I-1.5045 J0.0019 F500.00
G2 X12.5000 Y4.5000 Z-8.5000 I-0.0899 J-1.5025 F500.00
G1 X12.5000 Y1.0000 Z-8.5000 F500.00
G2 X11.0000 Y-0.5000 Z-8.5000 I-1.5000 J0.0000 F500.00
G1 X1.0000 Y-0.5000 Z-8.5000 F500.00
G2 X-0.5000 Y1.0000 Z-8.5000 I0.0000 J1.5000 F500.00
G1 X-0.5000 Y11.0000 Z-8.5000 F500.00
G2 X1.0000 Y12.5000 Z-8.5000 I1.5000 J-0.0000 F500.00
G1 X11.0000 Y12.5000 Z-8.5000 F500.00
G2 X12.0607 Y12.0607 Z-8.5000 I-0.0000 J-1.5000 F500.00
G1 X12.0607 Y12.0607 Z-9.0000 F100.00
G2 X12.5000 Y11.0000 Z-9.0000 I-1.0607 J-1.0607 F500.00
G1 X12.5000 Y7.5000 Z-9.0000 F500.00
G2 X11.0847 Y6.0000 Z-9.0000 I-1.5045 J0.0019 F500.00
G2 X12.5000 Y4.5000 Z-9.0000 I-0.0899 J-1.5025 F500.00
G1 X12.5000 Y1.0000 Z-9.0000 F500.00
G2 X11.0000 Y-0.5000 Z-9.0000 I-1.5000 J0.0000 F500.00
G1 X1.0000 Y-0.5000 Z-9.0000 F500.00
G2 X-0.5000 Y1.0000 Z-9.0000 I0.0000 J1.5000 F500.00
G1 X-0.5000 Y11.0000 Z-9.0000 F500.00
G2 X1.0000 Y12.5000 Z-9.0000 I1.5000 J-0.0000 F500.00
G1 X11.0000 Y12.5000 Z-9.0000 F500.00
G2 X12.0607 Y12.0607 Z-9.0000 I-0.0000 J-1.5000 F500.00
G1 X12.0607 Y12.0607 Z-9.5000 F100.00
G2 X12.5000 Y11.0000 Z-9.5000 I-1.0607 J-1.0607 F500.00
G1 X12.5000 Y7.5000 Z-9.5000 F500.00
G2 X11.0847 Y6.0000 Z-9.5000 I-1.5045 J0.0019 F500.00
G2 X12.5000 Y4.5000 Z-9.5000 I-0.0899 J-1.5025 F500.00
G1 X12.5000 Y1.0000 Z-9.5000 F500.00
G2 X11.0000 Y-0.5000 Z-9.5000 I-1.5000 J0.0000 F500.00
G1 X1.0000 Y-0.5000 Z-9.5000 F500.00
G2 X-0.5000 Y1.0000 Z-9.5000 I0.0000 J1.5000 F500.00
G1 X-0.5000 Y11.0000 Z-9.5000 F500.00
G2 X1.0000 Y12.5000 Z-9.5000 I1.5000 J-0.0000 F500.00
G1 X11.0000 Y12.5000 Z-9.5000 F500.00
G2 X12.0607 Y12.0607 Z-9.5000 I-0.0000 J-1.5000 F500.00
G1 X12.0607 Y12.0607 Z-10.0000 F100.00
G2 X12.5000 Y11.0000 Z-10.0000 I-1.0607 J-1.0607 F500.00
G1 X12.5000 Y7.5000 Z-10.0000 F500.00
G2 X11.0847 Y6.0000 Z-10.0000 I-1.5045 J0.0019 F500.00
G2 X12.5000 Y4.5000 Z-10.0000 I-0.0899 J-1.5025 F500.00
G1 X12.5000 Y1.0000 Z-10.0000 F500.00
G2 X11.0000 Y-0.5000 Z-10.0000 I-1.5000 J0.0000 F500.00
G1 X1.0000 Y-0.5000 Z-10.0000 F500.00
G2 X-0.5000 Y1.0000 Z-10.0000 I0.0000 J1.5000 F500.00
G1 X-0.5000 Y11.0000 Z-10.0000 F500.00
G2 X1.0000 Y12.5000 Z-10.0000 I1.5000 J-0.0000 F500.00
G1 X11.0000 Y12.5000 Z-10.0000 F500.00
G2 X12.0607 Y12.0607 Z-10.0000 I-0.0000 J-1.5000 F500.00
G1 X12.0607 Y12.0607 Z-10.5000 F100.00
G2 X12.5000 Y11.0000 Z-10.5000 I-1.0607 J-1.0607 F500.00
G1 X12.5000 Y7.5000 Z-10.5000 F500.00
G2 X11.0847 Y6.0000 Z-10.5000 I-1.5045 J0.0019 F500.00
G2 X12.5000 Y4.5000 Z-10.5000 I-0.0899 J-1.5025 F500.00
G1 X12.5000 Y1.0000 Z-10.5000 F500.00
G2 X11.0000 Y-0.5000 Z-10.5000 I-1.5000 J0.0000 F500.00
G1 X1.0000 Y-0.5000 Z-10.5000 F500.00
G2 X-0.5000 Y1.0000 Z-10.5000 I0.0000 J1.5000 F500.00
G1 X-0.5000 Y11.0000 Z-10.5000 F500.00
G2 X1.0000 Y12.5000 Z-10.5000 I1.5000 J-0.0000 F500.00
G1 X11.0000 Y12.5000 Z-10.5000 F500.00
G2 X12.0607 Y12.0607 Z-10.5000 I-0.0000 J-1.5000 F500.00
G1 X12.0607 Y12.0607 Z-11.0000 F100.00
G2 X12.5000 Y11.0000 Z-11.0000 I-1.0607 J-1.0607 F500.00
G1 X12.5000 Y7.5000 Z-11.0000 F500.00
G2 X11.0847 Y6.0000 Z-11.0000 I-1.5045 J0.0019 F500.00
G2 X12.5000 Y4.5000 Z-11.0000 I-0.0899 J-1.5025 F500.00
G1 X12.5000 Y1.0000 Z-11.0000 F500.00
G2 X11.0000 Y-0.5000 Z-11.0000 I-1.5000 J0.0000 F500.00
G1 X1.0000 Y-0.5000 Z-11.0000 F500.00
G2 X-0.5000 Y1.0000 Z-11.0000 I0.0000 J1.5000 F500.00
G1 X-0.5000 Y11.0000 Z-11.0000 F500.00
G2 X1.0000 Y12.5000 Z-11.0000 I1.5000 J-0.0000 F500.00
G1 X11.0000 Y12.5000 Z-11.0000 F500.00
G2 X12.0607 Y12.0607 Z-11.0000 I-0.0000 J-1.5000 F500.00
G1 X12.0607 Y12.0607 Z-11.5000 F100.00
G2 X12.5000 Y11.0000 Z-11.5000 I-1.0607 J-1.0607 F500.00
G1 X12.5000 Y7.5000 Z-11.5000 F500.00
G2 X11.0847 Y6.0000 Z-11.5000 I-1.5045 J0.0019 F500.00
G2 X12.5000 Y4.5000 Z-11.5000 I-0.0899 J-1.5025 F500.00
G1 X12.5000 Y1.0000 Z-11.5000 F500.00
G2 X11.0000 Y-0.5000 Z-11.5000 I-1.5000 J0.0000 F500.00
G1 X1.0000 Y-0.5000 Z-11.5000 F500.00
G2 X-0.5000 Y1.0000 Z-11.5000 I0.0000 J1.5000 F500.00
G1 X-0.5000 Y11.0000 Z-11.5000 F500.00
G2 X1.0000 Y12.5000 Z-11.5000 I1.5000 J-0.0000 F500.00
G1 X11.0000 Y12.5000 Z-11.5000 F500.00
G2 X12.0607 Y12.0607 Z-11.5000 I-0.0000 J-1.5000 F500.00
G1 X12.0607 Y12.0607 Z-12.0000 F100.00
G2 X12.5000 Y11.0000 Z-12.0000 I-1.0607 J-1.0607 F500.00
G1 X12.5000 Y7.5000 Z-12.0000 F500.00
G2 X11.0847 Y6.0000 Z-12.0000 I-1.5045 J0.0019 F500.00
G2 X12.5000 Y4.5000 Z-12.0000 I-0.0899 J-1.5025 F500.00
G1 X12.5000 Y1.0000 Z-12.0000 F500.00
G2 X11.0000 Y-0.5000 Z-12.0000 I-1.5000 J0.0000 F500.00
G1 X1.0000 Y-0.5000 Z-12.0000 F500.00
G2 X-0.5000 Y1.0000 Z-12.0000 I0.0000 J1.5000 F500.00
G1 X-0.5000 Y11.0000 Z-12.0000 F500.00
G2 X1.0000 Y12.5000 Z-12.0000 I1.5000 J-0.0000 F500.00
G1 X11.0000 Y12.5000 Z-12.0000 F500.00
G2 X12.0607 Y12.0607 Z-12.0000 I-0.0000 J-1.5000 F500.00
G1 X12.0607 Y12.0607 Z-12.5000 F100.00
G2 X12.5000 Y11.0000 Z-12.5000 I-1.0607 J-1.0607 F500.00
G1 X12.5000 Y7.5000 Z-12.5000 F500.00
G2 X11.0847 Y6.0000 Z-12.5000 I-1.5045 J0.0019 F500.00
G2 X12.5000 Y4.5000 Z-12.5000 I-0.0899 J-1.5025 F500.00
G1 X12.5000 Y1.0000 Z-12.5000 F500.00
G2 X11.0000 Y-0.5000 Z-12.5000 I-1.5000 J0.0000 F500.00
G1 X1.0000 Y-0.5000 Z-12.5000 F500.00
G2 X-0.5000 Y1.0000 Z-12.5000 I0.0000 J1.5000 F500.00
G1 X-0.5000 Y11.0000 Z-12.5000 F500.00
G2 X1.0000 Y12.5000 Z-12.5000 I1.5000 J-0.0000 F500.00
G1 X11.0000 Y12.5000 Z-12.5000 F500.00
G2 X12.0607 Y12.0607 Z-12.5000 I-0.0000 J-1.5000 F500.00
G1 X12.0607 Y12.0607 Z-13.0000 F100.00
G2 X12.5000 Y11.0000 Z-13.0000 I-1.0607 J-1.0607 F500.00
G1 X12.5000 Y7.5000 Z-13.0000 F500.00
G2 X11.0847 Y6.0000 Z-13.0000 I-1.5045 J0.0019 F500.00
G2 X12.5000 Y4.5000 Z-13.0000 I-0.0899 J-1.5025 F500.00
G1 X12.5000 Y1.0000 Z-13.0000 F500.00
G2 X11.0000 Y-0.5000 Z-13.0000 I-1.5000 J0.0000 F500.00
G1 X1.0000 Y-0.5000 Z-13.0000 F500.00
G2 X-0.5000 Y1.0000 Z-13.0000 I0.0000 J1.5000 F500.00
G1 X-0.5000 Y11.0000 Z-13.0000 F500.00
G2 X1.0000 Y12.5000 Z-13.0000 I1.5000 J-0.0000 F500.00
G1 X11.0000 Y12.5000 Z-13.0000 F500.00
G2 X12.0607 Y12.0607 Z-13.0000 I-0.0000 J-1.5000 F500.00
G1 X12.0607 Y12.0607 Z-13.5000 F100.00
G2 X12.5000 Y11.0000 Z-13.5000 I-1.0607 J-1.0607 F500.00
G1 X12.5000 Y7.5000 Z-13.5000 F500.00
G2 X11.0847 Y6.0000 Z-13.5000 I-1.5045 J0.0019 F500.00
G2 X12.5000 Y4.5000 Z-13.5000 I-0.0899 J-1.5025 F500.00
G1 X12.5000 Y1.0000 Z-13.5000 F500.00
G2 X11.0000 Y-0.5000 Z-13.5000 I-1.5000 J0.0000 F500.00
G1 X1.0000 Y-0.5000 Z-13.5000 F500.00
G2 X-0.5000 Y1.0000 Z-13.5000 I0.0000 J1.5000 F500.00
G1 X-0.5000 Y11.0000 Z-13.5000 F500.00
G2 X1.0000 Y12.5000 Z-13.5000 I1.5000 J-0.0000 F500.00
G1 X11.0000 Y12.5000 Z-13.5000 F500.00
G2 X12.0607 Y12.0607 Z-13.5000 I-0.0000 J-1.5000 F500.00
G1 X12.0607 Y12.0607 Z-14.0000 F100.00
G2 X12.5000 Y11.0000 Z-14.0000 I-1.0607 J-1.0607 F500.00
G1 X12.5000 Y7.5000 Z-14.0000 F500.00
G2 X11.0847 Y6.0000 Z-14.0000 I-1.5045 J0.0019 F500.00
G2 X12.5000 Y4.5000 Z-14.0000 I-0.0899 J-1.5025 F500.00
G1 X12.5000 Y1.0000 Z-14.0000 F500.00
G2 X11.0000 Y-0.5000 Z-14.0000 I-1.5000 J0.0000 F500.00
G1 X1.0000 Y-0.5000 Z-14.0000 F500.00
G2 X-0.5000 Y1.0000 Z-14.0000 I0.0000 J1.5000 F500.00
G1 X-0.5000 Y11.0000 Z-14.0000 F500.00
G2 X1.0000 Y12.5000 Z-14.0000 I1.5000 J-0.0000 F500.00
G1 X11.0000 Y12.5000 Z-14.0000 F500.00
G2 X12.0607 Y12.0607 Z-14.0000 I-0.0000 J-1.5000 F500.00
G0 Z5.0000
G0 X12.0607 Y12.0607
G0 Z3.0000
G1 X12.0607 Y12.0607 Z-8.5000 F100.00
G2 X12.5000 Y11.0000 Z-8.5000 I-1.0607 J-1.0607 F500.00
G1 X12.5000 Y1.0000 Z-8.5000 F500.00
G2 X11.0000 Y-0.5000 Z-8.5000 I-1.5000 J0.0000 F500.00
G1 X1.0000 Y-0.5000 Z-8.5000 F500.00
G2 X-0.5000 Y1.0000 Z-8.5000 I0.0000 J1.5000 F500.00
G1 X-0.5000 Y11.0000 Z-8.5000 F500.00
G2 X1.0000 Y12.5000 Z-8.5000 I1.5000 J-0.0000 F500.00
G1 X11.0000 Y12.5000 Z-8.5000 F500.00
G2 X12.0607 Y12.0607 Z-8.5000 I-0.0000 J-1.5000 F500.00
G1 X12.0607 Y12.0607 Z-9.0000 F100.00
G2 X12.5000 Y11.0000 Z-9.0000 I-1.0607 J-1.0607 F500.00
G1 X12.5000 Y1.0000 Z-9.0000 F500.00
G2 X11.0000 Y-0.5000 Z-9.0000 I-1.5000 J0.0000 F500.00
G1 X1.0000 Y-0.5000 Z-9.0000 F500.00
G2 X-0.5000 Y1.0000 Z-9.0000 I0.0000 J1.5000 F500.00
G1 X-0.5000 Y11.0000 Z-9.0000 F500.00
G2 X1.0000 Y12.5000 Z-9.0000 I1.5000 J-0.0000 F500.00
G1 X11.0000 Y12.5000 Z-9.0000 F500.00
G2 X12.0607 Y12.0607 Z-9.0000 I-0.0000 J-1.5000 F500.00
G1 X12.0607 Y12.0607 Z-9.5000 F100.00
G2 X12.5000 Y11.0000 Z-9.5000 I-1.0607 J-1.0607 F500.00
G1 X12.5000 Y1.0000 Z-9.5000 F500.00
G2 X11.0000 Y-0.5000 Z-9.5000 I-1.5000 J0.0000 F500.00
G1 X1.0000 Y-0.5000 Z-9.5000 F500.00
G2 X-0.5000 Y1.0000 Z-9.5000 I0.0000 J1.5000 F500.00
G1 X-0.5000 Y11.0000 Z-9.5000 F500.00
G2 X1.0000 Y12.5000 Z-9.5000 I1.5000 J-0.0000 F500.00
G1 X11.0000 Y12.5000 Z-9.5000 F500.00
G2 X12.0607 Y12.0607 Z-9.5000 I-0.0000 J-1.5000 F500.00
G1 X12.0607 Y12.0607 Z-10.0000 F100.00
G2 X12.5000 Y11.0000 Z-10.0000 I-1.0607 J-1.0607 F500.00
G1 X12.5000 Y1.0000 Z-10.0000 F500.00
G2 X11.0000 Y-0.5000 Z-10.0000 I-1.5000 J0.0000 F500.00
G1 X1.0000 Y-0.5000 Z-10.0000 F500.00
G2 X-0.5000 Y1.0000 Z-10.0000 I0.0000 J1.5000 F500.00
G1 X-0.5000 Y11.0000 Z-10.0000 F500.00
G2 X1.0000 Y12.5000 Z-10.0000 I1.5000 J-0.0000 F500.00
G1 X11.0000 Y12.5000 Z-10.0000 F500.00
G2 X12.0607 Y12.0607 Z-10.0000 I-0.0000 J-1.5000 F500.00
G1 X12.0607 Y12.0607 Z-10.5000 F100.00
G2 X12.5000 Y11.0000 Z-10.5000 I-1.0607 J-1.0607 F500.00
G1 X12.5000 Y1.0000 Z-10.5000 F500.00
G2 X11.0000 Y-0.5000 Z-10.5000 I-1.5000 J0.0000 F500.00
G1 X1.0000 Y-0.5000 Z-10.5000 F500.00
G2 X-0.5000 Y1.0000 Z-10.5000 I0.0000 J1.5000 F500.00
G1 X-0.5000 Y11.0000 Z-10.5000 F500.00
G2 X1.0000 Y12.5000 Z-10.5000 I1.5000 J-0.0000 F500.00
G1 X11.0000 Y12.5000 Z-10.5000 F500.00
G2 X12.0607 Y12.0607 Z-10.5000 I-0.0000 J-1.5000 F500.00
G1 X12.0607 Y12.0607 Z-11.0000 F100.00
G2 X12.5000 Y11.0000 Z-11.0000 I-1.0607 J-1.0607 F500.00
G1 X12.5000 Y1.0000 Z-11.0000 F500.00
G2 X11.0000 Y-0.5000 Z-11.0000 I-1.5000 J0.0000 F500.00
G1 X1.0000 Y-0.5000 Z-11.0000 F500.00
G2 X-0.5000 Y1.0000 Z-11.0000 I0.0000 J1.5000 F500.00
G1 X-0.5000 Y11.0000 Z-11.0000 F500.00
G2 X1.0000 Y12.5000 Z-11.0000 I1.5000 J-0.0000 F500.00
G1 X11.0000 Y12.5000 Z-11.0000 F500.00
G2 X12.0607 Y12.0607 Z-11.0000 I-0.0000 J-1.5000 F500.00
G1 X12.0607 Y12.0607 Z-11.5000 F100.00
G2 X12.5000 Y11.0000 Z-11.5000 I-1.0607 J-1.0607 F500.00
G1 X12.5000 Y1.0000 Z-11.5000 F500.00
G2 X11.0000 Y-0.5000 Z-11.5000 I-1.5000 J0.0000 F500.00
G1 X1.0000 Y-0.5000 Z-11.5000 F500.00
G2 X-0.5000 Y1.0000 Z-11.5000 I0.0000 J1.5000 F500.00
G1 X-0.5000 Y11.0000 Z-11.5000 F500.00
G2 X1.0000 Y12.5000 Z-11.5000 I1.5000 J-0.0000 F500.00
G1 X11.0000 Y12.5000 Z-11.5000 F500.00
G2 X12.0607 Y12.0607 Z-11.5000 I-0.0000 J-1.5000 F500.00
G1 X12.0607 Y12.0607 Z-12.0000 F100.00
G2 X12.5000 Y11.0000 Z-12.0000 I-1.0607 J-1.0607 F500.00
G1 X12.5000 Y1.0000 Z-12.0000 F500.00
G2 X11.0000 Y-0.5000 Z-12.0000 I-1.5000 J0.0000 F500.00
G1 X1.0000 Y-0.5000 Z-12.0000 F500.00
G2 X-0.5000 Y1.0000 Z-12.0000 I0.0000 J1.5000 F500.00
G1 X-0.5000 Y11.0000 Z-12.0000 F500.00
G2 X1.0000 Y12.5000 Z-12.0000 I1.5000 J-0.0000 F500.00
G1 X11.0000 Y12.5000 Z-12.0000 F500.00
G2 X12.0607 Y12.0607 Z-12.0000 I-0.0000 J-1.5000 F500.00
G1 X12.0607 Y12.0607 Z-12.5000 F100.00
G2 X12.5000 Y11.0000 Z-12.5000 I-1.0607 J-1.0607 F500.00
G1 X12.5000 Y1.0000 Z-12.5000 F500.00
G2 X11.0000 Y-0.5000 Z-12.5000 I-1.5000 J0.0000 F500.00
G1 X1.0000 Y-0.5000 Z-12.5000 F500.00
G2 X-0.5000 Y1.0000 Z-12.5000 I0.0000 J1.5000 F500.00
G1 X-0.5000 Y11.0000 Z-12.5000 F500.00
G2 X1.0000 Y12.5000 Z-12.5000 I1.5000 J-0.0000 F500.00
G1 X11.0000 Y12.5000 Z-12.5000 F500.00
G2 X12.0607 Y12.0607 Z-12.5000 I-0.0000 J-1.5000 F500.00
G1 X12.0607 Y12.0607 Z-13.0000 F100.00
G2 X12.5000 Y11.0000 Z-13.0000 I-1.0607 J-1.0607 F500.00
G1 X12.5000 Y1.0000 Z-13.0000 F500.00
G2 X11.0000 Y-0.5000 Z-13.0000 I-1.5000 J0.0000 F500.00
G1 X1.0000 Y-0.5000 Z-13.0000 F500.00
G2 X-0.5000 Y1.0000 Z-13.0000 I0.0000 J1.5000 F500.00
G1 X-0.5000 Y11.0000 Z-13.0000 F500.00
G2 X1.0000 Y12.5000 Z-13.0000 I1.5000 J-0.0000 F500.00
G1 X11.0000 Y12.5000 Z-13.0000 F500.00
G2 X12.0607 Y12.0607 Z-13.0000 I-0.0000 J-1.5000 F500.00
G1 X12.0607 Y12.0607 Z-13.5000 F100.00
G2 X12.5000 Y11.0000 Z-13.5000 I-1.0607 J-1.0607 F500.00
G1 X12.5000 Y1.0000 Z-13.5000 F500.00
G2 X11.0000 Y-0.5000 Z-13.5000 I-1.5000 J0.0000 F500.00
G1 X1.0000 Y-0.5000 Z-13.5000 F500.00
G2 X-0.5000 Y1.0000 Z-13.5000 I0.0000 J1.5000 F500.00
G1 X-0.5000 Y11.0000 Z-13.5000 F500.00
G2 X1.0000 Y12.5000 Z-13.5000 I1.5000 J-0.0000 F500.00
G1 X11.0000 Y12.5000 Z-13.5000 F500.00
G2 X12.0607 Y12.0607 Z-13.5000 I-0.0000 J-1.5000 F500.00
G1 X12.0607 Y12.0607 Z-14.0000 F100.00
G2 X12.5000 Y11.0000 Z-14.0000 I-1.0607 J-1.0607 F500.00
G1 X12.5000 Y1.0000 Z-14.0000 F500.00
G2 X11.0000 Y-0.5000 Z-14.0000 I-1.5000 J0.0000 F500.00
G1 X1.0000 Y-0.5000 Z-14.0000 F500.00
G2 X-0.5000 Y1.0000 Z-14.0000 I0.0000 J1.5000 F500.00
G1 X-0.5000 Y11.0000 Z-14.0000 F500.00
G2 X1.0000 Y12.5000 Z-14.0000 I1.5000 J-0.0000 F500.00
G1 X11.0000 Y12.5000 Z-14.0000 F500.00
G2 X12.0607 Y12.0607 Z-14.0000 I-0.0000 J-1.5000 F500.00
G0 Z5.0000
(finish operation: square_contour002)
(begin operation: round_contour003)
(Path: round_contour003)
(round_contour003)
(Compensated Tool Path. Diameter: 3.0)
G0 Z5.0000
G0 X9.5688 Y9.5688
G0 Z3.0000
G1 X9.5688 Y9.5688 Z-8.2000 F100.00
G2 X10.9727 Y6.8629 Z-8.2000 I-3.5688 J-3.5688 F500.00
G2 X1.0273 Y5.1371 Z-8.2000 I-4.9727 J-0.8629 F500.00
G2 X9.5688 Y9.5688 Z-8.2000 I4.9727 J0.8629 F500.00
G1 X9.5688 Y9.5688 Z-8.4000 F100.00
G2 X10.9727 Y6.8629 Z-8.4000 I-3.5688 J-3.5688 F500.00
G2 X1.0273 Y5.1371 Z-8.4000 I-4.9727 J-0.8629 F500.00
G2 X9.5688 Y9.5688 Z-8.4000 I4.9727 J0.8629 F500.00
G1 X9.5688 Y9.5688 Z-8.6000 F100.00
G2 X10.9727 Y6.8629 Z-8.6000 I-3.5688 J-3.5688 F500.00
G2 X1.0273 Y5.1371 Z-8.6000 I-4.9727 J-0.8629 F500.00
G2 X9.5688 Y9.5688 Z-8.6000 I4.9727 J0.8629 F500.00
G1 X9.5688 Y9.5688 Z-8.8000 F100.00
G2 X10.9727 Y6.8629 Z-8.8000 I-3.5688 J-3.5688 F500.00
G2 X1.0273 Y5.1371 Z-8.8000 I-4.9727 J-0.8629 F500.00
G2 X9.5688 Y9.5688 Z-8.8000 I4.9727 J0.8629 F500.00
G1 X9.5688 Y9.5688 Z-9.0000 F100.00
G2 X10.9727 Y6.8629 Z-9.0000 I-3.5688 J-3.5688 F500.00
G2 X1.0273 Y5.1371 Z-9.0000 I-4.9727 J-0.8629 F500.00
G2 X9.5688 Y9.5688 Z-9.0000 I4.9727 J0.8629 F500.00
G1 X9.5688 Y9.5688 Z-9.2000 F100.00
G2 X10.9727 Y6.8629 Z-9.2000 I-3.5688 J-3.5688 F500.00
G2 X1.0273 Y5.1371 Z-9.2000 I-4.9727 J-0.8629 F500.00
G2 X9.5688 Y9.5688 Z-9.2000 I4.9727 J0.8629 F500.00
G1 X9.5688 Y9.5688 Z-9.4000 F100.00
G2 X10.9727 Y6.8629 Z-9.4000 I-3.5688 J-3.5688 F500.00
G2 X1.0273 Y5.1371 Z-9.4000 I-4.9727 J-0.8629 F500.00
G2 X9.5688 Y9.5688 Z-9.4000 I4.9727 J0.8629 F500.00
G1 X9.5688 Y9.5688 Z-9.6000 F100.00
G2 X10.9727 Y6.8629 Z-9.6000 I-3.5688 J-3.5688 F500.00
G2 X1.0273 Y5.1371 Z-9.6000 I-4.9727 J-0.8629 F500.00
G2 X9.5688 Y9.5688 Z-9.6000 I4.9727 J0.8629 F500.00
G1 X9.5688 Y9.5688 Z-9.8000 F100.00
G2 X10.9727 Y6.8629 Z-9.8000 I-3.5688 J-3.5688 F500.00
G2 X1.0273 Y5.1371 Z-9.8000 I-4.9727 J-0.8629 F500.00
G2 X9.5688 Y9.5688 Z-9.8000 I4.9727 J0.8629 F500.00
G1 X9.5688 Y9.5688 Z-10.0000 F100.00
G2 X10.9727 Y6.8629 Z-10.0000 I-3.5688 J-3.5688 F500.00
G2 X1.0273 Y5.1371 Z-10.0000 I-4.9727 J-0.8629 F500.00
G2 X9.5688 Y9.5688 Z-10.0000 I4.9727 J0.8629 F500.00
G1 X9.5688 Y9.5688 Z-10.2000 F100.00
G2 X10.9727 Y6.8629 Z-10.2000 I-3.5688 J-3.5688 F500.00
G2 X1.0273 Y5.1371 Z-10.2000 I-4.9727 J-0.8629 F500.00
G2 X9.5688 Y9.5688 Z-10.2000 I4.9727 J0.8629 F500.00
G1 X9.5688 Y9.5688 Z-10.4000 F100.00
G2 X10.9727 Y6.8629 Z-10.4000 I-3.5688 J-3.5688 F500.00
G2 X1.0273 Y5.1371 Z-10.4000 I-4.9727 J-0.8629 F500.00
G2 X9.5688 Y9.5688 Z-10.4000 I4.9727 J0.8629 F500.00
G1 X9.5688 Y9.5688 Z-10.6000 F100.00
G2 X10.9727 Y6.8629 Z-10.6000 I-3.5688 J-3.5688 F500.00
G2 X1.0273 Y5.1371 Z-10.6000 I-4.9727 J-0.8629 F500.00
G2 X9.5688 Y9.5688 Z-10.6000 I4.9727 J0.8629 F500.00
G1 X9.5688 Y9.5688 Z-10.8000 F100.00
G2 X10.9727 Y6.8629 Z-10.8000 I-3.5688 J-3.5688 F500.00
G2 X1.0273 Y5.1371 Z-10.8000 I-4.9727 J-0.8629 F500.00
G2 X9.5688 Y9.5688 Z-10.8000 I4.9727 J0.8629 F500.00
G1 X9.5688 Y9.5688 Z-11.0000 F100.00
G2 X10.9727 Y6.8629 Z-11.0000 I-3.5688 J-3.5688 F500.00
G2 X1.0273 Y5.1371 Z-11.0000 I-4.9727 J-0.8629 F500.00
G2 X9.5688 Y9.5688 Z-11.0000 I4.9727 J0.8629 F500.00
G1 X9.5688 Y9.5688 Z-11.2000 F100.00
G2 X10.9727 Y6.8629 Z-11.2000 I-3.5688 J-3.5688 F500.00
G2 X1.0273 Y5.1371 Z-11.2000 I-4.9727 J-0.8629 F500.00
G2 X9.5688 Y9.5688 Z-11.2000 I4.9727 J0.8629 F500.00
G1 X9.5688 Y9.5688 Z-11.4000 F100.00
G2 X10.9727 Y6.8629 Z-11.4000 I-3.5688 J-3.5688 F500.00
G2 X1.0273 Y5.1371 Z-11.4000 I-4.9727 J-0.8629 F500.00
G2 X9.5688 Y9.5688 Z-11.4000 I4.9727 J0.8629 F500.00
G1 X9.5688 Y9.5688 Z-11.6000 F100.00
G2 X10.9727 Y6.8629 Z-11.6000 I-3.5688 J-3.5688 F500.00
G2 X1.0273 Y5.1371 Z-11.6000 I-4.9727 J-0.8629 F500.00
G2 X9.5688 Y9.5688 Z-11.6000 I4.9727 J0.8629 F500.00
G1 X9.5688 Y9.5688 Z-11.8000 F100.00
G2 X10.9727 Y6.8629 Z-11.8000 I-3.5688 J-3.5688 F500.00
G2 X1.0273 Y5.1371 Z-11.8000 I-4.9727 J-0.8629 F500.00
G2 X9.5688 Y9.5688 Z-11.8000 I4.9727 J0.8629 F500.00
G1 X9.5688 Y9.5688 Z-12.0000 F100.00
G2 X10.9727 Y6.8629 Z-12.0000 I-3.5688 J-3.5688 F500.00
G2 X1.0273 Y5.1371 Z-12.0000 I-4.9727 J-0.8629 F500.00
G2 X9.5688 Y9.5688 Z-12.0000 I4.9727 J0.8629 F500.00
G1 X9.5688 Y9.5688 Z-12.2000 F100.00
G2 X10.9727 Y6.8629 Z-12.2000 I-3.5688 J-3.5688 F500.00
G2 X1.0273 Y5.1371 Z-12.2000 I-4.9727 J-0.8629 F500.00
G2 X9.5688 Y9.5688 Z-12.2000 I4.9727 J0.8629 F500.00
G1 X9.5688 Y9.5688 Z-12.4000 F100.00
G2 X10.9727 Y6.8629 Z-12.4000 I-3.5688 J-3.5688 F500.00
G2 X1.0273 Y5.1371 Z-12.4000 I-4.9727 J-0.8629 F500.00
G2 X9.5688 Y9.5688 Z-12.4000 I4.9727 J0.8629 F500.00
G1 X9.5688 Y9.5688 Z-12.6000 F100.00
G2 X10.9727 Y6.8629 Z-12.6000 I-3.5688 J-3.5688 F500.00
G2 X1.0273 Y5.1371 Z-12.6000 I-4.9727 J-0.8629 F500.00
G2 X9.5688 Y9.5688 Z-12.6000 I4.9727 J0.8629 F500.00
G1 X9.5688 Y9.5688 Z-12.8000 F100.00
G2 X10.9727 Y6.8629 Z-12.8000 I-3.5688 J-3.5688 F500.00
G2 X1.0273 Y5.1371 Z-12.8000 I-4.9727 J-0.8629 F500.00
G2 X9.5688 Y9.5688 Z-12.8000 I4.9727 J0.8629 F500.00
G1 X9.5688 Y9.5688 Z-13.0000 F100.00
G2 X10.9727 Y6.8629 Z-13.0000 I-3.5688 J-3.5688 F500.00
G2 X1.0273 Y5.1371 Z-13.0000 I-4.9727 J-0.8629 F500.00
G2 X9.5688 Y9.5688 Z-13.0000 I4.9727 J0.8629 F500.00
G1 X9.5688 Y9.5688 Z-13.2000 F100.00
G2 X10.9727 Y6.8629 Z-13.2000 I-3.5688 J-3.5688 F500.00
G2 X1.0273 Y5.1371 Z-13.2000 I-4.9727 J-0.8629 F500.00
G2 X9.5688 Y9.5688 Z-13.2000 I4.9727 J0.8629 F500.00
G1 X9.5688 Y9.5688 Z-13.4000 F100.00
G2 X10.9727 Y6.8629 Z-13.4000 I-3.5688 J-3.5688 F500.00
G2 X1.0273 Y5.1371 Z-13.4000 I-4.9727 J-0.8629 F500.00
G2 X9.5688 Y9.5688 Z-13.4000 I4.9727 J0.8629 F500.00
G1 X9.5688 Y9.5688 Z-13.6000 F100.00
G2 X10.9727 Y6.8629 Z-13.6000 I-3.5688 J-3.5688 F500.00
G2 X1.0273 Y5.1371 Z-13.6000 I-4.9727 J-0.8629 F500.00
G2 X9.5688 Y9.5688 Z-13.6000 I4.9727 J0.8629 F500.00
G1 X9.5688 Y9.5688 Z-13.8000 F100.00
G2 X10.9727 Y6.8629 Z-13.8000 I-3.5688 J-3.5688 F500.00
G2 X1.0273 Y5.1371 Z-13.8000 I-4.9727 J-0.8629 F500.00
G2 X9.5688 Y9.5688 Z-13.8000 I4.9727 J0.8629 F500.00
G1 X9.5688 Y9.5688 Z-14.0000 F100.00
G2 X10.9727 Y6.8629 Z-14.0000 I-3.5688 J-3.5688 F500.00
G2 X1.0273 Y5.1371 Z-14.0000 I-4.9727 J-0.8629 F500.00
G2 X9.5688 Y9.5688 Z-14.0000 I4.9727 J0.8629 F500.00
G0 Z5.0000
(finish operation: round_contour003)
(begin operation: round_contour005)
(Path: round_contour005)
(round_contour005)
(Compensated Tool Path. Diameter: 3.0)
G0 Z5.0000
G0 X9.5688 Y9.5688
G0 Z3.0000
G1 X9.5688 Y9.5688 Z-14.2000 F100.00
G2 X10.9727 Y6.8629 Z-14.2000 I-3.5688 J-3.5688 F500.00
G2 X1.0273 Y5.1371 Z-14.2000 I-4.9727 J-0.8629 F500.00
G2 X9.5688 Y9.5688 Z-14.2000 I4.9727 J0.8629 F500.00
G1 X9.5688 Y9.5688 Z-14.4000 F100.00
G2 X10.9727 Y6.8629 Z-14.4000 I-3.5688 J-3.5688 F500.00
G2 X1.0273 Y5.1371 Z-14.4000 I-4.9727 J-0.8629 F500.00
G2 X9.5688 Y9.5688 Z-14.4000 I4.9727 J0.8629 F500.00
G1 X9.5688 Y9.5688 Z-14.6000 F100.00
G2 X10.9727 Y6.8629 Z-14.6000 I-3.5688 J-3.5688 F500.00
G2 X1.0273 Y5.1371 Z-14.6000 I-4.9727 J-0.8629 F500.00
G2 X9.5688 Y9.5688 Z-14.6000 I4.9727 J0.8629 F500.00
G1 X9.5688 Y9.5688 Z-14.8000 F100.00
G2 X10.9727 Y6.8629 Z-14.8000 I-3.5688 J-3.5688 F500.00
G2 X1.0273 Y5.1371 Z-14.8000 I-4.9727 J-0.8629 F500.00
G2 X9.5688 Y9.5688 Z-14.8000 I4.9727 J0.8629 F500.00
G1 X9.5688 Y9.5688 Z-15.0000 F100.00
G2 X10.9727 Y6.8629 Z-15.0000 I-3.5688 J-3.5688 F500.00
G2 X1.0273 Y5.1371 Z-15.0000 I-4.9727 J-0.8629 F500.00
G2 X9.5688 Y9.5688 Z-15.0000 I4.9727 J0.8629 F500.00
G1 X9.5688 Y9.5688 Z-15.2000 F100.00
G2 X10.9727 Y6.8629 Z-15.2000 I-3.5688 J-3.5688 F500.00
G2 X1.0273 Y5.1371 Z-15.2000 I-4.9727 J-0.8629 F500.00
G2 X9.5688 Y9.5688 Z-15.2000 I4.9727 J0.8629 F500.00
G1 X9.5688 Y9.5688 Z-15.4000 F100.00
G2 X10.9727 Y6.8629 Z-15.4000 I-3.5688 J-3.5688 F500.00
G2 X1.0273 Y5.1371 Z-15.4000 I-4.9727 J-0.8629 F500.00
G2 X9.5688 Y9.5688 Z-15.4000 I4.9727 J0.8629 F500.00
G1 X9.5688 Y9.5688 Z-15.6000 F100.00
G2 X10.9727 Y6.8629 Z-15.6000 I-3.5688 J-3.5688 F500.00
G2 X1.0273 Y5.1371 Z-15.6000 I-4.9727 J-0.8629 F500.00
G2 X9.5688 Y9.5688 Z-15.6000 I4.9727 J0.8629 F500.00
G1 X9.5688 Y9.5688 Z-15.8000 F100.00
G2 X10.9727 Y6.8629 Z-15.8000 I-3.5688 J-3.5688 F500.00
G2 X1.0273 Y5.1371 Z-15.8000 I-4.9727 J-0.8629 F500.00
G2 X9.5688 Y9.5688 Z-15.8000 I4.9727 J0.8629 F500.00
G1 X9.5688 Y9.5688 Z-16.0000 F100.00
G2 X10.9727 Y6.8629 Z-16.0000 I-3.5688 J-3.5688 F500.00
G2 X1.0273 Y5.1371 Z-16.0000 I-4.9727 J-0.8629 F500.00
G2 X9.5688 Y9.5688 Z-16.0000 I4.9727 J0.8629 F500.00
G1 X9.5688 Y9.5688 Z-16.2000 F100.00
G2 X10.9727 Y6.8629 Z-16.2000 I-3.5688 J-3.5688 F500.00
G2 X1.0273 Y5.1371 Z-16.2000 I-4.9727 J-0.8629 F500.00
G2 X9.5688 Y9.5688 Z-16.2000 I4.9727 J0.8629 F500.00
G1 X9.5688 Y9.5688 Z-16.4000 F100.00
G2 X10.9727 Y6.8629 Z-16.4000 I-3.5688 J-3.5688 F500.00
G2 X1.0273 Y5.1371 Z-16.4000 I-4.9727 J-0.8629 F500.00
G2 X9.5688 Y9.5688 Z-16.4000 I4.9727 J0.8629 F500.00
G1 X9.5688 Y9.5688 Z-16.6000 F100.00
G2 X10.9727 Y6.8629 Z-16.6000 I-3.5688 J-3.5688 F500.00
G2 X1.0273 Y5.1371 Z-16.6000 I-4.9727 J-0.8629 F500.00
G2 X9.5688 Y9.5688 Z-16.6000 I4.9727 J0.8629 F500.00
G1 X9.5688 Y9.5688 Z-16.8000 F100.00
G2 X10.9727 Y6.8629 Z-16.8000 I-3.5688 J-3.5688 F500.00
G2 X1.0273 Y5.1371 Z-16.8000 I-4.9727 J-0.8629 F500.00
G2 X9.5688 Y9.5688 Z-16.8000 I4.9727 J0.8629 F500.00
G1 X9.5688 Y9.5688 Z-17.0000 F100.00
G2 X10.9727 Y6.8629 Z-17.0000 I-3.5688 J-3.5688 F500.00
G2 X1.0273 Y5.1371 Z-17.0000 I-4.9727 J-0.8629 F500.00
G2 X9.5688 Y9.5688 Z-17.0000 I4.9727 J0.8629 F500.00
G0 Z5.0000
(finish operation: round_contour005)
(begin operation: TagDressup008)
(Path: TagDressup008)
G0 Z5.0000
G0 X12.0607 Y12.0607 Z5.0000
G0 X12.0607 Y12.0607 Z3.0000
G1 X12.0607 Y12.0607 Z-14.5000 F100.00
G2 X12.5000 Y11.0000 Z-14.5000 I-1.0607 J-1.0607 F500.00
G1 X12.5000 Y7.5000 Z-14.5000 F500.00
G2 X11.0847 Y6.0000 Z-14.5000 I-1.5045 J0.0019 F500.00
G2 X12.5000 Y4.5000 Z-14.5000 I-0.0899 J-1.5025 F500.00
G1 X12.5000 Y1.0000 Z-14.5000 F500.00
G2 X11.0000 Y-0.5000 Z-14.5000 I-1.5000 J0.0000 F500.00
G1 X1.0000 Y-0.5000 Z-14.5000 F500.00
G2 X-0.5000 Y1.0000 Z-14.5000 I0.0000 J1.5000 F500.00
G1 X-0.5000 Y11.0000 Z-14.5000 F500.00
G2 X1.0000 Y12.5000 Z-14.5000 I1.5000 J-0.0000 F500.00
G1 X11.0000 Y12.5000 Z-14.5000 F500.00
G2 X12.0607 Y12.0607 Z-14.5000 I-0.0000 J-1.5000 F500.00
G1 X12.0607 Y12.0607 Z-15.0000 F100.00
G2 X12.5000 Y11.0000 Z-15.0000 I-1.0607 J-1.0607 F500.00
G1 X12.5000 Y7.5000 Z-15.0000 F500.00
G2 X11.0847 Y6.0000 Z-15.0000 I-1.5045 J0.0019 F500.00
G2 X12.5000 Y4.5000 Z-15.0000 I-0.0899 J-1.5025 F500.00
G1 X12.5000 Y1.0000 Z-15.0000 F500.00
G2 X11.0000 Y-0.5000 Z-15.0000 I-1.5000 J0.0000 F500.00
G1 X1.0000 Y-0.5000 Z-15.0000 F500.00
G2 X-0.5000 Y1.0000 Z-15.0000 I0.0000 J1.5000 F500.00
G1 X-0.5000 Y11.0000 Z-15.0000 F500.00
G2 X1.0000 Y12.5000 Z-15.0000 I1.5000 J-0.0000 F500.00
G1 X11.0000 Y12.5000 Z-15.0000 F500.00
G2 X12.0607 Y12.0607 Z-15.0000 I-0.0000 J-1.5000 F500.00
G1 X12.0607 Y12.0607 Z-15.5000 F100.00
G2 X12.5000 Y11.0000 Z-15.5000 I-1.0607 J-1.0607 F500.00
G1 X12.5000 Y7.5000 Z-15.5000 F500.00
G2 X11.0847 Y6.0000 Z-15.5000 I-1.5045 J0.0019 F500.00
G2 X12.5000 Y4.5000 Z-15.5000 I-0.0899 J-1.5025 F500.00
G1 X12.5000 Y1.0000 Z-15.5000 F500.00
G2 X11.0000 Y-0.5000 Z-15.5000 I-1.5000 J0.0000 F500.00
G1 X1.0000 Y-0.5000 Z-15.5000 F500.00
G2 X-0.5000 Y1.0000 Z-15.5000 I0.0000 J1.5000 F500.00
G1 X-0.5000 Y11.0000 Z-15.5000 F500.00
G2 X1.0000 Y12.5000 Z-15.5000 I1.5000 J-0.0000 F500.00
G1 X11.0000 Y12.5000 Z-15.5000 F500.00
G2 X12.0607 Y12.0607 Z-15.5000 I-0.0000 J-1.5000 F500.00
G1 X12.0607 Y12.0607 Z-16.0000 F100.00
G2 X12.5000 Y11.0000 Z-16.0000 I-1.0607 J-1.0607 F500.00
G1 X12.5000 Y7.5000 Z-16.0000 F500.00
G2 X11.0847 Y6.0000 Z-16.0000 I-1.5045 J0.0019 F500.00
G2 X12.5000 Y4.5000 Z-16.0000 I-0.0899 J-1.5025 F500.00
G1 X12.5000 Y1.0000 Z-16.0000 F500.00
G2 X11.0000 Y-0.5000 Z-16.0000 I-1.5000 J0.0000 F500.00
G1 X1.0000 Y-0.5000 Z-16.0000 F500.00
G2 X-0.5000 Y1.0000 Z-16.0000 I0.0000 J1.5000 F500.00
G1 X-0.5000 Y11.0000 Z-16.0000 F500.00
G2 X1.0000 Y12.5000 Z-16.0000 I1.5000 J-0.0000 F500.00
G1 X11.0000 Y12.5000 Z-16.0000 F500.00
G2 X12.0607 Y12.0607 Z-16.0000 I-0.0000 J-1.5000 F500.00
G1 X12.0607 Y12.0607 Z-16.5000 F100.00
G2 X12.5000 Y11.0000 Z-16.5000 I-1.0607 J-1.0607 F500.00
G1 X12.5000 Y7.5000 Z-16.5000 F500.00
G2 X11.0847 Y6.0000 Z-16.5000 I-1.5045 J0.0019 F500.00
G2 X12.5000 Y4.5000 Z-16.5000 I-0.0899 J-1.5025 F500.00
G1 X12.5000 Y1.0000 Z-16.5000 F500.00
G2 X11.0000 Y-0.5000 Z-16.5000 I-1.5000 J0.0000 F500.00
G1 X1.0000 Y-0.5000 Z-16.5000 F500.00
G2 X-0.5000 Y1.0000 Z-16.5000 I0.0000 J1.5000 F500.00
G1 X-0.5000 Y11.0000 Z-16.5000 F500.00
G2 X1.0000 Y12.5000 Z-16.5000 I1.5000 J-0.0000 F500.00
G1 X11.0000 Y12.5000 Z-16.5000 F500.00
G2 X12.0607 Y12.0607 Z-16.5000 I-0.0000 J-1.5000 F500.00
G1 X12.0607 Y12.0607 Z-17.0000 F100.00
G2 X12.5000 Y11.0000 Z-17.0000 I-1.0607 J-1.0607 F500.00
G1 X12.5000 Y7.5000 Z-17.0000 F500.00
G2 X11.0847 Y6.0000 Z-17.0000 I-1.5045 J0.0019 F500.00
G2 X12.5000 Y4.5000 Z-17.0000 I-0.0899 J-1.5025 F500.00
G1 X12.5000 Y1.0000 Z-17.0000 F500.00
G2 X11.0000 Y-0.5000 Z-17.0000 I-1.5000 J0.0000 F500.00
G1 X1.0000 Y-0.5000 Z-17.0000 F500.00
G2 X-0.5000 Y1.0000 Z-17.0000 I0.0000 J1.5000 F500.00
G1 X-0.5000 Y11.0000 Z-17.0000 F500.00
G2 X1.0000 Y12.5000 Z-17.0000 I1.5000 J-0.0000 F500.00
G1 X11.0000 Y12.5000 Z-17.0000 F500.00
G2 X12.0607 Y12.0607 Z-17.0000 I-0.0000 J-1.5000 F500.00
G1 X12.0607 Y12.0607 Z-17.5000 F100.00
G2 X12.5000 Y11.0000 Z-17.5000 I-1.0607 J-1.0607 F500.00
G1 X12.5000 Y7.5000 Z-17.5000 F500.00
G2 X11.0847 Y6.0000 Z-17.5000 I-1.5045 J0.0019 F500.00
G2 X12.0722 Y5.5487 Z-17.5000 I-0.0899 J-1.5025 F500.00
G1 X12.1145 Y5.5034 Z-17.4405
G1 X12.1541 Y5.4575 Z-17.3841
G1 X12.1899 Y5.4126 Z-17.3334
G1 X12.2210 Y5.3705 Z-17.2908
G1 X12.2469 Y5.3328 Z-17.2579
G1 X12.2684 Y5.2998 Z-17.2341
G1 X12.2864 Y5.2705 Z-17.2180
G1 X12.3020 Y5.2437 Z-17.2081
G1 X12.3162 Y5.2182 Z-17.2033
G1 X12.3297 Y5.1930 Z-17.2033
G1 X12.3429 Y5.1670 Z-17.2081
G1 X12.3564 Y5.1391 Z-17.2180
G1 X12.3707 Y5.1078 Z-17.2341
G1 X12.3862 Y5.0716 Z-17.2579
G1 X12.4030 Y5.0291 Z-17.2908
G1 X12.4206 Y4.9798 Z-17.3334
G1 X12.4380 Y4.9250 Z-17.3841
G1 X12.4541 Y4.8666 Z-17.4404
G1 X12.4680 Y4.8062 Z-17.5000
G2 X12.5000 Y4.5000 Z-17.5000 I-1.4732 J-0.3087 F500.00
G1 X12.5000 Y1.0000 Z-17.5000 F500.00
G2 X11.0000 Y-0.5000 Z-17.5000 I-1.5000 J0.0000 F500.00
G1 X6.5549 Y-0.5000 Z-17.5000 F500.00
G1 X6.0600 Y-0.5000 Z-17.0002 F298.73
G1 X5.5651 Y-0.5000 Z-17.5000 F298.73
G1 X1.0000 Y-0.5000 Z-17.5000 F500.00
G2 X-0.5000 Y1.0000 Z-17.5000 I0.0000 J1.5000 F500.00
G1 X-0.5000 Y5.4151 Z-17.5000 F500.00
G1 X-0.5000 Y5.9100 Z-17.0002 F298.73
G1 X-0.5000 Y6.4049 Z-17.5000 F298.73
G1 X-0.5000 Y11.0000 Z-17.5000 F500.00
G2 X1.0000 Y12.5000 Z-17.5000 I1.5000 J-0.0000 F500.00
G1 X5.4951 Y12.5000 Z-17.5000 F500.00
G1 X5.9900 Y12.5000 Z-17.0002 F298.73
G1 X6.4849 Y12.5000 Z-17.5000 F298.73
G1 X11.0000 Y12.5000 Z-17.5000 F500.00
G2 X12.0607 Y12.0607 Z-17.5000 I-0.0000 J-1.5000 F500.00
G1 X12.0607 Y12.0607 Z-18.0000 F100.00
G2 X12.5000 Y11.0000 Z-18.0000 I-1.0607 J-1.0607 F500.00
G1 X12.5000 Y7.5000 Z-18.0000 F500.00
G2 X11.0847 Y6.0000 Z-18.0000 I-1.5045 J0.0019 F500.00
G2 X11.6716 Y5.8419 Z-18.0000 I-0.0899 J-1.5025 F500.00
G1 X11.7448 Y5.8025 Z-17.9164
G1 X11.8155 Y5.7593 Z-17.8327
G1 X11.8837 Y5.7122 Z-17.7490
G1 X11.9493 Y5.6613 Z-17.6654
G1 X12.0121 Y5.6069 Z-17.5824
G1 X12.0718 Y5.5491 Z-17.5005
G1 X12.1276 Y5.4887 Z-17.4218
G1 X12.1780 Y5.4279 Z-17.3501
G1 X12.2206 Y5.3710 Z-17.2914
G1 X12.2542 Y5.3219 Z-17.2495
G1 X12.2803 Y5.2805 Z-17.2230
G1 X12.3017 Y5.2443 Z-17.2083
G1 X12.3204 Y5.2105 Z-17.2029
G1 X12.3381 Y5.1767 Z-17.2058
G1 X12.3559 Y5.1401 Z-17.2176
G1 X12.3752 Y5.0977 Z-17.2403
G1 X12.3966 Y5.0458 Z-17.2774
G1 X12.4199 Y4.9821 Z-17.3313
G1 X12.4428 Y4.9084 Z-17.3999
G1 X12.4630 Y4.8293 Z-17.4771
G1 X12.4790 Y4.7479 Z-17.5582
G1 X12.4906 Y4.6656 Z-17.6411
G1 X12.4976 Y4.5829 Z-17.7245
G1 X12.5000 Y4.5000 Z-17.8082
G1 X12.5000 Y4.3101 Z-18.0000 F298.73
G1 X12.5000 Y1.0000 Z-18.0000 F500.00
G2 X11.0000 Y-0.5000 Z-18.0000 I-1.5000 J0.0000 F500.00
G1 X7.0499 Y-0.5000 Z-18.0000 F500.00
G1 X6.0600 Y-0.5000 Z-17.0002 F298.73
G1 X5.0701 Y-0.5000 Z-18.0000 F298.73
G1 X1.0000 Y-0.5000 Z-18.0000 F500.00
G2 X-0.5000 Y1.0000 Z-18.0000 I0.0000 J1.5000 F500.00
G1 X-0.5000 Y4.9201 Z-18.0000 F500.00
G1 X-0.5000 Y5.9100 Z-17.0002 F298.73
G1 X-0.5000 Y6.8999 Z-18.0000 F298.73
G1 X-0.5000 Y11.0000 Z-18.0000 F500.00
G2 X1.0000 Y12.5000 Z-18.0000 I1.5000 J-0.0000 F500.00
G1 X5.0001 Y12.5000 Z-18.0000 F500.00
G1 X5.9900 Y12.5000 Z-17.0002 F298.73
G1 X6.9799 Y12.5000 Z-18.0000 F298.73
G1 X11.0000 Y12.5000 Z-18.0000 F500.00
G2 X12.0607 Y12.0607 Z-18.0000 I-0.0000 J-1.5000 F500.00
G1 X12.0607 Y12.0607 Z-18.5000 F100.00
G2 X12.5000 Y11.0000 Z-18.5000 I-1.0607 J-1.0607 F500.00
G1 X12.5000 Y7.5000 Z-18.5000 F500.00
G2 X12.3116 Y6.7730 Z-18.5000 I-1.5045 J0.0019 F500.00
G1 X12.2682 Y6.6995 Z-18.4330
G1 X12.2186 Y6.6257 Z-18.3690
G1 X12.1618 Y6.5514 Z-18.3095
G1 X12.0967 Y6.4767 Z-18.2565
G1 X12.0221 Y6.4020 Z-18.2134
G1 X11.9375 Y6.3288 Z-18.1844
G1 X11.8443 Y6.2596 Z-18.1741
G1 X11.7460 Y6.1979 Z-18.1844
G1 X11.6471 Y6.1458 Z-18.2134
G1 X11.5503 Y6.1034 Z-18.2565
G1 X11.4571 Y6.0699 Z-18.3095
G1 X11.3672 Y6.0440 Z-18.3690
G1 X11.2804 Y6.0246 Z-18.4330
G1 X11.1962 Y6.0108 Z-18.5000
G2 X11.0847 Y6.0000 Z-18.5000 I-0.2007 J1.4911 F500.00
G2 X11.1854 Y5.9906 Z-18.5000 I-0.0899 J-1.5025 F500.00
G1 X11.2962 Y5.9722 Z-18.3928
G1 X11.4041 Y5.9460 Z-18.2850
G1 X11.5089 Y5.9122 Z-18.1767
G1 X11.6103 Y5.8711 Z-18.0680
G1 X11.7079 Y5.8231 Z-17.9589
G1 X11.8014 Y5.7683 Z-17.8496
G1 X11.8907 Y5.7070 Z-17.7403
G1 X11.9755 Y5.6394 Z-17.6312
G1 X12.0552 Y5.5657 Z-17.5235
G1 X12.1288 Y5.4872 Z-17.4201
G1 X12.1930 Y5.4085 Z-17.3290
G1 X12.2430 Y5.3387 Z-17.2627
G1 X12.2790 Y5.2826 Z-17.2241
G1 X12.3065 Y5.2357 Z-17.2061
G1 X12.3303 Y5.1919 Z-17.2035
G1 X12.3534 Y5.1454 Z-17.2153
G1 X12.3786 Y5.0898 Z-17.2454
G1 X12.4074 Y5.0172 Z-17.3007
G1 X12.4379 Y4.9255 Z-17.3836
G1 X12.4645 Y4.8227 Z-17.4837
G1 X12.4841 Y4.7160 Z-17.5902
G1 X12.4959 Y4.6082 Z-17.6989
G1 X12.5000 Y4.5000 Z-17.8082
G1 X12.5000 Y3.8150 Z-18.5000 F298.73
G1 X12.5000 Y1.0000 Z-18.5000 F500.00
G2 X11.0000 Y-0.5000 Z-18.5000 I-1.5000 J0.0000 F500.00
G1 X7.5450 Y-0.5000 Z-18.5000 F500.00
G1 X6.0600 Y-0.5000 Z-17.0002 F298.73
G1 X4.5750 Y-0.5000 Z-18.5000 F298.73
G1 X1.0000 Y-0.5000 Z-18.5000 F500.00
G2 X-0.5000 Y1.0000 Z-18.5000 I0.0000 J1.5000 F500.00
G1 X-0.5000 Y4.4250 Z-18.5000 F500.00
G1 X-0.5000 Y5.9100 Z-17.0002 F298.73
G1 X-0.5000 Y7.3950 Z-18.5000 F298.73
G1 X-0.5000 Y11.0000 Z-18.5000 F500.00
G2 X1.0000 Y12.5000 Z-18.5000 I1.5000 J-0.0000 F500.00
G1 X4.5050 Y12.5000 Z-18.5000 F500.00
G1 X5.9900 Y12.5000 Z-17.0002 F298.73
G1 X7.4750 Y12.5000 Z-18.5000 F298.73
G1 X11.0000 Y12.5000 Z-18.5000 F500.00
G2 X12.0607 Y12.0607 Z-18.5000 I-0.0000 J-1.5000 F500.00
G1 X12.0607 Y12.0607 Z-19.0000 F100.00
G2 X12.5000 Y11.0000 Z-19.0000 I-1.0607 J-1.0607 F500.00
G1 X12.5000 Y7.5000 Z-19.0000 F500.00
G2 X12.4835 Y7.2799 Z-19.0000 I-1.5045 J0.0019 F500.00
G1 X12.4660 Y7.1838 Z-18.9031
G1 X12.4419 Y7.0878 Z-18.8068
G1 X12.4109 Y6.9919 Z-18.7114
G1 X12.3727 Y6.8961 Z-18.6174
G1 X12.3264 Y6.8002 Z-18.5255
G1 X12.2710 Y6.7040 Z-18.4369
G1 X12.2050 Y6.6070 Z-18.3535
G1 X12.1261 Y6.5093 Z-18.2786
G1 X12.0318 Y6.4112 Z-18.2181
G1 X11.9206 Y6.3154 Z-18.1810
G1 X11.7955 Y6.2277 Z-18.1767
G1 X11.6656 Y6.1548 Z-18.2067
G1 X11.5387 Y6.0988 Z-18.2626
G1 X11.4177 Y6.0578 Z-18.3346
G1 X11.3023 Y6.0290 Z-18.4164
G1 X11.1916 Y6.0102 Z-18.5038
G1 X11.0847 Y6.0000 Z-18.5949
G1 X11.2020 Y5.9884 Z-18.4841
G1 X11.3166 Y5.9679 Z-18.3727
G1 X11.4281 Y5.9390 Z-18.2606
G1 X11.5361 Y5.9020 Z-18.1480
G1 X11.6403 Y5.8573 Z-18.0349
G1 X11.7404 Y5.8051 Z-17.9215
G1 X11.8360 Y5.7457 Z-17.8080
G1 X11.9269 Y5.6794 Z-17.6944
G1 X12.0127 Y5.6063 Z-17.5815
G1 X12.0928 Y5.5271 Z-17.4711
G1 X12.1647 Y5.4445 Z-17.3689
G1 X12.2237 Y5.3667 Z-17.2873
G1 X12.2664 Y5.3029 Z-17.2361
G1 X12.2976 Y5.2514 Z-17.2104
G1 X12.3231 Y5.2054 Z-17.2028
G1 X12.3471 Y5.1586 Z-17.2106
G1 X12.3724 Y5.1039 Z-17.2364
G1 X12.4016 Y5.0328 Z-17.2878
G1 X12.4333 Y4.9406 Z-17.3694
G1 X12.4617 Y4.8348 Z-17.4716
G1 X12.4828 Y4.7243 Z-17.5819
G1 X12.4956 Y4.6124 Z-17.6947
G1 X12.5000 Y4.5000 Z-17.8082
G1 X12.5000 Y3.3200 Z-19.0000 F298.73
G1 X12.5000 Y1.0000 Z-19.0000 F500.00
G2 X11.0000 Y-0.5000 Z-19.0000 I-1.5000 J0.0000 F500.00
G1 X8.0400 Y-0.5000 Z-19.0000 F500.00
G1 X6.0600 Y-0.5000 Z-17.0002 F298.73
G1 X4.0800 Y-0.5000 Z-19.0000 F298.73
G1 X1.0000 Y-0.5000 Z-19.0000 F500.00
G2 X-0.5000 Y1.0000 Z-19.0000 I0.0000 J1.5000 F500.00
G1 X-0.5000 Y3.9300 Z-19.0000 F500.00
G1 X-0.5000 Y5.9100 Z-17.0002 F298.73
G1 X-0.5000 Y7.8900 Z-19.0000 F298.73
G1 X-0.5000 Y11.0000 Z-19.0000 F500.00
G2 X1.0000 Y12.5000 Z-19.0000 I1.5000 J-0.0000 F500.00
G1 X4.0100 Y12.5000 Z-19.0000 F500.00
G1 X5.9900 Y12.5000 Z-17.0002 F298.73
G1 X7.9700 Y12.5000 Z-19.0000 F298.73
G1 X11.0000 Y12.5000 Z-19.0000 F500.00
G2 X12.0607 Y12.0607 Z-19.0000 I-0.0000 J-1.5000 F500.00
G0 X12.0607 Y12.0607 Z5.0000
G0 X12.0607 Y12.0607 Z3.0000
G1 X12.0607 Y12.0607 Z-14.5000 F100.00
G2 X12.5000 Y11.0000 Z-14.5000 I-1.0607 J-1.0607 F500.00
G1 X12.5000 Y1.0000 Z-14.5000 F500.00
G2 X11.0000 Y-0.5000 Z-14.5000 I-1.5000 J0.0000 F500.00
G1 X1.0000 Y-0.5000 Z-14.5000 F500.00
G2 X-0.5000 Y1.0000 Z-14.5000 I0.0000 J1.5000 F500.00
G1 X-0.5000 Y11.0000 Z-14.5000 F500.00
G2 X1.0000 Y12.5000 Z-14.5000 I1.5000 J-0.0000 F500.00
G1 X11.0000 Y12.5000 Z-14.5000 F500.00
G2 X12.0607 Y12.0607 Z-14.5000 I-0.0000 J-1.5000 F500.00
G1 X12.0607 Y12.0607 Z-15.0000 F100.00
G2 X12.5000 Y11.0000 Z-15.0000 I-1.0607 J-1.0607 F500.00
G1 X12.5000 Y1.0000 Z-15.0000 F500.00
G2 X11.0000 Y-0.5000 Z-15.0000 I-1.5000 J0.0000 F500.00
G1 X1.0000 Y-0.5000 Z-15.0000 F500.00
G2 X-0.5000 Y1.0000 Z-15.0000 I0.0000 J1.5000 F500.00
G1 X-0.5000 Y11.0000 Z-15.0000 F500.00
G2 X1.0000 Y12.5000 Z-15.0000 I1.5000 J-0.0000 F500.00
G1 X11.0000 Y12.5000 Z-15.0000 F500.00
G2 X12.0607 Y12.0607 Z-15.0000 I-0.0000 J-1.5000 F500.00
G1 X12.0607 Y12.0607 Z-15.5000 F100.00
G2 X12.5000 Y11.0000 Z-15.5000 I-1.0607 J-1.0607 F500.00
G1 X12.5000 Y1.0000 Z-15.5000 F500.00
G2 X11.0000 Y-0.5000 Z-15.5000 I-1.5000 J0.0000 F500.00
G1 X1.0000 Y-0.5000 Z-15.5000 F500.00
G2 X-0.5000 Y1.0000 Z-15.5000 I0.0000 J1.5000 F500.00
G1 X-0.5000 Y11.0000 Z-15.5000 F500.00
G2 X1.0000 Y12.5000 Z-15.5000 I1.5000 J-0.0000 F500.00
G1 X11.0000 Y12.5000 Z-15.5000 F500.00
G2 X12.0607 Y12.0607 Z-15.5000 I-0.0000 J-1.5000 F500.00
G1 X12.0607 Y12.0607 Z-16.0000 F100.00
G2 X12.5000 Y11.0000 Z-16.0000 I-1.0607 J-1.0607 F500.00
G1 X12.5000 Y1.0000 Z-16.0000 F500.00
G2 X11.0000 Y-0.5000 Z-16.0000 I-1.5000 J0.0000 F500.00
G1 X1.0000 Y-0.5000 Z-16.0000 F500.00
G2 X-0.5000 Y1.0000 Z-16.0000 I0.0000 J1.5000 F500.00
G1 X-0.5000 Y11.0000 Z-16.0000 F500.00
G2 X1.0000 Y12.5000 Z-16.0000 I1.5000 J-0.0000 F500.00
G1 X11.0000 Y12.5000 Z-16.0000 F500.00
G2 X12.0607 Y12.0607 Z-16.0000 I-0.0000 J-1.5000 F500.00
G1 X12.0607 Y12.0607 Z-16.5000 F100.00
G2 X12.5000 Y11.0000 Z-16.5000 I-1.0607 J-1.0607 F500.00
G1 X12.5000 Y1.0000 Z-16.5000 F500.00
G2 X11.0000 Y-0.5000 Z-16.5000 I-1.5000 J0.0000 F500.00
G1 X1.0000 Y-0.5000 Z-16.5000 F500.00
G2 X-0.5000 Y1.0000 Z-16.5000 I0.0000 J1.5000 F500.00
G1 X-0.5000 Y11.0000 Z-16.5000 F500.00
G2 X1.0000 Y12.5000 Z-16.5000 I1.5000 J-0.0000 F500.00
G1 X11.0000 Y12.5000 Z-16.5000 F500.00
G2 X12.0607 Y12.0607 Z-16.5000 I-0.0000 J-1.5000 F500.00
G1 X12.0607 Y12.0607 Z-17.0000 F100.00
G2 X12.5000 Y11.0000 Z-17.0000 I-1.0607 J-1.0607 F500.00
G1 X12.5000 Y1.0000 Z-17.0000 F500.00
G2 X11.0000 Y-0.5000 Z-17.0000 I-1.5000 J0.0000 F500.00
G1 X1.0000 Y-0.5000 Z-17.0000 F500.00
G2 X-0.5000 Y1.0000 Z-17.0000 I0.0000 J1.5000 F500.00
G1 X-0.5000 Y11.0000 Z-17.0000 F500.00
G2 X1.0000 Y12.5000 Z-17.0000 I1.5000 J-0.0000 F500.00
G1 X11.0000 Y12.5000 Z-17.0000 F500.00
G2 X12.0607 Y12.0607 Z-17.0000 I-0.0000 J-1.5000 F500.00
G1 X12.0607 Y12.0607 Z-17.5000 F100.00
G2 X12.5000 Y11.0000 Z-17.5000 I-1.0607 J-1.0607 F500.00
G1 X12.5000 Y5.7949 Z-17.5000 F500.00
G1 X12.5000 Y5.3000 Z-17.0002 F298.73
G1 X12.5000 Y4.8051 Z-17.5000 F298.73
G1 X12.5000 Y1.0000 Z-17.5000 F500.00
G2 X11.0000 Y-0.5000 Z-17.5000 I-1.5000 J0.0000 F500.00
G1 X6.5549 Y-0.5000 Z-17.5000 F500.00
G1 X6.0600 Y-0.5000 Z-17.0002 F298.73
G1 X5.5651 Y-0.5000 Z-17.5000 F298.73
G1 X1.0000 Y-0.5000 Z-17.5000 F500.00
G2 X-0.5000 Y1.0000 Z-17.5000 I0.0000 J1.5000 F500.00
G1 X-0.5000 Y5.4151 Z-17.5000 F500.00
G1 X-0.5000 Y5.9100 Z-17.0002 F298.73
G1 X-0.5000 Y6.4049 Z-17.5000 F298.73
G1 X-0.5000 Y11.0000 Z-17.5000 F500.00
G2 X1.0000 Y12.5000 Z-17.5000 I1.5000 J-0.0000 F500.00
G1 X5.4951 Y12.5000 Z-17.5000 F500.00
G1 X5.9900 Y12.5000 Z-17.0002 F298.73
G1 X6.4849 Y12.5000 Z-17.5000 F298.73
G1 X11.0000 Y12.5000 Z-17.5000 F500.00
G2 X12.0607 Y12.0607 Z-17.5000 I-0.0000 J-1.5000 F500.00
G1 X12.0607 Y12.0607 Z-18.0000 F100.00
G2 X12.5000 Y11.0000 Z-18.0000 I-1.0607 J-1.0607 F500.00
G1 X12.5000 Y6.2899 Z-18.0000 F500.00
G1 X12.5000 Y5.3000 Z-17.0002 F298.73
G1 X12.5000 Y4.3101 Z-18.0000 F298.73
G1 X12.5000 Y1.0000 Z-18.0000 F500.00
G2 X11.0000 Y-0.5000 Z-18.0000 I-1.5000 J0.0000 F500.00
G1 X7.0499 Y-0.5000 Z-18.0000 F500.00
G1 X6.0600 Y-0.5000 Z-17.0002 F298.73
G1 X5.0701 Y-0.5000 Z-18.0000 F298.73
G1 X1.0000 Y-0.5000 Z-18.0000 F500.00
G2 X-0.5000 Y1.0000 Z-18.0000 I0.0000 J1.5000 F500.00
G1 X-0.5000 Y4.9201 Z-18.0000 F500.00
G1 X-0.5000 Y5.9100 Z-17.0002 F298.73
G1 X-0.5000 Y6.8999 Z-18.0000 F298.73
G1 X-0.5000 Y11.0000 Z-18.0000 F500.00
G2 X1.0000 Y12.5000 Z-18.0000 I1.5000 J-0.0000 F500.00
G1 X5.0001 Y12.5000 Z-18.0000 F500.00
G1 X5.9900 Y12.5000 Z-17.0002 F298.73
G1 X6.9799 Y12.5000 Z-18.0000 F298.73
G1 X11.0000 Y12.5000 Z-18.0000 F500.00
G2 X12.0607 Y12.0607 Z-18.0000 I-0.0000 J-1.5000 F500.00
G1 X12.0607 Y12.0607 Z-18.5000 F100.00
G2 X12.5000 Y11.0000 Z-18.5000 I-1.0607 J-1.0607 F500.00
G1 X12.5000 Y6.7850 Z-18.5000 F500.00
G1 X12.5000 Y5.3000 Z-17.0002 F298.73
G1 X12.5000 Y3.8150 Z-18.5000 F298.73
G1 X12.5000 Y1.0000 Z-18.5000 F500.00
G2 X11.0000 Y-0.5000 Z-18.5000 I-1.5000 J0.0000 F500.00
G1 X7.5450 Y-0.5000 Z-18.5000 F500.00
G1 X6.0600 Y-0.5000 Z-17.0002 F298.73
G1 X4.5750 Y-0.5000 Z-18.5000 F298.73
G1 X1.0000 Y-0.5000 Z-18.5000 F500.00
G2 X-0.5000 Y1.0000 Z-18.5000 I0.0000 J1.5000 F500.00
G1 X-0.5000 Y4.4250 Z-18.5000 F500.00
G1 X-0.5000 Y5.9100 Z-17.0002 F298.73
G1 X-0.5000 Y7.3950 Z-18.5000 F298.73
G1 X-0.5000 Y11.0000 Z-18.5000 F500.00
G2 X1.0000 Y12.5000 Z-18.5000 I1.5000 J-0.0000 F500.00
G1 X4.5050 Y12.5000 Z-18.5000 F500.00
G1 X5.9900 Y12.5000 Z-17.0002 F298.73
G1 X7.4750 Y12.5000 Z-18.5000 F298.73
G1 X11.0000 Y12.5000 Z-18.5000 F500.00
G2 X12.0607 Y12.0607 Z-18.5000 I-0.0000 J-1.5000 F500.00
G1 X12.0607 Y12.0607 Z-19.0000 F100.00
G2 X12.5000 Y11.0000 Z-19.0000 I-1.0607 J-1.0607 F500.00
G1 X12.5000 Y7.2800 Z-19.0000 F500.00
G1 X12.5000 Y5.3000 Z-17.0002 F298.73
G1 X12.5000 Y3.3200 Z-19.0000 F298.73
G1 X12.5000 Y1.0000 Z-19.0000 F500.00
G2 X11.0000 Y-0.5000 Z-19.0000 I-1.5000 J0.0000 F500.00
G1 X8.0400 Y-0.5000 Z-19.0000 F500.00
G1 X6.0600 Y-0.5000 Z-17.0002 F298.73
G1 X4.0800 Y-0.5000 Z-19.0000 F298.73
G1 X1.0000 Y-0.5000 Z-19.0000 F500.00
G2 X-0.5000 Y1.0000 Z-19.0000 I0.0000 J1.5000 F500.00
G1 X-0.5000 Y3.9300 Z-19.0000 F500.00
G1 X-0.5000 Y5.9100 Z-17.0002 F298.73
G1 X-0.5000 Y7.8900 Z-19.0000 F298.73
G1 X-0.5000 Y11.0000 Z-19.0000 F500.00
G2 X1.0000 Y12.5000 Z-19.0000 I1.5000 J-0.0000 F500.00
G1 X4.0100 Y12.5000 Z-19.0000 F500.00
G1 X5.9900 Y12.5000 Z-17.0002 F298.73
G1 X7.9700 Y12.5000 Z-19.0000 F298.73
G1 X11.0000 Y12.5000 Z-19.0000 F500.00
G2 X12.0607 Y12.0607 Z-19.0000 I-0.0000 J-1.5000 F500.00
G0 X12.0607 Y12.0607 Z5.0000
(finish operation: TagDressup008)
(begin postamble)
M5
G17 G90
; M2
