(Exported by FreeCAD)
(Post Processor: grbl_post)
(Output Time:2019-09-16 12:15:48.865584)
(begin preamble)
G17 G90
G21
(begin operation: T3: drill bit 2mm)
(Path: T3: drill bit 2mm)
(T3: drill bit 2mm)
(begin toolchange)
; M6 T3
M3 S10000.0000
(finish operation: T3: drill bit 2mm)
(begin operation: Drilling)
(Path: Drilling)
(Drilling)
(Begin Drilling)
G0 Z5.0000
G90
; G98
G81 X20.0000 Y20.0000 Z-2.5000 F300.00 R10.0000
G81 X20.0000 Y40.0000 Z-2.5000 F300.00 R10.0000
G81 X20.0000 Y60.0000 Z-2.5000 F300.00 R10.0000
G81 X20.0000 Y80.0000 Z-2.5000 F300.00 R10.0000
G81 X20.0000 Y100.0000 Z-2.5000 F300.00 R10.0000
G81 X20.0000 Y120.0000 Z-2.5000 F300.00 R10.0000
G81 X20.0000 Y140.0000 Z-2.5000 F300.00 R10.0000
G81 X20.0000 Y160.0000 Z-2.5000 F300.00 R10.0000
G81 X40.0000 Y160.0000 Z-2.5000 F300.00 R10.0000
G81 X40.0000 Y140.0000 Z-2.5000 F300.00 R10.0000
G81 X40.0000 Y120.0000 Z-2.5000 F300.00 R10.0000
G81 X40.0000 Y100.0000 Z-2.5000 F300.00 R10.0000
G81 X40.0000 Y80.0000 Z-2.5000 F300.00 R10.0000
G81 X40.0000 Y60.0000 Z-2.5000 F300.00 R10.0000
G81 X40.0000 Y40.0000 Z-2.5000 F300.00 R10.0000
G81 X40.0000 Y20.0000 Z-2.5000 F300.00 R10.0000
G81 X60.0000 Y20.0000 Z-2.5000 F300.00 R10.0000
G81 X60.0000 Y40.0000 Z-2.5000 F300.00 R10.0000
G81 X60.0000 Y60.0000 Z-2.5000 F300.00 R10.0000
G81 X60.0000 Y80.0000 Z-2.5000 F300.00 R10.0000
G81 X60.0000 Y100.0000 Z-2.5000 F300.00 R10.0000
G81 X60.0000 Y120.0000 Z-2.5000 F300.00 R10.0000
G81 X60.0000 Y140.0000 Z-2.5000 F300.00 R10.0000
G81 X60.0000 Y160.0000 Z-2.5000 F300.00 R10.0000
G81 X80.0000 Y160.0000 Z-2.5000 F300.00 R10.0000
G81 X80.0000 Y140.0000 Z-2.5000 F300.00 R10.0000
G81 X80.0000 Y120.0000 Z-2.5000 F300.00 R10.0000
G81 X80.0000 Y100.0000 Z-2.5000 F300.00 R10.0000
G81 X80.0000 Y80.0000 Z-2.5000 F300.00 R10.0000
G81 X80.0000 Y60.0000 Z-2.5000 F300.00 R10.0000
G81 X80.0000 Y40.0000 Z-2.5000 F300.00 R10.0000
G81 X80.0000 Y20.0000 Z-2.5000 F300.00 R10.0000
G81 X100.0000 Y20.0000 Z-2.5000 F300.00 R10.0000
G81 X100.0000 Y40.0000 Z-2.5000 F300.00 R10.0000
G81 X100.0000 Y60.0000 Z-2.5000 F300.00 R10.0000
G81 X100.0000 Y80.0000 Z-2.5000 F300.00 R10.0000
G81 X100.0000 Y100.0000 Z-2.5000 F300.00 R10.0000
G81 X100.0000 Y120.0000 Z-2.5000 F300.00 R10.0000
G81 X100.0000 Y140.0000 Z-2.5000 F300.00 R10.0000
G81 X100.0000 Y160.0000 Z-2.5000 F300.00 R10.0000
G81 X120.0000 Y160.0000 Z-2.5000 F300.00 R10.0000
G81 X120.0000 Y140.0000 Z-2.5000 F300.00 R10.0000
G81 X120.0000 Y120.0000 Z-2.5000 F300.00 R10.0000
G81 X120.0000 Y100.0000 Z-2.5000 F300.00 R10.0000
G81 X120.0000 Y80.0000 Z-2.5000 F300.00 R10.0000
G81 X120.0000 Y60.0000 Z-2.5000 F300.00 R10.0000
G81 X120.0000 Y40.0000 Z-2.5000 F300.00 R10.0000
G81 X120.0000 Y20.0000 Z-2.5000 F300.00 R10.0000
G81 X140.0000 Y20.0000 Z-2.5000 F300.00 R10.0000
G81 X140.0000 Y40.0000 Z-2.5000 F300.00 R10.0000
G81 X140.0000 Y60.0000 Z-2.5000 F300.00 R10.0000
G81 X140.0000 Y80.0000 Z-2.5000 F300.00 R10.0000
G81 X140.0000 Y100.0000 Z-2.5000 F300.00 R10.0000
G81 X140.0000 Y120.0000 Z-2.5000 F300.00 R10.0000
G81 X140.0000 Y140.0000 Z-2.5000 F300.00 R10.0000
G81 X140.0000 Y160.0000 Z-2.5000 F300.00 R10.0000
G81 X160.0000 Y160.0000 Z-2.5000 F300.00 R10.0000
G81 X160.0000 Y140.0000 Z-2.5000 F300.00 R10.0000
G81 X160.0000 Y120.0000 Z-2.5000 F300.00 R10.0000
G81 X160.0000 Y100.0000 Z-2.5000 F300.00 R10.0000
G81 X160.0000 Y80.0000 Z-2.5000 F300.00 R10.0000
G81 X160.0000 Y60.0000 Z-2.5000 F300.00 R10.0000
G81 X160.0000 Y40.0000 Z-2.5000 F300.00 R10.0000
G81 X160.0000 Y20.0000 Z-2.5000 F300.00 R10.0000
G81 X180.0000 Y20.0000 Z-2.5000 F300.00 R10.0000
G81 X180.0000 Y40.0000 Z-2.5000 F300.00 R10.0000
G81 X180.0000 Y60.0000 Z-2.5000 F300.00 R10.0000
G81 X180.0000 Y80.0000 Z-2.5000 F300.00 R10.0000
G81 X180.0000 Y100.0000 Z-2.5000 F300.00 R10.0000
G81 X180.0000 Y120.0000 Z-2.5000 F300.00 R10.0000
G81 X180.0000 Y140.0000 Z-2.5000 F300.00 R10.0000
G81 X180.0000 Y160.0000 Z-2.5000 F300.00 R10.0000
G81 X200.0000 Y160.0000 Z-2.5000 F300.00 R10.0000
G81 X200.0000 Y140.0000 Z-2.5000 F300.00 R10.0000
G81 X200.0000 Y120.0000 Z-2.5000 F300.00 R10.0000
G81 X200.0000 Y100.0000 Z-2.5000 F300.00 R10.0000
G81 X200.0000 Y80.0000 Z-2.5000 F300.00 R10.0000
G81 X200.0000 Y60.0000 Z-2.5000 F300.00 R10.0000
G81 X200.0000 Y40.0000 Z-2.5000 F300.00 R10.0000
G81 X200.0000 Y20.0000 Z-2.5000 F300.00 R10.0000
G81 X220.0000 Y20.0000 Z-2.5000 F300.00 R10.0000
G81 X220.0000 Y40.0000 Z-2.5000 F300.00 R10.0000
G81 X220.0000 Y60.0000 Z-2.5000 F300.00 R10.0000
G81 X220.0000 Y80.0000 Z-2.5000 F300.00 R10.0000
G81 X220.0000 Y100.0000 Z-2.5000 F300.00 R10.0000
G81 X220.0000 Y120.0000 Z-2.5000 F300.00 R10.0000
G81 X220.0000 Y140.0000 Z-2.5000 F300.00 R10.0000
G81 X220.0000 Y160.0000 Z-2.5000 F300.00 R10.0000
G81 X240.0000 Y160.0000 Z-2.5000 F300.00 R10.0000
G81 X240.0000 Y140.0000 Z-2.5000 F300.00 R10.0000
G81 X240.0000 Y120.0000 Z-2.5000 F300.00 R10.0000
G81 X240.0000 Y100.0000 Z-2.5000 F300.00 R10.0000
G81 X240.0000 Y80.0000 Z-2.5000 F300.00 R10.0000
G81 X240.0000 Y60.0000 Z-2.5000 F300.00 R10.0000
G81 X240.0000 Y40.0000 Z-2.5000 F300.00 R10.0000
G81 X240.0000 Y20.0000 Z-2.5000 F300.00 R10.0000
G81 X260.0000 Y20.0000 Z-2.5000 F300.00 R10.0000
G81 X260.0000 Y40.0000 Z-2.5000 F300.00 R10.0000
G81 X260.0000 Y60.0000 Z-2.5000 F300.00 R10.0000
G81 X260.0000 Y80.0000 Z-2.5000 F300.00 R10.0000
G81 X260.0000 Y100.0000 Z-2.5000 F300.00 R10.0000
G81 X260.0000 Y120.0000 Z-2.5000 F300.00 R10.0000
G81 X260.0000 Y140.0000 Z-2.5000 F300.00 R10.0000
G81 X280.0000 Y140.0000 Z-2.5000 F300.00 R10.0000
G81 X280.0000 Y120.0000 Z-2.5000 F300.00 R10.0000
G81 X280.0000 Y100.0000 Z-2.5000 F300.00 R10.0000
G81 X280.0000 Y80.0000 Z-2.5000 F300.00 R10.0000
G81 X280.0000 Y60.0000 Z-2.5000 F300.00 R10.0000
G81 X280.0000 Y40.0000 Z-2.5000 F300.00 R10.0000
G81 X280.0000 Y20.0000 Z-2.5000 F300.00 R10.0000
; G80
G0 Z5.0000
(finish operation: Drilling)
(begin postamble)
M5
G17 G90
; M2
